latent/luts/01Glaze.cube
TITLE "Glaze"
#LUMIXPHOTOSTYLE STD
# look 01Glaze (琉璃)  order=PGN  source=01Glaze.json
LUT_3D_SIZE 33
0.0000000000 0.0000000000 0.0000000000
0.0076671037 0.0005939846 0.0005017896
0.0191596048 0.0013137878 0.0011108119
0.0363722548 0.0024396526 0.0020655494
0.0586218450 0.0040777441 0.0034543796
0.0838325900 0.0060084136 0.0050517943
0.1132370914 0.0081842522 0.0067917931
0.1458311318 0.0106371237 0.0086641874
0.1800921401 0.0135271946 0.0107153874
0.2143190650 0.0164486996 0.0129701583
0.2506190796 0.0216220877 0.0158094591
0.2881635501 0.0275399901 0.0194165500
0.3260649469 0.0331244101 0.0235814142
0.3637879637 0.0381322015 0.0274149109
0.4009372363 0.0422735742 0.0307369362
0.4370535663 0.0457608370 0.0339398928
0.4722146070 0.0489735550 0.0374494728
0.5071653032 0.0523220005 0.0415272781
0.5421352462 0.0563404823 0.0463364843
0.5771537473 0.0613850532 0.0518550626
0.6118978660 0.0673578990 0.0578766095
0.6459341555 0.0738979490 0.0641484883
0.6790440147 0.0811072447 0.0706077667
0.7115483724 0.0889247015 0.0774405469
0.7434549651 0.0972105070 0.0848932235
0.7741897960 0.1058363155 0.0929977288
0.8032228832 0.1146574674 0.1017780973
0.8300847053 0.1234967936 0.1112643546
0.8544036183 0.1321995348 0.1215190969
0.8763152655 0.1410740352 0.1327909010
0.8988397215 0.1557291643 0.1471142965
0.9218095074 0.1807957291 0.1666077048
0.9406968881 0.2037800007 0.1867271197
0.0014972798 0.0091016080 0.0014181677
0.0101694870 0.0102810565 0.0012174482
0.0233738387 0.0110579881 0.0016265024
0.0421167476 0.0122588200 0.0022711148
0.0647790277 0.0139634602 0.0031682249
0.0905486471 0.0161502323 0.0043034773
0.1209107112 0.0187839775 0.0056580978
0.1544391290 0.0219347262 0.0072766502
0.1892259881 0.0257607922 0.0092832746
0.2238341115 0.0302880285 0.0118435295
0.2594664172 0.0344610258 0.0146642408
0.2957714826 0.0407030494 0.0192683755
0.3325845248 0.0463691853 0.0239664517
0.3698284499 0.0512213244 0.0278849813
0.4070164837 0.0551268393 0.0310099620
0.4433528312 0.0583517346 0.0338845165
0.4788719497 0.0612155586 0.0369932558
0.5140242215 0.0640974733 0.0406929060
0.5489087108 0.0675142902 0.0452563223
0.5835774967 0.0718621329 0.0507189916
0.6178669557 0.0773378635 0.0568714455
0.6514535561 0.0837053406 0.0633465126
0.6841278540 0.0907647762 0.0699697667
0.7163155793 0.0984255388 0.0768811360
0.7478745396 0.1065476385 0.0843711894
0.7782616951 0.1150043756 0.0924925134
0.8069590794 0.1236700211 0.1012662353
0.8335057764 0.1323931075 0.1107199446
0.8575401297 0.1410705618 0.1209242484
0.8793695283 0.1500719940 0.1321684995
0.9017087034 0.1648216075 0.1468383331
0.9239971622 0.1890664951 0.1669013073
0.9423113112 0.2111300506 0.1872035831
0.0032851183 0.0223666337 0.0031246063
0.0118641590 0.0247128208 0.0023130573
0.0255278149 0.0257771893 0.0026302606
0.0445257941 0.0270563420 0.0031593384
0.0670710355 0.0287451841 0.0038399537
0.0928075063 0.0309579346 0.0047285490
0.1233486155 0.0337287040 0.0058819313
0.1574184185 0.0371529934 0.0074470834
0.1928276648 0.0411527241 0.0095524172
0.2280118029 0.0455236697 0.0122817772
0.2640097485 0.0499522609 0.0155853023
0.3005552295 0.0543317088 0.0194925928
0.3366406882 0.0600740134 0.0248412163
0.3736499978 0.0646805449 0.0289299341
0.4109818148 0.0683612704 0.0320359206
0.4476715832 0.0713618698 0.0347480859
0.4837483292 0.0739301058 0.0375370160
0.5193795427 0.0764222092 0.0408590163
0.5545071939 0.0793548741 0.0450925189
0.5891421434 0.0832233771 0.0503570183
0.6232057681 0.0883052308 0.0564870605
0.6565090377 0.0944456714 0.0630863523
0.6889112558 0.1012950901 0.0698136476
0.7208809429 0.1087464680 0.0767677425
0.7521656418 0.1166652460 0.0842455175
0.7822611279 0.1249153106 0.0923370165
0.8106630874 0.1333868875 0.1010648637
0.8369199435 0.1419539214 0.1104554784
0.8606799631 0.1505634440 0.1205922249
0.8824677095 0.1596462280 0.1318145266
0.9046075673 0.1744656682 0.1468620260
0.9262304297 0.1978596360 0.1674439944
0.9439836211 0.2191506143 0.1878868884
0.0054482581 0.0410182471 0.0052010509
0.0138512164 0.0441948689 0.0038003383
0.0277165801 0.0458661320 0.0037389553
0.0470727017 0.0474042949 0.0042965358
0.0695384620 0.0491300090 0.0049793490
0.0950651535 0.0511911133 0.0057975280
0.1252237788 0.0538481651 0.0069237565
0.1591565509 0.0572931751 0.0086567435
0.1947700272 0.0613435812 0.0111947238
0.2303832931 0.0654266336 0.0142900180
0.2667764616 0.0694323389 0.0179459427
0.3038590678 0.0729318288 0.0213356420
0.3403904315 0.0772712893 0.0258804430
0.3768891587 0.0820456549 0.0306420634
0.4141973093 0.0857900008 0.0339488681
0.4511758629 0.0889073062 0.0366689320
0.4878970509 0.0914499567 0.0392283742
0.5242685989 0.0937001094 0.0421748812
0.5600113137 0.0961387944 0.0459883659
0.5949853617 0.0993133497 0.0508989860
0.6290963426 0.1036716171 0.0568399593
0.6622550817 0.1092970134 0.0634660616
0.6945063171 0.1157796772 0.0702783164
0.7263273346 0.1228755025 0.0772643281
0.7573659114 0.1304641776 0.0846841293
0.7871665639 0.1383934983 0.0926778262
0.8152512474 0.1465599762 0.1012947629
0.8411797775 0.1548703367 0.1105641634
0.8646115048 0.1633301497 0.1205917309
0.8864046707 0.1724513453 0.1317986855
0.9082703520 0.1873121425 0.1473768225
0.9290759783 0.2096071775 0.1685264280
0.9461461044 0.2301774960 0.1890878440
0.0076483114 0.0625701323 0.0073401033
0.0158498523 0.0660262513 0.0054452074
0.0296644666 0.0682564524 0.0048723301
0.0492348538 0.0701758289 0.0053020288
0.0718931090 0.0721476051 0.0061245151
0.0976553493 0.0742640701 0.0070425629
0.1277137969 0.0768998919 0.0083454043
0.1614054160 0.0804680320 0.0106274836
0.1966339124 0.0846056212 0.0139414150
0.2319548045 0.0889162543 0.0180234300
0.2682303594 0.0928403680 0.0217473440
0.3051820317 0.0965770167 0.0253723715
0.3435332891 0.0993089270 0.0275273471
0.3800515814 0.1037495705 0.0323341019
0.4166459624 0.1080407030 0.0366758185
0.4535389302 0.1113970628 0.0397226032
0.4906608689 0.1140556498 0.0422675449
0.5277677380 0.1161684389 0.0449284062
0.5643755553 0.1181141565 0.0483048252
0.6001153072 0.1204404166 0.0527607815
0.6347275108 0.1237454691 0.0583529080
0.6680782751 0.1283948606 0.0648193663
0.7003956274 0.1342369475 0.0716762992
0.7322080343 0.1407771775 0.0787174106
0.7631039012 0.1478534992 0.0860637134
0.7926571548 0.1553182425 0.0938725508
0.8204454209 0.1630420996 0.1022893057
0.8460428640 0.1709699053 0.1113632869
0.8691365808 0.1791640988 0.1212321609
0.8909955724 0.1882460669 0.1324521421
0.9125037717 0.2030697098 0.1487404187
0.9323884472 0.2244074146 0.1703987963
0.9487024784 0.2442401733 0.1910282465
0.0098667753 0.0855356722 0.0095307244
0.0178277714 0.0891810083 0.0071833713
0.0314659973 0.0919850231 0.0060017917
0.0509039332 0.0945209817 0.0060474407
0.0736470489 0.0970669070 0.0068476627
0.0998018269 0.0997828860 0.0079713691
0.1297272184 0.1026076689 0.0091924350
0.1633608768 0.1064222235 0.0115442016
0.1990840514 0.1117055336 0.0169335427
0.2338168276 0.1165164655 0.0225577263
0.2695450512 0.1204955228 0.0266879377
0.3066619381 0.1238393997 0.0296197723
0.3444543184 0.1270563141 0.0324817212
0.3833985016 0.1292963267 0.0336922334
0.4191441528 0.1338807065 0.0393176548
0.4552362603 0.1377377462 0.0434677121
0.4921942465 0.1406957036 0.0463963849
0.5296336969 0.1429305720 0.0490211047
0.5669915111 0.1446259798 0.0520536373
0.6037005410 0.1462195751 0.0560441250
0.6392576825 0.1483422783 0.0611946185
0.6733066253 0.1516171749 0.0673522899
0.7060830455 0.1563039067 0.0741409738
0.7380817123 0.1620427404 0.0813093062
0.7690001549 0.1683856048 0.0886301856
0.7984152220 0.1752012854 0.0962200461
0.8259597388 0.1823353623 0.1043317327
0.8512511180 0.1897476600 0.1131319796
0.8741209350 0.1975401495 0.1227912836
0.8960197628 0.2064999510 0.1340976721
0.9170755270 0.2215349706 0.1512967963
0.9359897049 0.2420467009 0.1732677188
0.9515206669 0.2611480963 0.1939183774
0.0121885275 0.1115089018 0.0118188471
0.0199777598 0.1151338343 0.0090694864
0.0333869020 0.1182449298 0.0072303930
0.0524669174 0.1211762524 0.0066638583
0.0749867252 0.1241363500 0.0071046117
0.1012422228 0.1273086311 0.0081898152
0.1313551273 0.1307388987 0.0096082963
0.1641584376 0.1342457419 0.0111555290
0.1995566328 0.1388758579 0.0144415880
0.2363821920 0.1453180365 0.0232919010
0.2718749593 0.1505531816 0.0311545263
0.3085779078 0.1537862976 0.0341586286
0.3463040026 0.1567747188 0.0366830229
0.3840525608 0.1598325520 0.0396154215
0.4223631764 0.1620477877 0.0408554553
0.4571699237 0.1664471665 0.0470254891
0.4933013151 0.1698356880 0.0510049513
0.5304432952 0.1723959763 0.0539809252
0.5680420469 0.1742025500 0.0568907445
0.6054905537 0.1754606399 0.0604829480
0.6421195533 0.1766573031 0.0651814713
0.6772990784 0.1784834420 0.0709673487
0.7110826733 0.1815585631 0.0776663898
0.7436264987 0.1860349842 0.0849666956
0.7747657567 0.1914193235 0.0923985367
0.8042127469 0.1973653419 0.0998641393
0.8315985956 0.2037557300 0.1076170350
0.8566193101 0.2105863983 0.1160723407
0.8794135226 0.2180388315 0.1254779622
0.9012945290 0.2272351149 0.1370306220
0.9217859101 0.2427737545 0.1553362312
0.9397349617 0.2622022073 0.1772716008
0.9544807797 0.2806410021 0.1979397084
0.0145235017 0.1400820313 0.0142053137
0.0225572719 0.1435292087 0.0111735416
0.0358003903 0.1466117483 0.0087413860
0.0544552044 0.1495768099 0.0074577522
0.0764848526 0.1525938924 0.0072681646
0.1024992379 0.1558874220 0.0079133657
0.1323961556 0.1595689611 0.0091639076
0.1651112975 0.1635899116 0.0108013582
0.1993170385 0.1676751766 0.0126426260
0.2356830289 0.1725129026 0.0160894242
0.2748516489 0.1789967188 0.0262359114
0.3115703977 0.1845667237 0.0366704465
0.3484588595 0.1879841714 0.0411040587
0.3860231366 0.1908145270 0.0439258594
0.4237444765 0.1932872532 0.0458843400
0.4600586293 0.1960629547 0.0491391826
0.4948212307 0.1999563558 0.0553218812
0.5311234968 0.2028438381 0.0591540436
0.5683298522 0.2049661779 0.0622802235
0.6059459832 0.2063245571 0.0656163556
0.6433195646 0.2071279359 0.0698619347
0.6796814067 0.2078960402 0.0753279411
0.7148670760 0.2093624491 0.0819821308
0.7485304212 0.2121440671 0.0893988521
0.7802117057 0.2163313465 0.0970792383
0.8098795960 0.2214060358 0.1046413982
0.8372508954 0.2271821704 0.1122070696
0.8620397045 0.2336702231 0.1202938611
0.8849020041 0.2409230298 0.1294255797
0.9066751445 0.2505266488 0.1415338733
0.9264776227 0.2664731856 0.1610548378
0.9435254247 0.2845449788 0.1824976247
0.9574870676 0.3024148370 0.2032269076
0.0181757154 0.1711988195 0.0170543402
0.0262265519 0.1740412317 0.0136262290
0.0390329348 0.1767507417 0.0106369663
0.0573473242 0.1794701389 0.0087457644
0.0788584863 0.1822173632 0.0081233006
0.1043275442 0.1851795092 0.0080459569
0.1336558484 0.1886161936 0.0086631191
0.1657873951 0.1925962314 0.0098686765
0.1995836595 0.1969921108 0.0115356982
0.2347936361 0.2014598122 0.0135250664
0.2730552883 0.2062630799 0.0167637367
0.3141680321 0.2124093384 0.0269925170
0.3521576905 0.2181992570 0.0399707886
0.3884477204 0.2222362838 0.0477065263
0.4251494626 0.2251048550 0.0513962992
0.4625812502 0.2270551305 0.0519057653
0.4973182844 0.2305765587 0.0582232878
0.5323638157 0.2340291198 0.0639192034
0.5687498969 0.2366013697 0.0676376995
0.6059342281 0.2383944361 0.0709719401
0.6434536794 0.2393492981 0.0748558446
0.6806049738 0.2397005363 0.0799912497
0.7171531666 0.2400402489 0.0865215482
0.7523406848 0.2411847749 0.0940902235
0.7851615935 0.2437735996 0.1020968017
0.8153045246 0.2478288994 0.1100493678
0.8428155134 0.2528803354 0.1178139467
0.8674674208 0.2588976709 0.1257869038
0.8905173364 0.2659437677 0.1347116483
0.9120357861 0.2761603722 0.1478973089
0.9310437474 0.2922304738 0.1684878344
0.9472956136 0.3088315342 0.1890836836
0.9604695914 0.3261363875 0.2099004458
0.0233711253 0.2036992855 0.0202883172
0.0327161300 0.2062472917 0.0166331011
0.0454787939 0.2085247439 0.0137230118
0.0621936572 0.2107043029 0.0114230005
0.0823671907 0.2128436139 0.0097573462
0.1071873718 0.2152366512 0.0090194616
0.1357686985 0.2182169282 0.0095661075
0.1670348183 0.2216963137 0.0100309816
0.1999640683 0.2258896701 0.0109697301
0.2344911091 0.2306496466 0.0123794255
0.2716307122 0.2355956499 0.0142143100
0.3111915842 0.2406796593 0.0169654933
0.3535607053 0.2468140049 0.0267652988
0.3926619405 0.2528565827 0.0417266743
0.4281326713 0.2575817986 0.0532069131
0.4638702418 0.2605550777 0.0576221611
0.5002167980 0.2629194003 0.0601192486
0.5344859038 0.2665397995 0.0674911799
0.5698339299 0.2695328556 0.0724794361
0.6062404379 0.2717552583 0.0762228530
0.6433495809 0.2731221730 0.0799701091
0.6806863617 0.2735686228 0.0846202877
0.7181357416 0.2733753254 0.0907502891
0.7548078463 0.2732260388 0.0983031321
0.7892000462 0.2740290053 0.1067059083
0.8203753426 0.2764854467 0.1153032401
0.8481965876 0.2806093553 0.1237699527
0.8729413535 0.2859804972 0.1321798287
0.8962039215 0.2928433548 0.1414287618
0.9172459855 0.3039026876 0.1563958886
0.9354474667 0.3195228609 0.1774165562
0.9509948769 0.3347794776 0.1971094799
0.9633808832 0.3514522312 0.2180873995
0.0303161764 0.2372449740 0.0235192521
0.0408399407 0.2397006271 0.0197169319
0.0528199830 0.2417359778 0.0169642607
0.0683327744 0.2437715716 0.0146809080
0.0875508523 0.2457304716 0.0129167745
0.1113301075 0.2476949432 0.0116211024
0.1389924498 0.2498834800 0.0106813045
0.1694055802 0.2526658301 0.0104459225
0.2011746317 0.2564259836 0.0118119605
0.2346943007 0.2608480323 0.0128931174
0.2709484541 0.2658683638 0.0140042445
0.3094211212 0.2711502727 0.0154430458
0.3496227428 0.2764566941 0.0174919726
0.3923315136 0.2825482467 0.0262291798
0.4321907311 0.2886384049 0.0425540446
0.4673090854 0.2937491080 0.0568093401
0.5027727443 0.2969044353 0.0623068737
0.5371553471 0.3001890167 0.0698033104
0.5716840699 0.3033904532 0.0764541124
0.6072593104 0.3059076184 0.0810169158
0.6436635311 0.3076816747 0.0848936490
0.6806644029 0.3084981029 0.0890680753
0.7183985336 0.3083193033 0.0944568678
0.7560994647 0.3075054917 0.1015328203
0.7920344185 0.3068822113 0.1101058286
0.8246815007 0.3075166373 0.1195313697
0.8532940962 0.3101580825 0.1291367033
0.8784008232 0.3147052651 0.1386548967
0.9018030910 0.3215552805 0.1496405148
0.9221746012 0.3334127928 0.1671284070
0.9397381931 0.3477562598 0.1873582926
0.9545911537 0.3620202832 0.2065109812
0.9661903504 0.3779954879 0.2278212531
0.0404884257 0.2727364229 0.0266911065
0.0509500499 0.2748310054 0.0233333431
0.0617502775 0.2765840616 0.0208422360
0.0758926755 0.2784800267 0.0184994859
0.0942636971 0.2803914759 0.0165494371
0.1169927277 0.2822762532 0.0150792559
0.1434634610 0.2842012271 0.0140426390
0.1727224812 0.2863608108 0.0133092120
0.2036177848 0.2890157185 0.0127465028
0.2361716399 0.2924782820 0.0126464755
0.2711656512 0.2970482338 0.0139995523
0.3085633605 0.3023293752 0.0161110564
0.3477871267 0.3077736798 0.0174980939
0.3880388255 0.3131836116 0.0190035403
0.4299862691 0.3191558348 0.0256940777
0.4705556607 0.3250295668 0.0412143123
0.5069079743 0.3300760666 0.0561369090
0.5404451096 0.3343983883 0.0698477615
0.5740715573 0.3378905728 0.0792924425
0.6089744357 0.3405480621 0.0849810214
0.6446844937 0.3425665490 0.0892188553
0.6810833164 0.3437659569 0.0931335767
0.7185973937 0.3439061238 0.0976640174
0.7567035851 0.3430265556 0.1037719791
0.7937322143 0.3416535454 0.1119519973
0.8278594317 0.3408056207 0.1219470425
0.8577342138 0.3416453303 0.1329391246
0.8836627498 0.3449705479 0.1443742185
0.9069480770 0.3522487047 0.1593663662
0.9267533780 0.3640980393 0.1794464410
0.9439613418 0.3766185955 0.1980737547
0.9580659903 0.3901754215 0.2173215328
0.9688788072 0.4053920058 0.2390723066
0.0533463233 0.3095325119 0.0305576383
0.0624747291 0.3111496893 0.0279142932
0.0720392908 0.3126258455 0.0256922606
0.0852831115 0.3143263551 0.0233796222
0.1027624993 0.3161303957 0.0212491138
0.1243496516 0.3179639873 0.0194667779
0.1495450109 0.3198289446 0.0180850984
0.1774947823 0.3217979370 0.0170956186
0.2070874106 0.3240097105 0.0164712005
0.2386346561 0.3266835732 0.0161028134
0.2726463326 0.3300671539 0.0158895226
0.3088337304 0.3343479519 0.0159969256
0.3468000872 0.3394352797 0.0168608709
0.3860156580 0.3449057862 0.0181555274
0.4255992832 0.3503388114 0.0192826645
0.4657938360 0.3561241567 0.0221658946
0.5079554131 0.3617609928 0.0385637494
0.5448949453 0.3671105415 0.0595674607
0.5780596790 0.3717953068 0.0767881998
0.6114098440 0.3752436204 0.0872895261
0.6463622204 0.3774805592 0.0925599533
0.6821625461 0.3789253372 0.0964197288
0.7191913041 0.3794410476 0.1002936525
0.7571646294 0.3788629835 0.1052814684
0.7946742300 0.3773802553 0.1124644041
0.8299020329 0.3757105021 0.1223179437
0.8611162010 0.3750266063 0.1344040880
0.8881594830 0.3771765710 0.1492901513
0.9112351167 0.3848530266 0.1704709127
0.9311129074 0.3950762916 0.1912895904
0.9480514943 0.4060710444 0.2096343394
0.9614085294 0.4188649754 0.2294505097
0.9714333922 0.4332665751 0.2517356499
0.0668497972 0.3469723030 0.0363013046
0.0748452562 0.3482412595 0.0340942208
0.0837611621 0.3494651189 0.0320804817
0.0963915650 0.3509431105 0.0298187515
0.1129945390 0.3525802509 0.0275615845
0.1334425580 0.3543004043 0.0255097598
0.1572999509 0.3560776246 0.0237685588
0.1838238815 0.3579361746 0.0223727707
0.2120867583 0.3599479968 0.0213245653
0.2426166931 0.3622318510 0.0206281623
0.2755209253 0.3649508491 0.0203134131
0.3105053153 0.3683101260 0.0203737870
0.3473072016 0.3724644243 0.0207811141
0.3854733891 0.3773077607 0.0216490800
0.4243783884 0.3825393803 0.0230838632
0.4633154101 0.3877563517 0.0245143547
0.5027073834 0.3931372648 0.0250504294
0.5448021061 0.3985433773 0.0409301473
0.5824234217 0.4037352629 0.0626879072
0.6160563086 0.4083055975 0.0808308185
0.6492543321 0.4116630180 0.0925900879
0.6838867577 0.4136462260 0.0984771437
0.7203459565 0.4144789632 0.1020391851
0.7578804639 0.4143080904 0.1060891972
0.7953401533 0.4131150579 0.1120294421
0.8311137340 0.4112735340 0.1209985046
0.8633838499 0.4096896976 0.1333654464
0.8913990875 0.4111594119 0.1530106894
0.9147945291 0.4181562073 0.1803950674
0.9353300004 0.4260267195 0.2013051216
0.9519172537 0.4358899084 0.2214439806
0.9646040405 0.4477361565 0.2425992097
0.9738436977 0.4614071315 0.2656175283
0.0812012266 0.3844972416 0.0438929683
0.0887671733 0.3855153431 0.0420449070
0.0972456224 0.3865351653 0.0402642526
0.1092244907 0.3878116761 0.0381496549
0.1249238897 0.3892762053 0.0359043188
0.1442132062 0.3908612009 0.0337236038
0.1666959500 0.3925299376 0.0317362701
0.1917089666 0.3942793413 0.0300048738
0.2186207028 0.3961384503 0.0285473778
0.2481035390 0.3981697894 0.0273708332
0.2799652597 0.4004845182 0.0265502169
0.3138415902 0.4032171214 0.0261582711
0.3494039501 0.4065244759 0.0263126957
0.3863331107 0.4105080561 0.0271476184
0.4241690128 0.4150706835 0.0287148869
0.4624563170 0.4199626357 0.0312174557
0.5016255828 0.4248399826 0.0348391138
0.5412447659 0.4296688870 0.0364002565
0.5812844287 0.4345787573 0.0417235761
0.6197758571 0.4393129430 0.0627428877
0.6541763682 0.4435507156 0.0813945108
0.6873955063 0.4467503462 0.0947565375
0.7222879554 0.4485255030 0.1019442043
0.7590347287 0.4488764119 0.1059541133
0.7960996534 0.4481236961 0.1107272860
0.8319108816 0.4465361125 0.1184451760
0.8647735018 0.4446896202 0.1302402846
0.8934854554 0.4458714179 0.1548656424
0.9181003945 0.4509481492 0.1855059532
0.9391252887 0.4573097392 0.2096728070
0.9554787253 0.4660715851 0.2325894943
0.9675928245 0.4770645008 0.2559685680
0.9760968334 0.4901046642 0.2804093504
0.0974394212 0.4215216148 0.0530542953
0.1046486253 0.4223386762 0.0514784202
0.1127075292 0.4231792033 0.0499018747
0.1240599207 0.4242605326 0.0479527865
0.1388871030 0.4255381191 0.0457874332
0.1570427098 0.4269603556 0.0435858652
0.1781410749 0.4284941269 0.0414931542
0.2015605244 0.4301289016 0.0396037048
0.2271701357 0.4318752365 0.0379666320
0.2554514786 0.4337628460 0.0366028253
0.2861133811 0.4358419456 0.0355300875
0.3188160304 0.4381874414 0.0347911792
0.3531932794 0.4409012789 0.0344809356
0.3888801703 0.4441055200 0.0347645872
0.4254677830 0.4478684683 0.0358341789
0.4625900972 0.4520997145 0.0378334766
0.5007409694 0.4565986057 0.0408578246
0.5397067655 0.4610970597 0.0449028411
0.5791633804 0.4655365070 0.0496320433
0.6183500899 0.4699282522 0.0492196576
0.6566356800 0.4740511464 0.0599286904
0.6920283582 0.4779128663 0.0790563281
0.7262261939 0.4808964833 0.0938397212
0.7612546675 0.4824875222 0.1027821953
0.7972260208 0.4825484405 0.1083422950
0.8326494741 0.4814217285 0.1148631357
0.8656131014 0.4797446279 0.1256640836
0.8946688323 0.4810346747 0.1555544145
0.9207389450 0.4843184254 0.1872839232
0.9423617378 0.4894073135 0.2154639988
0.9586834327 0.4970343661 0.2422720466
0.9703136816 0.5070879414 0.2685917471
0.9781967859 0.5193492373 0.2954008500
0.1153195374 0.4577202062 0.0639793548
0.1221655682 0.4583857445 0.0626295832
0.1298020535 0.4590839673 0.0612404126
0.1405323204 0.4600013350 0.0594666949
0.1545051170 0.4611108183 0.0574182441
0.1715596191 0.4623749531 0.0552434570
0.1913139195 0.4637669835 0.0530821788
0.2132813725 0.4652758199 0.0510490011
0.2378619796 0.4669056050 0.0492272174
0.2650070112 0.4686731820 0.0476666462
0.2944420477 0.4706067175 0.0463968833
0.3258617768 0.4727472815 0.0454478718
0.3589294282 0.4751525165 0.0448730632
0.3932789285 0.4778990117 0.0447698282
0.4285200211 0.4810765272 0.0452913296
0.4643812746 0.4847141873 0.0465996109
0.5013593475 0.4887243015 0.0488209832
0.5393086740 0.4929397906 0.0520509742
0.5778939725 0.4971393575 0.0563126687
0.6167719981 0.5012155145 0.0613963811
0.6555275460 0.5053482124 0.0662167772
0.6932540813 0.5088834954 0.0657655628
0.7299221949 0.5119453365 0.0745442232
0.7650162054 0.5145593241 0.0904723725
0.7995543862 0.5159305756 0.1015707578
0.8337536802 0.5158651460 0.1098398234
0.8661570194 0.5149552259 0.1217791955
0.8953327042 0.5164487115 0.1559727304
0.9226668771 0.5184107415 0.1870672564
0.9449828992 0.5223248377 0.2184656033
0.9614611286 0.5287433017 0.2495932864
0.9727332250 0.5377578175 0.2797394207
0.9801745070 0.5491407369 0.3096551457
0.1345985954 0.4936596616 0.0767651338
0.1410535451 0.4942171917 0.0755776237
0.1482416955 0.4948104504 0.0743392591
0.1583223424 0.4956021270 0.0727332197
0.1714181042 0.4965765592 0.0708413824
0.1873588802 0.4977066190 0.0687725193
0.2057707254 0.4989710907 0.0666271365
0.2267373171 0.5003596796 0.0645158488
0.2503932323 0.5018735987 0.0625351411
0.2765004117 0.5035235395 0.0607643194
0.3047876495 0.5053274582 0.0592662191
0.3349597401 0.5073099810 0.0580856944
0.3666994521 0.5095036008 0.0572616380
0.3996627327 0.5119512924 0.0568500999
0.4334719340 0.5147084721 0.0569426700
0.4680025192 0.5178370548 0.0576756612
0.5037393908 0.5213405379 0.0591849818
0.5405273850 0.5251356958 0.0615862670
0.5781142776 0.5290795552 0.0649720299
0.6161755032 0.5329862546 0.0693783113
0.6543590031 0.5367236912 0.0747625905
0.6923835286 0.5404662880 0.0804453440
0.7302187824 0.5439194520 0.0858214575
0.7669341579 0.5466750428 0.0911985330
0.8022870180 0.5482720404 0.0930080730
0.8355954947 0.5493890261 0.1048875611
0.8664383194 0.5503750995 0.1277506581
0.8961202961 0.5513774618 0.1559714956
0.9240917336 0.5528132762 0.1864361158
0.9470269579 0.5558283872 0.2194972182
0.9637682585 0.5611061014 0.2542422176
0.9748261461 0.5690001879 0.2888247364
0.9820005142 0.5794364975 0.3224960505
0.1551536666 0.5294052211 0.0923053751
0.1611685085 0.5298781142 0.0912244754
0.1678586253 0.5303869701 0.0900753480
0.1772277922 0.5310745468 0.0885499398
0.1893781392 0.5319330562 0.0866985819
0.2041369970 0.5329433214 0.0846131728
0.2215359612 0.5340889028 0.0823963650
0.2417156692 0.5353607198 0.0801509250
0.2644919056 0.5367583529 0.0779734929
0.2896249187 0.5382888546 0.0759510973
0.3168390125 0.5399646658 0.0741594964
0.3458367190 0.5418020430 0.0726626070
0.3763043107 0.5438208463 0.0715156211
0.4079082821 0.5460458915 0.0707658655
0.4402876442 0.5485086300 0.0704646019
0.4734933909 0.5512480596 0.0706925072
0.5079445429 0.5543036884 0.0715692380
0.5434969563 0.5576610328 0.0732222621
