latent/luts/01Glaze.cube
TITLE "Glaze"
#LUMIXPHOTOSTYLE STD
# look 01Glaze (琉璃)  order=PGN  source=01Glaze.json
LUT_3D_SIZE 5
0.0000000000 0.0000000000 0.0000000000
0.1800921401 0.0135271946 0.0107153874
0.4722146070 0.0489735550 0.0374494728
0.7434549651 0.0972105070 0.0848932235
0.9406968881 0.2037800007 0.1867271197
0.0181757154 0.1711988195 0.0170543402
0.1995836595 0.1969921108 0.0115356982
0.4973182844 0.2305765587 0.0582232878
0.7851615935 0.2437735996 0.1020968017
0.9604695914 0.3261363875 0.2099004458
0.1153195374 0.4577202062 0.0639793548
0.2378619796 0.4669056050 0.0492272174
0.5013593475 0.4887243015 0.0488209832
0.7995543862 0.5159305756 0.1015707578
0.9801745070 0.5491407369 0.3096551457
0.3072207132 0.7345725309 0.2309954662
0.3804705376 0.7395615968 0.2250803380
0.5617481744 0.7530760103 0.2073872983
0.8133789795 0.7715526682 0.2015451312
0.9913160965 0.7965111157 0.3916710293
0.5456696159 0.9701130119 0.4637999871
0.5849990781 0.9724022990 0.4625399638
0.6963713625 0.9784127670 0.4580783558
0.8682175340 0.9866287138 0.4480617101
0.9996167659 0.9900412738 0.6743506221
0.0050982708 0.0019822864 0.1228209645
0.1889296853 0.0055786957 0.1891993795
0.4946230105 0.0209680643 0.2163845559
0.7676128051 0.0538593556 0.2324145188
0.9546200110 0.1865961302 0.3001013173
0.0141200809 0.1916847800 0.1919457294
0.2028415021 0.2028415021 0.2028415021
0.5172339378 0.2151928453 0.2149197734
0.8074732636 0.2263057363 0.2226239395
0.9696249841 0.3171771115 0.3070963449
0.0436272653 0.4661689080 0.2072441689
0.1926847203 0.4773174176 0.1891585169
0.5011014128 0.4951673066 0.1954813037
0.7921301570 0.5237835734 0.2687369313
0.9821467532 0.5514679474 0.3768219373
0.2654017005 0.7422275628 0.2997436037
0.3482755925 0.7468034733 0.2933805216
0.5427208136 0.7599546930 0.2719655218
0.8039056406 0.7781406760 0.2755352781
0.9915331975 0.8020475769 0.4369710848
0.5231550763 0.9732410422 0.4968906110
0.5650601257 0.9752951437 0.4950634040
0.6829259465 0.9807220377 0.4893970231
0.8631183023 0.9881274536 0.4786524127
0.9997367910 0.9905971099 0.7038666071
0.0371897114 0.0027918656 0.3347651837
0.1845699162 0.0059588852 0.4115696442
0.4735072205 0.0188241494 0.4829296153
0.7673426152 0.0569031576 0.5097025473
0.9608857259 0.1800145467 0.5290620498
0.0124858093 0.1725518922 0.4319175914
0.1856977923 0.1788302235 0.4827553613
0.5040966148 0.2026299340 0.5048659721
0.8045782193 0.2185309277 0.5172353561
0.9750262689 0.3124726764 0.5323082603
0.0197470314 0.4621410600 0.4672740882
0.1835328107 0.4897201761 0.4916244776
0.5013668551 0.5013668551 0.5013668551
0.8179847094 0.5034392654 0.5040763600
0.9844843371 0.5559199967 0.5513771180
0.1442723742 0.7571876860 0.5050854924
0.2482930575 0.7629288721 0.4991954434
0.4801896480 0.7768183778 0.4781846092
0.7952606919 0.7888260660 0.4788867400
0.9925945994 0.8107349828 0.5817300106
0.4525563941 0.9802334131 0.6101164238
0.5029481165 0.9820177423 0.6071732863
0.6419796764 0.9864793167 0.5997835099
0.8441783115 0.9920805625 0.5931031223
0.9994701993 0.9942725270 0.7486662548
0.0888825305 0.0054817283 0.5538469314
0.2095691692 0.0080565729 0.6088513664
0.4592202143 0.0192456037 0.6909879038
0.7451729154 0.0605209781 0.7579757172
0.9578470844 0.1879020028 0.7665493542
0.0688190878 0.1576226282 0.7338559826
0.2144513914 0.1610636686 0.7581298760
0.4931579504 0.1866253311 0.7753975928
0.7853396301 0.2132825738 0.7979368071
0.9726494055 0.3160130172 0.7790473091
0.0557257658 0.4562891188 0.7290913790
0.1857540863 0.4622994175 0.7595865571
0.4819920354 0.4776920608 0.7796855000
0.8017277173 0.4942975849 0.8025439882
0.9839544812 0.5569379799 0.7937217087
0.0949586206 0.7558941432 0.7664603014
0.2022895465 0.7644639004 0.7731681939
0.4656601819 0.7878382689 0.7901101623
0.7924074312 0.7924074312 0.7924074312
0.9921862091 0.8117226357 0.8110774614
0.3437645751 0.9858014879 0.8177383005
0.4130288225 0.9877734966 0.8157365646
0.5856934975 0.9916781852 0.8122093094
0.8148236697 0.9959129332 0.8126408605
0.9990318444 0.9982324576 0.8658918156
0.1589130990 0.0132793311 0.7538453810
0.2570266409 0.0166890945 0.7886087398
0.4666373372 0.0344403373 0.8517716583
0.7180134414 0.1043672836 0.9233711115
0.9294254312 0.2486073809 0.9395058737
0.1380281098 0.1654013993 0.9176056399
0.2546603389 0.1745475389 0.9361053081
0.4920751965 0.2067553441 0.9488085663
0.7453212245 0.2610499621 0.9599942941
0.9439652515 0.3686038063 0.9527202984
0.1873630302 0.4545175000 0.9436699608
0.2898851595 0.4606580798 0.9551647986
0.5120707176 0.4814684740 0.9645092786
0.7675424199 0.5164947789 0.9745756687
0.9645104256 0.5848481038 0.9699911163
0.2465808218 0.7429177043 0.9667528811
0.3295072619 0.7493417977 0.9710438546
0.5262271439 0.7622199477 0.9776324162
0.7861878983 0.7850229912 0.9857657447
0.9856648565 0.8226820089 0.9855920822
0.4029210540 0.9810459312 0.9887766240
0.4699843398 0.9836401362 0.9895613378
0.6264291980 0.9890706973 0.9917106227
0.8483831493 0.9952349849 0.9955134884
1.0000000000 1.0000000000 1.0000000000
