latent/luts/02Burin.cube
TITLE "Burin"
#LUMIXPHOTOSTYLE STD
# look 02Burin (铜版)  order=PGN  source=02Burin.json
LUT_3D_SIZE 5
0.0000000000 0.0000000000 0.0000000000
0.1544980193 0.0163092931 0.0107698745
0.4592381381 0.0711543210 0.0238171661
0.7163573130 0.0813203900 0.0155817964
0.9353592830 0.1123399877 0.0314222467
0.0194777506 0.1621012570 0.0151945289
0.1684520745 0.1680088447 0.0150158846
0.4865431794 0.1918963018 0.0585335835
0.7370946205 0.2324634807 0.0551534496
0.9388197781 0.2845578027 0.0271990302
0.0554017777 0.4889873792 0.0265784233
0.2081889952 0.4930726574 0.0226256983
0.5066201757 0.5052510560 0.0334998223
0.7751252184 0.5079280636 0.0583629852
0.9657094644 0.5466854468 0.0956757439
0.1017776247 0.7485461861 0.0344815073
0.2650226870 0.7504624379 0.0293855289
0.5466637615 0.7550223012 0.0308500421
0.7693351082 0.7680161451 0.0490851257
0.9798497928 0.7792120698 0.0721472914
0.1627103787 0.9737563561 0.0482173366
0.3556345869 0.9751859611 0.0432408427
0.5999727272 0.9778302036 0.0406295891
0.8090239978 0.9840256960 0.0434440268
0.9951083788 0.9936985787 0.0851177772
0.0018935448 0.0072469110 0.1198303229
0.1582622963 0.0164791002 0.1619357867
0.4973900670 0.0294046956 0.1962909663
0.7628133324 0.0402627979 0.2002436118
0.9609355863 0.0803571085 0.2260447368
0.0135217885 0.1635519019 0.1667184974
0.1676918931 0.1676918931 0.1708470925
0.5065934488 0.1777414498 0.1732656972
0.7724278604 0.1977540386 0.1608682296
0.9700507043 0.2396445741 0.2073443297
0.0258793652 0.4936295501 0.1908911468
0.1650642712 0.5062988519 0.1612771536
0.5058573785 0.5051257580 0.1656212169
0.7749501479 0.5104780296 0.1932664643
0.9691342916 0.5442862420 0.2298419033
0.0543236311 0.7593875568 0.1951557023
0.1844074046 0.7686561253 0.1617536282
0.5176119176 0.7683549045 0.1554396881
0.7725577723 0.7713360896 0.1695899138
0.9877310885 0.7752343406 0.2854513318
0.1127568134 0.9825366180 0.2448498793
0.2822854886 0.9856120227 0.2242737165
0.5661201000 0.9875824522 0.2115479232
0.7971842157 0.9907616022 0.2115574060
0.9962746845 0.9951190965 0.3183875360
0.0028697554 0.0264640084 0.3386793310
0.1578156183 0.0180038579 0.4455845943
0.4848779796 0.0280164892 0.4978658270
0.7529381480 0.0448451549 0.5394186336
0.9578443363 0.0738786443 0.5549737901
0.0032387821 0.1544589105 0.3877547124
0.1569602217 0.1592935274 0.4821082591
0.5045482310 0.1710485802 0.5108490089
0.7743599353 0.1807294548 0.5408202166
0.9689163242 0.2326970407 0.5509312069
0.0251109686 0.4899933015 0.4899859465
0.1633957932 0.5012996669 0.5014456384
0.5016980163 0.5016980163 0.5019152918
0.7727894032 0.5077703776 0.5049968300
0.9737489547 0.5467448258 0.5295728515
0.0278547632 0.7516455694 0.5347680043
0.1598424527 0.7697076524 0.5082796300
0.5022701782 0.7695534480 0.4975342986
0.7693273543 0.7690669393 0.4998471408
0.9868238045 0.7764534549 0.5596334955
0.0847030614 0.9819306504 0.5639590117
0.2612055235 0.9868643348 0.5492200071
0.5569505751 0.9891461357 0.5417701838
0.7937799416 0.9921934948 0.5380689249
0.9968418143 0.9961865173 0.5879852468
0.0032794803 0.0392008384 0.5832188030
0.1565151848 0.0149535350 0.6762648851
0.4763105726 0.0158011241 0.7005792205
0.7386762071 0.0318089817 0.7550367886
0.9569201316 0.0882892225 0.7836965858
0.0025335648 0.1677222420 0.6115333685
0.1457945325 0.1511136039 0.7426300450
0.5022814157 0.1563155012 0.7600758380
0.7682563112 0.1710903763 0.7833987057
0.9639043935 0.2463352543 0.7868439889
0.0053754066 0.4701541290 0.6532425400
0.1107294009 0.4833569366 0.7388905095
0.4906490024 0.4913538258 0.7577860054
0.7655865600 0.5081944390 0.7705780855
0.9699444295 0.5471720368 0.7874908111
0.0595827244 0.7561324422 0.7557735315
0.1816377900 0.7627844855 0.7621638292
0.5039273028 0.7657933615 0.7655904731
0.7670099879 0.7670099879 0.7670108067
0.9848117132 0.7787701246 0.7773219063
0.1226927620 0.9843618700 0.7962279190
0.2745703119 0.9871321510 0.7936781307
0.5543281657 0.9898906772 0.7894809576
0.7880081270 0.9936897317 0.7848232619
0.9978109659 0.9977643294 0.8026034965
0.0080532274 0.0297946758 0.7884643896
0.1655898707 0.0109909110 0.8502590316
0.4776881076 0.0141063577 0.8760918788
0.7257192722 0.0297084055 0.9240440247
0.9427700232 0.1314367845 0.9588730508
0.0037429918 0.1879066594 0.8113084170
0.1466772234 0.1575432197 0.9361280163
0.4916973849 0.1650708285 0.9455993620
0.7468115751 0.1942111780 0.9577696342
0.9476676923 0.2939195656 0.9618432418
0.0037981843 0.4891876804 0.8364314051
0.1096165641 0.4858405295 0.9427658556
0.4881737437 0.4912255284 0.9517810605
0.7546321179 0.5151817506 0.9604243416
0.9575306987 0.5637612397 0.9672270385
0.0130102860 0.7413060857 0.9002428602
0.1173729942 0.7532449455 0.9505022487
0.4828194516 0.7565317447 0.9612895752
0.7655758237 0.7664723096 0.9732504206
0.9774672910 0.7883945933 0.9804425812
0.2480840409 0.9823385626 0.9821182889
0.3797905618 0.9836907623 0.9831840586
0.5898535943 0.9871689672 0.9863493674
0.7976973619 0.9932449164 0.9930924689
1.0000000000 1.0000000000 1.0000000000
