latent/luts/02Burin.cube
TITLE "Burin"
#LUMIXPHOTOSTYLE STD
# look 02Burin (铜版)  order=PGN  source=02Burin.json
LUT_3D_SIZE 33
0.0000000000 0.0000000000 0.0000000000
0.0148505942 0.0006363758 0.0006919907
0.0305901064 0.0013865452 0.0014833060
0.0472378092 0.0025594054 0.0026313214
0.0654696772 0.0042753127 0.0041569510
0.0853293432 0.0063587213 0.0057669943
0.1061598926 0.0088760119 0.0074016844
0.1289660234 0.0119913422 0.0090871074
0.1544980193 0.0163092931 0.0107698745
0.1834766199 0.0226233121 0.0124626377
0.2176212386 0.0308808636 0.0142431925
0.2550846652 0.0392150232 0.0161466542
0.2950884725 0.0470440230 0.0180860121
0.3373762818 0.0540471501 0.0199445553
0.3807983388 0.0600948209 0.0215405196
0.4223209223 0.0656125919 0.0228044646
0.4592381381 0.0711543210 0.0238171661
0.4939355228 0.0767065783 0.0246092863
0.5274881564 0.0820464687 0.0251309490
0.5605427058 0.0865757334 0.0250694750
0.5932895876 0.0897881311 0.0241515383
0.6255594863 0.0913111152 0.0223566274
0.6570422317 0.0908140929 0.0199642732
0.6872637560 0.0878937622 0.0174208828
0.7163573130 0.0813203900 0.0155817964
0.7459648190 0.0734792587 0.0157839125
0.7796224863 0.0825294085 0.0190099575
0.8096792420 0.0858310600 0.0209803037
0.8377689093 0.0898287500 0.0224780178
0.8645474355 0.0947509289 0.0237833404
0.8903103608 0.1003591414 0.0255144121
0.9143604427 0.1067353850 0.0281160966
0.9353592830 0.1123399877 0.0314222467
0.0016703403 0.0159219714 0.0018165421
0.0166747488 0.0166748122 0.0018272778
0.0329587501 0.0172346244 0.0024040849
0.0500009432 0.0180447977 0.0032006224
0.0684278002 0.0191827834 0.0041666753
0.0881575329 0.0208515535 0.0053140508
0.1088081963 0.0232464145 0.0066556712
0.1312897793 0.0267453575 0.0082574367
0.1561875920 0.0316085668 0.0102133619
0.1843703805 0.0376719322 0.0125367833
0.2178094083 0.0443758326 0.0150790634
0.2551534329 0.0512319635 0.0176734408
0.2955646937 0.0578485049 0.0201406191
0.3384915634 0.0639104298 0.0222679135
0.3823673297 0.0693208502 0.0238957634
0.4238680612 0.0744747139 0.0251288072
0.4607303675 0.0795911816 0.0261022870
0.4954527698 0.0847152444 0.0268466885
0.5288727616 0.0898543050 0.0273826917
0.5616443322 0.0945462099 0.0273890188
0.5941487676 0.0981988524 0.0264375212
0.6262704281 0.1004139940 0.0244107257
0.6576794687 0.1009101556 0.0215794476
0.6878899231 0.0994259485 0.0184742639
0.7167518707 0.0953504324 0.0158176224
0.7460165877 0.0877249102 0.0147082266
0.7789513379 0.0933577966 0.0176556975
0.8097509075 0.0969700127 0.0200088997
0.8382220688 0.1005498739 0.0216755516
0.8652029480 0.1051620525 0.0231217040
0.8909337794 0.1106176078 0.0249081549
0.9149079346 0.1168699099 0.0275466510
0.9358225177 0.1225082846 0.0308055673
0.0035976194 0.0329023100 0.0038604735
0.0180884780 0.0338253153 0.0032612797
0.0342946959 0.0342948621 0.0037352717
0.0511968486 0.0349203268 0.0043523473
0.0695197853 0.0357672163 0.0051273279
0.0891131793 0.0369861572 0.0060855630
0.1096482722 0.0388226042 0.0073065558
0.1319592551 0.0416270114 0.0089493455
0.1567037087 0.0455905858 0.0111326362
0.1849472921 0.0505654846 0.0138316480
0.2187175409 0.0561835696 0.0168645805
0.2566383273 0.0620600873 0.0199675387
0.2977172269 0.0678575578 0.0228168855
0.3411586754 0.0732860156 0.0250983024
0.3850886356 0.0782044157 0.0266980964
0.4262261885 0.0829829573 0.0278901098
0.4628433647 0.0877693506 0.0288150129
0.4974924346 0.0926059940 0.0295116348
0.5308082447 0.0975395009 0.0300181108
0.5632635233 0.1023627564 0.0301406634
0.5954498829 0.1064407869 0.0292654830
0.6273629380 0.1093120670 0.0270935306
0.6586470629 0.1107054010 0.0238454132
0.6887440151 0.1104297142 0.0201310589
0.7171557492 0.1082173253 0.0166568103
0.7460278534 0.1024950168 0.0145936695
0.7776372518 0.1035668977 0.0162317284
0.8094029394 0.1081614248 0.0191985020
0.8383241640 0.1114199835 0.0210098016
0.8656220674 0.1157761795 0.0226000285
0.8913910392 0.1211445001 0.0244333190
0.9153177674 0.1273367434 0.0270733415
0.9361729894 0.1330361981 0.0302634110
0.0059023360 0.0507900687 0.0061600392
0.0198320126 0.0517271870 0.0048594172
0.0358645770 0.0521145036 0.0051981300
0.0526371060 0.0526331528 0.0056944088
0.0708718687 0.0533131044 0.0063176329
0.0903306233 0.0542634048 0.0071835797
0.1108831717 0.0557822968 0.0086169227
0.1332185564 0.0581432213 0.0106841015
0.1580285127 0.0614522105 0.0133974139
0.1865628645 0.0656279410 0.0167043452
0.2208390223 0.0704054230 0.0203423548
0.2595014571 0.0754015068 0.0238984357
0.3014660894 0.0802588313 0.0268612073
0.3455271917 0.0848246864 0.0289163778
0.3893241603 0.0891972874 0.0303413765
0.4299227286 0.0935966244 0.0314498448
0.4661311925 0.0980735149 0.0323208391
0.5005830839 0.1026573300 0.0330011872
0.5337659938 0.1073699100 0.0335170150
0.5659447530 0.1122064054 0.0338566750
0.5977624006 0.1167044873 0.0334161770
0.6293657103 0.1203315556 0.0313339522
0.6604725414 0.1227544842 0.0276950036
0.6903894777 0.1238178482 0.0231886278
0.7183946288 0.1233928965 0.0186685202
0.7461026715 0.1203541868 0.0153362923
0.7758774547 0.1170146877 0.0147178995
0.8084809545 0.1225923847 0.0182627919
0.8380528369 0.1256506371 0.0202748561
0.8658771172 0.1297360352 0.0220559656
0.8918217745 0.1350336614 0.0239719813
0.9157029436 0.1412118047 0.0265686928
0.9365095911 0.1470348589 0.0296531878
0.0084055795 0.0700931918 0.0083759910
0.0220269605 0.0710819255 0.0065680146
0.0378170477 0.0714385078 0.0067210641
0.0544279895 0.0719008604 0.0071427800
0.0725330876 0.0725134036 0.0076825023
0.0916895899 0.0733036548 0.0083353437
0.1127530086 0.0743965775 0.0100735261
0.1359008367 0.0763844121 0.0139578742
0.1608481782 0.0791199287 0.0176842802
0.1897957884 0.0825271879 0.0219368837
0.2245180418 0.0864040662 0.0261886638
0.2636039224 0.0905135752 0.0295770599
0.3060861121 0.0946089484 0.0319374090
0.3504116124 0.0985971968 0.0335300336
0.3939068330 0.1025850228 0.0347967936
0.4340677741 0.1066286795 0.0357855410
0.4700680393 0.1107706310 0.0365304457
0.5044564192 0.1150569458 0.0371045193
0.5375478937 0.1195233150 0.0375536622
0.5695649254 0.1242026900 0.0379161582
0.6009012416 0.1290011775 0.0380494629
0.6323131014 0.1332531671 0.0369355321
0.6634451313 0.1366140266 0.0335409391
0.6932341840 0.1390235848 0.0282870056
0.7209074975 0.1403013828 0.0224124055
0.7468319740 0.1400772553 0.0171688383
0.7748664467 0.1364788052 0.0144999590
0.8064417623 0.1393766623 0.0166866395
0.8372908500 0.1433435346 0.0194902298
0.8658281835 0.1471946757 0.0214872697
0.8922022432 0.1524073935 0.0235679099
0.9160407434 0.1586129272 0.0260596405
0.9368212825 0.1646596757 0.0290163264
0.0111832796 0.0905982243 0.0104710612
0.0247525845 0.0915510095 0.0083389974
0.0402252451 0.0918745612 0.0082585512
0.0567002959 0.0922505679 0.0085965550
0.0746712206 0.0927774739 0.0090926876
0.0935203722 0.0934671946 0.0096967693
0.1135499844 0.0943512742 0.0103921863
0.1374113025 0.0953943449 0.0129872693
0.1656017298 0.0973615725 0.0226604849
0.1949162817 0.1003059094 0.0290530957
0.2296205969 0.1036417204 0.0330190069
0.2689333787 0.1072003155 0.0357338089
0.3116189635 0.1108513004 0.0374735701
0.3556008583 0.1145837610 0.0388091428
0.3985866287 0.1183688132 0.0399238551
0.4382064050 0.1222016600 0.0408203038
0.4740368710 0.1261300852 0.0414864296
0.5084146514 0.1302043211 0.0419721914
0.5415197309 0.1344654112 0.0423298954
0.5735462699 0.1389485879 0.0425971727
0.6047228375 0.1436942980 0.0428226667
0.6355941630 0.1484760933 0.0426173882
0.6668733825 0.1525440210 0.0406765393
0.6972977362 0.1557943307 0.0358738360
0.7248392262 0.1585800034 0.0284492008
0.7497046286 0.1606553766 0.0209504822
0.7751245061 0.1604131684 0.0160500556
0.8040824304 0.1590346155 0.0149791759
0.8358626509 0.1643548447 0.0184563687
0.8653762207 0.1683917817 0.0208638159
0.8924326262 0.1735583166 0.0231655290
0.9163535545 0.1799910395 0.0255464474
0.9371428679 0.1867805289 0.0283925834
0.0142179589 0.1120776924 0.0124141353
0.0278793173 0.1130382189 0.0100693844
0.0430017758 0.1133609130 0.0097345417
0.0594094615 0.1136752509 0.0099272525
0.0773264782 0.1141307593 0.0103317077
0.0959436885 0.1147622729 0.0109007081
0.1157143087 0.1155853126 0.0115762777
0.1376371267 0.1166331740 0.0123079561
0.1643569134 0.1177888278 0.0145497183
0.2014356488 0.1191867773 0.0281647512
0.2371038298 0.1223410953 0.0384662479
0.2760882586 0.1256933813 0.0411236300
0.3181515613 0.1292449066 0.0430206963
0.3613484273 0.1329328600 0.0444345355
0.4035342632 0.1366955731 0.0455058647
0.4423679831 0.1404997147 0.0463425844
0.4779767193 0.1443664325 0.0469896518
0.5123011270 0.1483587426 0.0474504670
0.5454179340 0.1525289712 0.0477763871
0.5774813135 0.1569175574 0.0480049351
0.6086890172 0.1615661393 0.0481768589
0.6392798082 0.1665190130 0.0483399261
0.6699724354 0.1713980462 0.0477552925
0.7008893418 0.1753740587 0.0446838059
0.7299034591 0.1786434668 0.0372884786
0.7545295958 0.1825930538 0.0271794387
0.7770632781 0.1862709048 0.0190397477
0.8034978168 0.1859517696 0.0154680133
0.8335320455 0.1887404745 0.0166135241
0.8643314106 0.1946158335 0.0199506942
0.8922875170 0.2002831990 0.0225577418
0.9166467379 0.2070420166 0.0249804002
0.9375446408 0.2146788837 0.0278345795
0.0171015066 0.1355839347 0.0140170974
0.0308401961 0.1366176452 0.0114657490
0.0457945079 0.1369708945 0.0108715577
0.0623063025 0.1372460702 0.0108862742
0.0803143315 0.1376366503 0.0111591567
0.0988915689 0.1382106875 0.0116439182
0.1185875935 0.1390012990 0.0123138596
0.1403075172 0.1400283406 0.0130807261
0.1651252066 0.1413242702 0.0138415008
0.1964229623 0.1428319817 0.0151790143
0.2427747006 0.1437253967 0.0273676893
0.2856401400 0.1464415668 0.0433314936
0.3262509063 0.1501271757 0.0478251042
0.3681860894 0.1539457038 0.0497694795
0.4091408041 0.1578669698 0.0511276371
0.4468386790 0.1618315095 0.0520816774
0.4820338539 0.1658248565 0.0527872594
0.5161678466 0.1698939265 0.0533149697
0.5492215229 0.1741768189 0.0536922778
0.5812871416 0.1787513500 0.0539716094
0.6125289430 0.1836559258 0.0541764801
0.6431407476 0.1889425768 0.0543586767
0.6733858912 0.1946067129 0.0544653123
0.7037289656 0.1996976402 0.0527579388
0.7339655661 0.2033242088 0.0470712166
0.7604764211 0.2075680586 0.0360930925
0.7821478917 0.2138720268 0.0246388637
0.8047879099 0.2185895094 0.0178245296
0.8322140721 0.2198062852 0.0158469563
0.8625199284 0.2255921712 0.0182951641
0.8915146656 0.2322134235 0.0214129145
0.9167408815 0.2392279534 0.0241706041
0.9381117958 0.2476331902 0.0274242374
0.0194777506 0.1621012570 0.0151945289
0.0332621381 0.1632985184 0.0124626750
0.0484132352 0.1637356735 0.0116906664
0.0652451204 0.1640110379 0.0116597900
0.0834621151 0.1643619857 0.0119492700
0.1021672589 0.1648896465 0.0124555351
0.1220087646 0.1656482850 0.0131588437
0.1437883400 0.1666799316 0.0140410578
0.1684520745 0.1680088447 0.0150158846
0.1986507899 0.1696697140 0.0159382446
0.2358159852 0.1716916809 0.0165450639
0.2865592662 0.1725608489 0.0241735440
0.3366776441 0.1742177308 0.0442704074
0.3767454942 0.1782603344 0.0538222021
0.4158985678 0.1826895831 0.0560646655
0.4520745817 0.1872628938 0.0575270167
0.4865431794 0.1918963018 0.0585335835
0.5202322716 0.1965793931 0.0592699032
0.5530595028 0.2013781206 0.0598302902
0.5850256353 0.2063762046 0.0602692174
0.6162360514 0.2116289740 0.0606332822
0.6468657579 0.2171658847 0.0609193019
0.6772016875 0.2228179846 0.0607882801
0.7071108898 0.2281997296 0.0595085988
0.7370946205 0.2324634807 0.0551534496
0.7659106537 0.2360423965 0.0462009567
0.7887158658 0.2429919959 0.0325412571
0.8084773172 0.2520149966 0.0218639040
0.8331057721 0.2569194238 0.0175439909
0.8613556683 0.2609258233 0.0172558922
0.8904169157 0.2677940445 0.0199231489
0.9166021237 0.2753515533 0.0231287435
0.9388197781 0.2845578027 0.0271990302
0.0233298702 0.1941273415 0.0171093497
0.0375240686 0.1955953902 0.0145641235
0.0520825887 0.1961658019 0.0138311058
0.0687117912 0.1965120056 0.0137553834
0.0867932239 0.1968778545 0.0139475811
0.1055806251 0.1973992609 0.0143096656
0.1256811623 0.1981671271 0.0148857538
0.1478026231 0.1992514401 0.0157217556
0.1727421307 0.2007140627 0.0168105933
0.2032124305 0.2025832998 0.0180246623
0.2395884207 0.2048925070 0.0191711457
0.2806181453 0.2077360977 0.0201202718
0.3309237583 0.2090517976 0.0201482672
0.3857364867 0.2094051405 0.0412913700
0.4246290305 0.2131461742 0.0574354746
0.4585108705 0.2182778683 0.0619128291
0.4919186484 0.2235156862 0.0636364538
0.5248446247 0.2287492252 0.0648911516
0.5571874384 0.2339703582 0.0658499147
0.5888747977 0.2392701921 0.0666237091
0.6199369815 0.2447263286 0.0672804773
0.6506303886 0.2502189644 0.0675399557
0.6812296077 0.2554536114 0.0668482996
0.7113236416 0.2602564464 0.0648529858
0.7409026405 0.2645555573 0.0610837572
0.7699362735 0.2682977831 0.0538497817
0.7955522186 0.2738660722 0.0418010721
0.8152678323 0.2841449755 0.0284274735
0.8360271906 0.2940461653 0.0206767155
0.8622006993 0.3000791651 0.0184540131
0.8901213989 0.3063860313 0.0194142057
0.9166400201 0.3142699548 0.0224960479
0.9396337340 0.3241268309 0.0273448844
0.0273758946 0.2333602902 0.0189480806
0.0414127574 0.2349793044 0.0163848896
0.0554018262 0.2356631045 0.0154783835
0.0718665952 0.2360893880 0.0151943280
0.0898427121 0.2364803295 0.0152270072
0.1088058079 0.2369804843 0.0154474382
0.1292994516 0.2376916921 0.0158598605
0.1519645175 0.2387039644 0.0165235726
0.1776696166 0.2401003558 0.0174920602
0.2089014896 0.2419557577 0.0187627699
0.2452109834 0.2442912560 0.0201848640
0.2854119024 0.2471290568 0.0215302617
0.3281523194 0.2505614358 0.0226273584
0.3758064477 0.2530133846 0.0233866870
0.4286418720 0.2521385221 0.0344639768
0.4672084303 0.2541032203 0.0572062854
0.4985873402 0.2592372273 0.0671319658
0.5303821562 0.2648475277 0.0695468172
0.5619396250 0.2704336320 0.0712544169
0.5931118615 0.2759795668 0.0726263356
0.6239961520 0.2814176822 0.0734575111
0.6548428847 0.2865526557 0.0733680092
0.6857043987 0.2911965627 0.0720095060
0.7160303591 0.2952957699 0.0691859510
0.7456237234 0.2990237664 0.0649362418
0.7743030528 0.3027357009 0.0588819495
0.8011975352 0.3074637262 0.0494997027
0.8227137957 0.3167186386 0.0361625496
0.8419045446 0.3287420493 0.0258073826
0.8652206964 0.3383836433 0.0214326660
0.8915944285 0.3461535977 0.0210220510
0.9175676191 0.3544115097 0.0233484498
0.9407836037 0.3644485421 0.0284401790
0.0312588547 0.2772912690 0.0204488921
0.0452331342 0.2789789557 0.0179441867
0.0588578153 0.2797506093 0.0169701402
0.0751316870 0.2802660756 0.0165793214
0.0929000633 0.2807154694 0.0165251698
0.1119177462 0.2812324948 0.0166594307
0.1327260939 0.2819009119 0.0169453854
0.1559538147 0.2828025694 0.0174269476
0.1826499995 0.2840318462 0.0181847343
0.2150312819 0.2856832309 0.0192880232
0.2518294910 0.2878394882 0.0207405889
0.2916983977 0.2905118492 0.0223742584
0.3334393736 0.2937093569 0.0239334846
0.3756393417 0.2974951943 0.0252023174
0.4186872821 0.3008697273 0.0259680769
0.4637195131 0.3001307257 0.0251973280
0.5067196685 0.2994151599 0.0529969061
0.5376097155 0.3034793105 0.0701580954
0.5676691892 0.3090972602 0.0753407903
0.5982507446 0.3146392833 0.0771692892
0.6289652774 0.3198213218 0.0779142267
0.6598979882 0.3244914046 0.0773832936
0.6908461612 0.3285786744 0.0754733818
0.7212083343 0.3321234327 0.0721246371
0.7507762132 0.3353624957 0.0674422148
0.7792505048 0.3387551824 0.0617283072
0.8062496053 0.3430625979 0.0544908453
0.8300887042 0.3502560557 0.0441478631
0.8503617502 0.3613232261 0.0333608006
0.8711099054 0.3732798801 0.0265158732
0.8952583847 0.3832257437 0.0246714363
0.9199963001 0.3925659803 0.0262250168
0.9426362214 0.4027246924 0.0310039946
0.0354366135 0.3235415089 0.0218496064
0.0493102925 0.3251755446 0.0194407295
0.0625973683 0.3259742374 0.0184266386
0.0786084606 0.3265448981 0.0179413682
0.0961421970 0.3270367101 0.0178021513
0.1151497205 0.3275745576 0.0178665163
0.1361409590 0.3282376889 0.0180775914
0.1597704459 0.3290814226 0.0184445319
0.1874176145 0.3301628983 0.0190182603
0.2209401921 0.3315654312 0.0198832533
0.2586419473 0.3333901606 0.0211245452
0.2987461937 0.3357208873 0.0227529321
0.3399429321 0.3385612716 0.0245918627
0.3809813827 0.3419087683 0.0263620126
0.4203639011 0.3457964158 0.0278087800
0.4575561714 0.3496994057 0.0286922974
0.4990880983 0.3499027166 0.0296702967
0.5427692510 0.3471560776 0.0449850852
0.5757829165 0.3489238542 0.0690798674
0.6049145375 0.3535032596 0.0785717544
0.6352153222 0.3582490752 0.0795553574
0.6659878453 0.3624966737 0.0787819169
0.6967012513 0.3661930782 0.0766477755
0.7268045813 0.3694213878 0.0732231286
0.7561117647 0.3724221771 0.0686742329
0.7843778675 0.3756006823 0.0633971338
0.8113563739 0.3794849794 0.0577313852
0.8366564066 0.3849845972 0.0510376760
0.8592621575 0.3935934900 0.0424848996
0.8807878126 0.4041997816 0.0356192755
0.9023975029 0.4154180587 0.0317557018
0.9246503890 0.4260083046 0.0317832854
0.9457001935 0.4364882035 0.0357404847
0.0399359021 0.3697042528 0.0231544088
0.0536452558 0.3711785764 0.0208739369
0.0666305260 0.3719425504 0.0198413747
0.0823099948 0.3725207763 0.0192753652
0.0996072062 0.3730202381 0.0190525250
0.1185939815 0.3735499704 0.0190459792
0.1397440417 0.3741854153 0.0191893263
0.1636979904 0.3749743801 0.0194742848
0.1921674432 0.3759557772 0.0199321761
0.2265490572 0.3771745538 0.0206214406
0.2650422335 0.3786908040 0.0216187479
0.3057457040 0.3805882213 0.0230073999
0.3469146488 0.3829444022 0.0248040802
0.3872242614 0.3857601624 0.0268241742
0.4253331350 0.3890259191 0.0287856015
0.4601950903 0.3927500161 0.0304137469
0.4945341690 0.3967109560 0.0314715665
0.5331243996 0.3978019462 0.0320756301
0.5735849770 0.3951461520 0.0316861661
0.6128465681 0.3933790443 0.0613264164
0.6429843413 0.3957455426 0.0752669344
0.6729963259 0.3993094105 0.0770231275
0.7030937554 0.4027367330 0.0751533322
0.7326354048 0.4058345519 0.0722598011
0.7614648355 0.4087749594 0.0685570808
0.7894301914 0.4118420654 0.0644406225
0.8164358577 0.4153752560 0.0603766003
0.8425084995 0.4197309034 0.0567198427
0.8677102417 0.4255850829 0.0529089979
0.8911052669 0.4335695903 0.0484697894
0.9128579908 0.4431189999 0.0450177986
0.9329914181 0.4536890549 0.0437113355
0.9510466775 0.4651789824 0.0455136434
0.0447751765 0.4134307153 0.0243681254
0.0582303057 0.4146633993 0.0222446047
0.0709553139 0.4153374560 0.0212098581
0.0862339497 0.4158711057 0.0205771694
0.1033101345 0.4163337233 0.0202746180
0.1222838924 0.4168144268 0.0201958841
0.1435938515 0.4173822922 0.0202722623
0.1678578753 0.4180814789 0.0204841510
0.1971529035 0.4189412863 0.0208483886
0.2322061814 0.4199881850 0.0214072681
0.2712083993 0.4212546834 0.0222227600
0.3123144891 0.4227848916 0.0233707570
0.3536902706 0.4246370903 0.0249248278
0.3936680146 0.4268596375 0.0268777685
0.4308610043 0.4294520597 0.0290579488
0.4647207645 0.4324032445 0.0311938695
0.4977244914 0.4357060919 0.0329975049
0.5305084192 0.4392855186 0.0342400151
0.5665328365 0.4409693239 0.0346874097
0.6062749559 0.4390917941 0.0366157701
0.6462573594 0.4355536290 0.0474950896
0.6800491501 0.4350699736 0.0656631310
0.7096839076 0.4370635375 0.0706067981
0.7384469832 0.4399384938 0.0692938527
0.7666749349 0.4427985595 0.0672073370
0.7943245161 0.4457191928 0.0650480060
0.8213898007 0.4489010086 0.0632439874
0.8479961960 0.4525382335 0.0622963951
0.8742620517 0.4569607204 0.0623601838
0.8992835380 0.4627997204 0.0627469687
0.9220111258 0.4704842304 0.0629128751
0.9414166486 0.4802911443 0.0622555351
0.9573943521 0.4920539417 0.0622598259
0.0499624853 0.4525673442 0.0254962620
0.0630494600 0.4535465945 0.0235546699
0.0754960484 0.4541134383 0.0225286174
0.0903660422 0.4545770318 0.0218423051
0.1072501456 0.4549775716 0.0214663588
0.1262331916 0.4553854182 0.0213161799
0.1477230001 0.4558640052 0.0213251599
0.1723413954 0.4564566688 0.0214669466
0.2024738382 0.4571909818 0.0217484934
0.2380875049 0.4580863422 0.0222000281
0.2774318389 0.4591613972 0.0228695041
0.3187137927 0.4604401024 0.0238201679
0.3601300898 0.4619559757 0.0251230047
0.3999000557 0.4637543016 0.0268411098
0.4364165598 0.4658662243 0.0289531341
0.4696561595 0.4682899055 0.0312865560
0.5020227859 0.4710243112 0.0335811116
0.5338870347 0.4740707717 0.0355481617
0.5655315833 0.4774167166 0.0369593261
0.5994584422 0.4795865568 0.0374231023
0.6376330966 0.4784383517 0.0386246154
0.6753810487 0.4752102264 0.0377744511
0.7128992134 0.4721527306 0.0532346751
0.7436659171 0.4724054591 0.0630244327
0.7717025259 0.4747910922 0.0650632062
0.7990820496 0.4777765986 0.0655132479
0.8261975141 0.4809097626 0.0664872248
0.8531300786 0.4843389224 0.0682930740
0.8797064268 0.4882858208 0.0711471540
0.9048370041 0.4932513641 0.0744990739
0.9274654989 0.4998162559 0.0774269454
0.9467756016 0.5083623633 0.0797863896
0.9623462126 0.5191328625 0.0820616929
0.0554017777 0.4889873792 0.0265784233
0.0680651869 0.4898218405 0.0248166818
0.0801561321 0.4903335944 0.0238058239
0.0946739984 0.4907632811 0.0230740689
0.1114078253 0.4911314103 0.0226287434
0.1304357529 0.4914935571 0.0224072904
0.1521400745 0.4919084136 0.0223485336
0.1772504675 0.4924232791 0.0224216587
0.2081889952 0.4930726574 0.0226256983
0.2442957227 0.4938775527 0.0229824069
0.2838668124 0.4948514942 0.0235295716
0.3251597578 0.4960072151 0.0243173886
0.3664137951 0.4973615063 0.0254059841
0.4058687021 0.4989389371 0.0268627026
0.4417919001 0.5007732333 0.0287450263
0.4746740522 0.5028798404 0.0310150829
0.5066201757 0.5052510560 0.0334998223
0.5379313036 0.5078832661 0.0359452072
0.5688708883 0.5107764074 0.0380647827
0.5996795799 0.5139276579 0.0396220749
0.6320031271 0.5164293457 0.0402094240
0.6686719201 0.5159849591 0.0408206032
0.7069548753 0.5129266451 0.0442272971
0.7411933759 0.5096994984 0.0429375679
0.7751252184 0.5079280636 0.0583629852
0.8037866200 0.5093637558 0.0659170147
0.8309451048 0.5123250483 0.0700527977
0.8579656169 0.5156385308 0.0742472053
0.8845441513 0.5193323778 0.0787105683
0.9095426691 0.5236932393 0.0833177668
0.9318461419 0.5293458070 0.0875865390
0.9506588149 0.5368782072 0.0914968343
0.9657094644 0.5466854468 0.0956757439
0.0609075955 0.5241063506 0.0276628320
0.0732193852 0.5248271818 0.0260466646
0.0848890653 0.5252911413 0.0250537484
0.0991129734 0.5256898356 0.0242854580
0.1157419370 0.5260291078 0.0237748711
0.1348563383 0.5263516720 0.0234809759
0.1568206777 0.5267095554 0.0233505783
0.1825801409 0.5271483120 0.0233518978
0.2143098301 0.5277036013 0.0234794017
0.2508774590 0.5284025678 0.0237478975
0.2906087896 0.5292659285 0.0241861218
0.3318013132 0.5303059727 0.0248344533
0.3727380109 0.5315302328 0.0257436358
0.4116953412 0.5329489027 0.0269730346
0.4469787692 0.5345784242 0.0285861057
0.4796640013 0.5364419031 0.0306321058
0.5113163180 0.5385416840 0.0330576911
0.5422330422 0.5408654763 0.0356901570
0.5726797752 0.5434069390 0.0382805789
0.6028943315 0.5461642030 0.0405441493
0.6330968442 0.5491340974 0.0422331471
0.6643060905 0.5518092407 0.0429870454
0.6991894070 0.5520018545 0.0431733974
0.7361871833 0.5494532640 0.0456607568
0.7702934989 0.5461206084 0.0432126100
0.8056175762 0.5432283149 0.0591794675
0.8353845435 0.5436269835 0.0719235674
0.8627803929 0.5462372376 0.0788670815
0.8892772733 0.5496557449 0.0838543877
0.9141467806 0.5535570442 0.0886638024
0.9361706349 0.5584680636 0.0935479370
0.9544573359 0.5651189899 0.0985695403
0.9688781268 0.5740499921 0.1042466857
0.0664742048 0.5581472489 0.0287536174
0.0783749368 0.5587792044 0.0272565633
0.0896687273 0.5592031391 0.0262813996
0.1036515522 0.5595752165 0.0254831870
0.1202165056 0.5598902793 0.0249141498
0.1394535794 0.5601798365 0.0245507626
0.1617178391 0.5604891311 0.0243477245
0.1882730134 0.5608612630 0.0242737616
0.2207835704 0.5613322107 0.0243203992
0.2578096610 0.5619304712 0.0244985811
0.2976820319 0.5626781223 0.0248327060
0.3387164454 0.5635920485 0.0253563633
0.3792329956 0.5646854647 0.0261108513
0.4175517065 0.5659661670 0.0271459995
0.4521342055 0.5674385916 0.0285192021
0.4846137254 0.5691118629 0.0302897814
0.5160438315 0.5709991672 0.0324976081
0.5466622499 0.5730920124 0.0350753369
