latent/luts/03Gilt.cube
TITLE "Gilt"
#LUMIXPHOTOSTYLE STD
# look 03Gilt (鎏金)  order=PGN  source=03Gilt.json
LUT_3D_SIZE 5
0.0000000000 0.0000000000 0.0000000000
0.1726432881 0.0132572601 0.0039858621
0.5214859966 0.0651659814 0.0069252659
0.8048426531 0.1173635775 0.0102252712
0.9716746263 0.1888158566 0.0272837067
0.0313743699 0.1670410561 0.0051660977
0.1776308782 0.1760106512 0.0099055057
0.5104133788 0.2298888842 0.0808564097
0.8030938040 0.2677609434 0.0112992243
0.9696428586 0.3566311512 0.0214318413
0.1426733646 0.4862787047 0.0045267171
0.2542821086 0.4978057589 0.0078662405
0.5326304357 0.5342725674 0.0414232051
0.8221556233 0.5684486377 0.1504209332
0.9867860028 0.6004803194 0.1028084593
0.2928815347 0.7801722736 0.0056453530
0.4016701992 0.7840392387 0.0067164364
0.6099649039 0.7970302673 0.0124604524
0.8254849135 0.8228386420 0.0596345270
0.9931421834 0.8378929779 0.1856159689
0.4738736034 0.9734988796 0.0093879653
0.5504712301 0.9750257182 0.0102158490
0.7133869479 0.9797530756 0.0136579992
0.8707950148 0.9880223121 0.0271244925
0.9974566400 0.9971389414 0.1370113947
0.0073792195 0.0005824737 0.1374190837
0.1981475403 0.0085734897 0.1790842137
0.5698679731 0.0433714277 0.2257484262
0.8579983418 0.0745917379 0.2298872403
0.9869968330 0.1532199230 0.2733805371
0.0069169962 0.1695207254 0.1746406474
0.1740223067 0.1715931799 0.1764404701
0.5530443566 0.1930134333 0.1864233523
0.8652023887 0.2273035644 0.1898606057
0.9883994071 0.3204764586 0.2521470569
0.0700914477 0.5173421408 0.1569627837
0.1926282805 0.5186589074 0.1554984574
0.5273475304 0.5237866977 0.1809280389
0.8097424385 0.5732913854 0.2921173615
0.9890498623 0.5989225560 0.2675521515
0.1733967139 0.8085441138 0.1093651272
0.2990220608 0.8092363108 0.1140436431
0.5684788530 0.8129050739 0.1321809976
0.8266033738 0.8256193880 0.1844121450
0.9924472951 0.8370786426 0.4233180930
0.3895053134 0.9841965885 0.0637236879
0.4733292288 0.9858411249 0.0787341566
0.6687976239 0.9891533861 0.1198171247
0.8597941051 0.9931648769 0.1790067821
0.9977344655 0.9976578900 0.3560047413
0.0595483596 0.0004631469 0.3599802796
0.2187162356 0.0063744853 0.4511089901
0.5798106687 0.0345788190 0.5191121407
0.8507675843 0.0725641396 0.5780088942
0.9858202726 0.1460331938 0.6081919431
0.0286718355 0.1564521352 0.4953672431
0.2053709933 0.1612503664 0.5221672837
0.5867894294 0.1911276763 0.5472435838
0.8616963435 0.2101059636 0.5861313393
0.9880638536 0.3087836251 0.6094000285
0.0237167591 0.5156053645 0.5150325507
0.1743940929 0.5159227495 0.5123976501
0.5176782027 0.5106799197 0.5061298424
0.8345080753 0.5309081766 0.5196237872
0.9920824737 0.6110148157 0.5917223137
0.1162545540 0.8169428807 0.4783722649
0.2303191806 0.8177900102 0.4796938410
0.5254505863 0.8179314889 0.4752689691
0.8206257408 0.8182696282 0.5107709797
0.9840704881 0.8433049716 0.6522524887
0.3118926283 0.9903734277 0.4700531023
0.4238339813 0.9907529173 0.4731845768
0.6500628146 0.9917671271 0.4873888874
0.8545569478 0.9943379861 0.5269245523
0.9975290129 0.9985002712 0.6334999222
0.1140394940 0.0004397211 0.6258567004
0.2447607464 0.0024145866 0.6815403792
0.5915012269 0.0186285496 0.7621328323
0.8602289569 0.0568501373 0.8040982537
0.9872741089 0.1428819645 0.8181628468
0.1070380432 0.1361612975 0.8021973440
0.2626016800 0.1368660212 0.8124009864
0.6187210405 0.1678241179 0.8106404992
0.8743511541 0.1922763762 0.8229104437
0.9889797755 0.3080943751 0.8246449276
0.0560498887 0.4866170096 0.8004650340
0.1804887789 0.4868206714 0.8144213804
0.5560386736 0.5006478565 0.8159581613
0.8615636287 0.5288163849 0.8328697391
0.9915380865 0.6041621592 0.8396607865
0.0572658005 0.8182657637 0.8207437440
0.1835494994 0.8221015818 0.8232337856
0.5174800812 0.8146757143 0.8103864578
0.8167266174 0.8118225411 0.8065606527
0.9928480323 0.8272935125 0.8197796095
0.2231837082 0.9928769458 0.7977008064
0.3638027890 0.9933830611 0.7986595619
0.6184084665 0.9942452745 0.8058515580
0.8437886140 0.9958262104 0.8159798025
0.9983157364 0.9990010536 0.8414425773
0.1780190811 0.0007549616 0.8351914079
0.3042830901 0.0020113048 0.8588534114
0.5967304946 0.0101226123 0.9110882029
0.8566164821 0.0427080861 0.9500850473
0.9891131364 0.1328425440 0.9499656870
0.1737346501 0.1288878848 0.9592440426
0.3192743808 0.1389604094 0.9589252488
0.6239521462 0.1700946635 0.9614145679
0.8698327033 0.2065618506 0.9679981358
0.9911493461 0.3162880455 0.9552535628
0.1870797131 0.4656142635 0.9700993513
0.3286268390 0.4698028518 0.9700980705
0.6197873205 0.4931321890 0.9716277525
0.8681567998 0.5354012642 0.9768140587
0.9937984204 0.6102447948 0.9665839294
0.1471796426 0.7935985390 0.9844048132
0.2777674124 0.7946772265 0.9844746748
0.5641267849 0.7977581748 0.9842237083
0.8387616364 0.8104791960 0.9872383450
0.9956878743 0.8403015227 0.9843168039
0.1406812057 0.9905644469 0.9934335201
0.3463133841 0.9918321121 0.9943362089
0.6245613063 0.9933992932 0.9951466448
0.8446555763 0.9961246579 0.9964538544
1.0000000000 1.0000000000 1.0000000000
