latent/luts/03Gilt.cube
TITLE "Gilt"
#LUMIXPHOTOSTYLE STD
# look 03Gilt (鎏金)  order=PGN  source=03Gilt.json
LUT_3D_SIZE 33
0.0000000000 0.0000000000 0.0000000000
0.0088079137 0.0002301679 0.0002667432
0.0237830217 0.0005242209 0.0005939698
0.0460205816 0.0010517298 0.0010897417
0.0678680048 0.0020009204 0.0017605399
0.0912683153 0.0034672918 0.0024346430
0.1154282430 0.0056995589 0.0030382140
0.1419707137 0.0089405407 0.0035555286
0.1726432881 0.0132572601 0.0039858621
0.2097809522 0.0186555026 0.0043661347
0.2530098140 0.0260938179 0.0047759060
0.2995427423 0.0344366705 0.0053194254
0.3470531452 0.0423943476 0.0059532899
0.3937721265 0.0492183813 0.0065272790
0.4379778945 0.0551027368 0.0068609515
0.4796544360 0.0599596159 0.0068345141
0.5214859966 0.0651659814 0.0069252659
0.5645185141 0.0730223958 0.0080674995
0.6059208796 0.0793826124 0.0086255191
0.6454564979 0.0854616502 0.0090163679
0.6824938453 0.0915926215 0.0093523552
0.7162951177 0.0978380747 0.0096210073
0.7475052350 0.1042451297 0.0098204023
0.7769336717 0.1107715500 0.0100020162
0.8048426531 0.1173635775 0.0102252712
0.8313335231 0.1240645522 0.0105136090
0.8564762443 0.1309454224 0.0109057414
0.8803238829 0.1381129135 0.0114724406
0.9030831130 0.1457363310 0.0123366421
0.9242317905 0.1540873694 0.0137031830
0.9430375960 0.1635932451 0.0158931336
0.9589231906 0.1748585097 0.0198340742
0.9716746263 0.1888158566 0.0272837067
0.0006334646 0.0095184750 0.0007295903
0.0101654835 0.0100797099 0.0007334815
0.0263714964 0.0105128325 0.0009892678
0.0483445341 0.0111819652 0.0013588680
0.0694940106 0.0123805877 0.0018524350
0.0918023798 0.0146442438 0.0024758403
0.1148420282 0.0185919010 0.0031790762
0.1403501082 0.0249877196 0.0038917198
0.1701005111 0.0330205204 0.0045675254
0.2063708315 0.0409315988 0.0051981465
0.2492796436 0.0475721332 0.0057894248
0.2960384780 0.0534915359 0.0064037295
0.3442156913 0.0592529727 0.0071093491
0.3918030249 0.0650541775 0.0077538034
0.4369028217 0.0706623600 0.0081117295
0.4792564277 0.0756450346 0.0080381709
0.5209234017 0.0797221667 0.0074763556
0.5616417410 0.0837655466 0.0069582803
0.6040722364 0.0906840241 0.0082176570
0.6437250185 0.0963601988 0.0086537713
0.6808370230 0.1020528842 0.0089637766
0.7147709371 0.1079324814 0.0092176798
0.7460979835 0.1140304736 0.0094189235
0.7756740868 0.1203020048 0.0096156940
0.8037001872 0.1267207064 0.0098447231
0.8303023993 0.1333039388 0.0101361559
0.8555531431 0.1401133392 0.0105282124
0.8795037623 0.1472482254 0.0110902456
0.9023680522 0.1548729200 0.0119436339
0.9236453441 0.1632585774 0.0132917607
0.9425932019 0.1728389973 0.0154566094
0.9586254920 0.1843464313 0.0192750452
0.9715070316 0.1986270998 0.0266337224
0.0015040143 0.0261312273 0.0016311137
0.0112604497 0.0272602431 0.0013645169
0.0281035904 0.0278509443 0.0016136582
0.0496496550 0.0286958307 0.0019342052
0.0704641807 0.0299890270 0.0023633848
0.0922331946 0.0324058327 0.0029829786
0.1146157916 0.0367252338 0.0038183091
0.1394129708 0.0427807337 0.0048017092
0.1684577752 0.0495461466 0.0058681355
0.2040804720 0.0563176541 0.0069756130
0.2467336530 0.0624742538 0.0080101232
0.2936691284 0.0679659698 0.0088177402
0.3423007958 0.0732710788 0.0094665917
0.3905295423 0.0786775284 0.0100234618
0.4362821707 0.0840361598 0.0103075181
0.4792424435 0.0889155618 0.0101435885
0.5215748973 0.0931229872 0.0093817591
0.5620896377 0.0966884811 0.0080873755
0.6010952987 0.1005066834 0.0071257481
0.6422200945 0.1069720210 0.0084771787
0.6793127730 0.1124474851 0.0087317124
0.7133050850 0.1181481122 0.0089398611
0.7447393045 0.1240746884 0.0091291289
0.7744253042 0.1302279432 0.0093179156
0.8025406629 0.1365935459 0.0095338042
0.8292332100 0.1431665720 0.0098121481
0.8545782866 0.1499999520 0.0101905179
0.8786244160 0.1571872797 0.0107362229
0.9015894783 0.1648893922 0.0115681743
0.9229977246 0.1733778905 0.0128876472
0.9420958675 0.1831991666 0.0150168595
0.9582898518 0.1950360959 0.0187142658
0.9713162479 0.2095679583 0.0259614790
0.0029604555 0.0487534180 0.0027144580
0.0127786302 0.0497916204 0.0021124952
0.0301628617 0.0502427029 0.0022976262
0.0513222925 0.0508495217 0.0026218580
0.0719834450 0.0517211420 0.0030365688
0.0935757235 0.0531563895 0.0036209291
0.1159543958 0.0558432115 0.0045435113
0.1404850134 0.0602187323 0.0059076355
0.1688752929 0.0660666041 0.0077212802
0.2036311105 0.0726485004 0.0098890875
0.2456190406 0.0788871862 0.0120945064
0.2924831715 0.0842741062 0.0137871851
0.3415256705 0.0890387990 0.0145468298
0.3902513528 0.0938276162 0.0147509576
0.4364829181 0.0987901631 0.0147951428
0.4800742824 0.1035845101 0.0144594917
0.5232855492 0.1079504899 0.0133704954
0.5646540566 0.1118330488 0.0114826045
0.6030334663 0.1153719831 0.0091195447
0.6390966590 0.1192342178 0.0073445403
0.6779730325 0.1255389819 0.0087027925
0.7118678158 0.1312230956 0.0088134120
0.7432839547 0.1371454477 0.0089408221
0.7730066741 0.1433321098 0.0090844175
0.8011670988 0.1497912094 0.0092576401
0.8279169123 0.1565056538 0.0094954014
0.8533403142 0.1635109797 0.0098362778
0.8774799225 0.1708944977 0.0103440170
0.9005524508 0.1788485103 0.0111334998
0.9221174025 0.1877423627 0.0124020039
0.9414079084 0.1979994143 0.0144710962
0.9578214636 0.2101520082 0.0180225672
0.9710474419 0.2248925110 0.0251011227
0.0051259974 0.0703685998 0.0035964940
0.0155107952 0.0713165764 0.0030071040
0.0333144538 0.0717809348 0.0031876013
0.0533927223 0.0723896875 0.0033494139
0.0738882944 0.0731719580 0.0037426937
0.0951039923 0.0742785657 0.0043725325
0.1184184660 0.0765780398 0.0053170293
0.1440538153 0.0801214732 0.0069701238
0.1722753321 0.0846289769 0.0096003151
0.2062468680 0.0900919193 0.0133934806
0.2465276562 0.0959054054 0.0179069836
0.2915692450 0.1015375670 0.0221492704
0.3400809110 0.1066254428 0.0242400175
0.3896810868 0.1111962849 0.0241829039
0.4369078054 0.1156219042 0.0238944327
0.4814551318 0.1200882558 0.0234762007
0.5258912668 0.1244036960 0.0218173934
0.5686557402 0.1284165014 0.0185685059
0.6082077808 0.1322028838 0.0146991901
0.6435709734 0.1360409101 0.0107601356
0.6756191467 0.1403144007 0.0077562690
0.7111969886 0.1468568209 0.0090460338
0.7422853329 0.1530261113 0.0090216189
0.7718271009 0.1594868387 0.0090515433
0.7998919535 0.1662638439 0.0091324578
0.8265875227 0.1733546535 0.0092854509
0.8520093953 0.1808287739 0.0095510921
0.8761912098 0.1888015647 0.0099881105
0.8993379165 0.1973846109 0.0107049484
0.9210522102 0.2068093694 0.0118925485
0.9405547689 0.2174786500 0.0138715287
0.9572336980 0.2298681558 0.0172676632
0.9707066633 0.2447062210 0.0241157304
0.0085161338 0.0927170280 0.0042027257
0.0202109063 0.0934806440 0.0037307166
0.0381043858 0.0939098908 0.0039571320
0.0565578682 0.0944578341 0.0043479067
0.0763319000 0.0951971577 0.0046318467
0.0971496818 0.0961594972 0.0049877409
0.1187826289 0.0974993375 0.0060297017
0.1452236647 0.1002877594 0.0076385826
0.1782195812 0.1045937316 0.0108145730
0.2120219147 0.1087604083 0.0159812614
0.2501686779 0.1139225435 0.0238074621
0.2915913033 0.1198346520 0.0321562379
0.3369207431 0.1257985202 0.0374022217
0.3855629953 0.1311274283 0.0388469924
0.4340254753 0.1357381019 0.0380156385
0.4799796600 0.1401377398 0.0371586376
0.5260208785 0.1443761244 0.0361817550
0.5712857760 0.1481249058 0.0335524671
0.6139673827 0.1514297309 0.0279348797
0.6512355204 0.1550716751 0.0196789522
0.6829139713 0.1593678890 0.0131112985
0.7101891190 0.1645148977 0.0084632327
0.7425288099 0.1715519325 0.0095879359
0.7715109425 0.1785709119 0.0093947011
0.7991986188 0.1860576911 0.0093001018
0.8256347034 0.1939926734 0.0093055879
0.8508877990 0.2023298895 0.0094412857
0.8749889652 0.2110727476 0.0097621383
0.8981183518 0.2203157054 0.0103671410
0.9199216354 0.2302733902 0.0114376266
0.9396180197 0.2413069789 0.0132955085
0.9565781725 0.2538243267 0.0165421319
0.9703228661 0.2686163445 0.0231091773
0.0135227582 0.1153374726 0.0045844954
0.0279240923 0.1159581695 0.0042905033
0.0443537193 0.1163686110 0.0045441679
0.0611343945 0.1169083763 0.0050106544
0.0799398197 0.1176400260 0.0055832714
0.0998085351 0.1186046047 0.0061673959
0.1211218909 0.1198527381 0.0063808110
0.1446211084 0.1215780454 0.0080840086
0.1738796726 0.1245226558 0.0108612885
0.2173901608 0.1293485646 0.0163034056
0.2566710797 0.1338303234 0.0264536465
0.2953708496 0.1395602347 0.0384134386
0.3365627546 0.1462489726 0.0474322352
0.3812818622 0.1529260380 0.0522097267
0.4283630012 0.1587728241 0.0530893066
0.4749695925 0.1637874308 0.0518751347
0.5221867112 0.1685157300 0.0506304858
0.5688825945 0.1728741988 0.0489786363
0.6141596894 0.1763565405 0.0455363103
0.6562897526 0.1789076277 0.0390515476
0.6920773285 0.1817842054 0.0276498257
0.7197092466 0.1866725645 0.0161131846
0.7428490752 0.1932794529 0.0094527022
0.7727182813 0.2012449603 0.0103135921
0.7996600881 0.2095650836 0.0099293313
0.8255364150 0.2183289096 0.0096951437
0.8503739136 0.2274871901 0.0096274829
0.8741916450 0.2369977719 0.0097715066
0.8971464613 0.2469118157 0.0102152456
0.9189129681 0.2574081876 0.0111265457
0.9387392344 0.2687445205 0.0128374996
0.9559498046 0.2812873373 0.0159466835
0.9699520721 0.2959030752 0.0222140540
0.0207031506 0.1396406642 0.0048738603
0.0374517713 0.1401618646 0.0047281997
0.0515142382 0.1405604503 0.0049821894
0.0671532008 0.1411073565 0.0054688690
0.0848587760 0.1418695579 0.0061335649
0.1036336662 0.1428862384 0.0069225987
0.1241429579 0.1442126995 0.0077875825
0.1474034222 0.1458972225 0.0079777991
0.1742560587 0.1482073825 0.0105607329
0.2077621568 0.1515654315 0.0152440424
0.2576587757 0.1566077708 0.0242811130
0.3031565271 0.1619178238 0.0394348292
0.3418185967 0.1686737852 0.0520568026
0.3818416262 0.1764894943 0.0613002861
0.4244304679 0.1843199008 0.0662568051
0.4687801685 0.1912203039 0.0670236520
0.5159132846 0.1971941951 0.0657004224
0.5633100230 0.2027240551 0.0641529464
0.6096417361 0.2075063694 0.0617103871
0.6540314132 0.2108746506 0.0570405749
0.6946359124 0.2128014169 0.0493084406
0.7288341126 0.2146248918 0.0371166470
0.7541065795 0.2198281731 0.0199721175
0.7739857104 0.2279983421 0.0105216936
0.8016789783 0.2366093745 0.0111785994
0.8267093586 0.2458737834 0.0105936778
0.8508679161 0.2556115639 0.0102336424
0.8741561934 0.2657477416 0.0101268625
0.8967285811 0.2762582644 0.0103499448
0.9182797212 0.2872405633 0.0110590956
0.9381250142 0.2987747019 0.0126082746
0.9554943123 0.3112529282 0.0155821668
0.9696837717 0.3256004300 0.0215905517
0.0313743699 0.1670410561 0.0051660977
0.0465898853 0.1675134754 0.0051236395
0.0591401980 0.1679146190 0.0053510798
0.0741711791 0.1684727015 0.0057996544
0.0908089532 0.1692700792 0.0064664229
0.1086444596 0.1703644743 0.0073380013
0.1283620183 0.1718042761 0.0083809168
0.1509529999 0.1736683923 0.0095503737
0.1776308782 0.1760106512 0.0099055057
0.2100951032 0.1791857395 0.0133829217
0.2484027903 0.1835116350 0.0210050891
0.2998428400 0.1891982036 0.0346150574
0.3503322150 0.1952582525 0.0509018373
0.3889147930 0.2033587284 0.0644603814
0.4267549902 0.2126987825 0.0744811454
0.4663632349 0.2218457254 0.0797741338
0.5104133788 0.2298888842 0.0808564097
0.5568518247 0.2369277713 0.0800300422
0.6031603446 0.2431593555 0.0783885851
0.6481116275 0.2481068924 0.0750992806
0.6906201440 0.2510925648 0.0688818397
0.7289101412 0.2522114330 0.0593229142
0.7622957784 0.2529647881 0.0457407437
0.7862273159 0.2580320930 0.0243268121
0.8030938040 0.2677609434 0.0112992243
0.8292088812 0.2766607961 0.0120768566
0.8525515517 0.2864568955 0.0113411456
0.8751383155 0.2967945565 0.0109163844
0.8971397453 0.3076078493 0.0108601536
0.9183165454 0.3188072756 0.0113441727
0.9380341006 0.3303255517 0.0127333873
0.9554063034 0.3426203153 0.0155757261
0.9696428586 0.3566311512 0.0214318413
0.0428691923 0.1993375477 0.0054439653
0.0553726244 0.1998626504 0.0054814804
0.0670265658 0.2003405574 0.0056950929
0.0813820729 0.2009811844 0.0060995544
0.0972110887 0.2018597167 0.0067118097
0.1144650295 0.2030613034 0.0075541374
0.1336665475 0.2046707497 0.0086470028
0.1557308603 0.2067627295 0.0099783290
0.1819206158 0.2094420847 0.0115106180
0.2142580822 0.2127526803 0.0123736180
0.2522128821 0.2170594933 0.0163320599
0.2940126902 0.2227041639 0.0286704624
0.3439900598 0.2293612601 0.0448077145
0.3960264055 0.2356444817 0.0606595657
0.4351933451 0.2439317471 0.0758482015
0.4705782902 0.2541349486 0.0862557751
0.5100569850 0.2640345972 0.0917983688
0.5532457530 0.2728884884 0.0935845107
0.5977153598 0.2807623159 0.0936077271
0.6415898498 0.2875558735 0.0922540011
0.6841075913 0.2924632255 0.0883073788
0.7238563960 0.2949000886 0.0808094551
0.7607680269 0.2951067271 0.0690552464
0.7933554409 0.2948136517 0.0530039514
0.8159925913 0.2996596849 0.0281478762
0.8303168738 0.3108957447 0.0118216237
0.8552203932 0.3199817777 0.0129641326
0.8770881296 0.3300266822 0.0121551274
0.8984897493 0.3405810933 0.0117950235
0.9192688224 0.3514050241 0.0120854698
0.9387277961 0.3625078329 0.0133492660
0.9559030229 0.3744031702 0.0160939341
0.9699775894 0.3879797767 0.0219785357
0.0542677447 0.2369904853 0.0055647615
0.0650524806 0.2376277297 0.0056896719
0.0758083195 0.2382478023 0.0059277771
0.0889174843 0.2390522824 0.0063321089
0.1038857668 0.2400704345 0.0069177985
0.1206669326 0.2413668955 0.0077100523
0.1396310930 0.2430369271 0.0087516285
0.1615031925 0.2451887678 0.0100866616
0.1875034472 0.2479355931 0.0117356188
0.2194180130 0.2514045249 0.0136790308
0.2568507362 0.2556480965 0.0154767007
0.2985160690 0.2608943543 0.0191549028
0.3422445790 0.2676447969 0.0361121287
0.3892246661 0.2752570821 0.0531075754
0.4392804601 0.2814530767 0.0690856405
0.4799413794 0.2885744461 0.0852702743
0.5162744406 0.2987043338 0.0961776996
0.5551907190 0.3088782194 0.1023801419
0.5963329189 0.3182225920 0.1053683869
0.6378694585 0.3265945972 0.1063861882
0.6784811844 0.3336017074 0.1052598024
0.7175163756 0.3382859071 0.1006031959
0.7552892716 0.3400079130 0.0914752468
0.7910301080 0.3393566758 0.0777240288
0.8225269510 0.3383277751 0.0588213498
0.8434412377 0.3433522227 0.0305039659
0.8562549306 0.3555089731 0.0125441895
0.8798686371 0.3646286586 0.0139475749
0.9007886976 0.3745468274 0.0132499740
0.9212634883 0.3844520634 0.0134025786
0.9403922187 0.3946737809 0.0146105446
0.9571638397 0.4058675350 0.0173982533
0.9708221272 0.4188437335 0.0235417768
0.0671458098 0.2780177803 0.0054510849
0.0766635652 0.2787674926 0.0056411500
0.0859979195 0.2795414988 0.0059102287
0.0976694821 0.2805658898 0.0063402584
0.1114998394 0.2818394970 0.0069520240
0.1275316313 0.2833609937 0.0077566045
0.1461376630 0.2851609691 0.0087737740
0.1679173024 0.2873369776 0.0100557466
0.1940690551 0.2900240962 0.0116704790
0.2257385721 0.2933656046 0.0136675438
0.2624541469 0.2975094497 0.0160545587
0.3032984698 0.3025124559 0.0188272842
0.3468327821 0.3084087780 0.0217240509
0.3907843397 0.3159229844 0.0420131024
0.4339537611 0.3242849640 0.0597339125
0.4810353425 0.3304456861 0.0761464546
0.5253363235 0.3358622697 0.0924306214
0.5631451434 0.3445284747 0.1044361984
0.6004305730 0.3546011201 0.1118569235
0.6386634331 0.3640197778 0.1162988104
0.6766112162 0.3724250718 0.1182205968
0.7133783518 0.3791705480 0.1169694157
0.7495410146 0.3833603629 0.1112991583
0.7856970699 0.3844165608 0.1003901062
0.8200382756 0.3832002581 0.0846148813
0.8500970934 0.3819366899 0.0631922184
0.8687564300 0.3876798648 0.0312302521
0.8815949697 0.3996146853 0.0140753375
0.9044553552 0.4077579063 0.0157263064
0.9245917380 0.4165771759 0.0157081033
0.9432070243 0.4258771578 0.0168876174
0.9592967143 0.4363277116 0.0200074909
0.9722469476 0.4486371614 0.0265393586
0.0817193625 0.3207022870 0.0051651912
0.0896854858 0.3215028355 0.0053663423
0.0977446615 0.3223712170 0.0056327278
0.1081498210 0.3235694377 0.0060637752
0.1208634134 0.3250869606 0.0066863783
0.1359932560 0.3268889385 0.0075135136
0.1539217907 0.3289576115 0.0085629648
0.1752940877 0.3313063418 0.0098584787
0.2015130570 0.3340008963 0.0114404138
0.2329549951 0.3371775075 0.0133828866
0.2690070053 0.3410066717 0.0157647340
0.3088932180 0.3456425319 0.0187246709
0.3514456718 0.3511226785 0.0226413958
0.3949761033 0.3573165184 0.0237253619
0.4374032579 0.3651814235 0.0459463032
0.4775158696 0.3738635871 0.0646355198
0.5240819807 0.3801079907 0.0815692005
0.5703027326 0.3840136210 0.0976969536
0.6094286426 0.3902038072 0.1111475474
0.6445496070 0.3994623509 0.1202014214
0.6793172495 0.4084578353 0.1260012900
0.7131891769 0.4163834993 0.1285790751
0.7467046137 0.4225034820 0.1269597556
0.7808074046 0.4260468309 0.1200944893
0.8152083859 0.4266143086 0.1074419620
0.8478746477 0.4252493099 0.0898705236
0.8763194065 0.4241032600 0.0666875780
0.8937113984 0.4296653913 0.0328094026
0.9087072183 0.4392905888 0.0182682332
0.9300103177 0.4462089592 0.0208159004
0.9476127078 0.4549157750 0.0219371351
0.9624843862 0.4654078401 0.0252252422
0.9742951152 0.4783417320 0.0317383173
0.0966283267 0.3638008854 0.0049009621
0.1035248110 0.3645727173 0.0050791910
0.1107239011 0.3654278407 0.0053051874
0.1202814006 0.3666279820 0.0056636698
0.1322200135 0.3681997383 0.0061975090
0.1466342633 0.3701475508 0.0069581721
0.1638801036 0.3724512148 0.0080001626
0.1847917836 0.3750270584 0.0093103705
0.2106258233 0.3778694843 0.0109137956
0.2413661389 0.3810269808 0.0128505898
0.2765262259 0.3846054885 0.0151810045
0.3153124111 0.3887658649 0.0180601359
0.3566679980 0.3936589914 0.0220410108
0.3991671563 0.3993073285 0.0271591628
0.4408760998 0.4054768651 0.0270112510
0.4819241706 0.4131636898 0.0482495232
0.5225052509 0.4216241577 0.0680064530
0.5676548837 0.4279249847 0.0855397254
0.6138613616 0.4308433539 0.1014720555
0.6533417758 0.4345129158 0.1161505944
0.6863936013 0.4417918078 0.1270363372
0.7171850506 0.4499917981 0.1340907714
0.7478055350 0.4572477943 0.1371093171
0.7790723643 0.4627945472 0.1350281469
0.8112248040 0.4658554190 0.1269517829
0.8438906993 0.4660158734 0.1130909275
0.8751540994 0.4641641774 0.0952794294
0.9030019859 0.4623357163 0.0731864366
0.9210997309 0.4661480568 0.0410340281
0.9376574015 0.4739503119 0.0318919188
0.9544476073 0.4824456728 0.0348320740
0.9670132005 0.4941878737 0.0360005714
0.9770219203 0.5083784911 0.0403509446
0.1117550407 0.4060948329 0.0046992939
0.1180060751 0.4067822365 0.0048502812
0.1246838620 0.4075555778 0.0050371119
0.1337373513 0.4086577692 0.0053296667
0.1452619962 0.4101256872 0.0057622618
0.1593731136 0.4119753447 0.0063762839
0.1763810468 0.4142114890 0.0072291684
0.1972204023 0.4168322973 0.0084078992
0.2223874645 0.4197917112 0.0099830299
0.2519870113 0.4229914948 0.0119113975
0.2857154713 0.4264587996 0.0142308684
0.3229444041 0.4302746058 0.0170128206
0.3627284357 0.4345661108 0.0207910881
0.4037817684 0.4394474044 0.0258682142
0.4444189017 0.4449339102 0.0320897469
0.4850170344 0.4509104288 0.0336833330
0.5270943735 0.4581054386 0.0496265654
0.5677712321 0.4663057030 0.0704570827
0.6105925401 0.4729843996 0.0887097260
0.6549885595 0.4756808301 0.1044376566
0.6935403331 0.4775862662 0.1195944965
0.7245819059 0.4827972486 0.1321867926
0.7526933972 0.4906214562 0.1403463518
0.7811212831 0.4976328066 0.1437063639
0.8106333261 0.5026081206 0.1415397507
0.8415546432 0.5046163216 0.1335412862
0.8730748520 0.5036150770 0.1205661437
0.9033565085 0.5009683535 0.1043874116
0.9296537872 0.4988780596 0.0850268746
0.9475169767 0.5015015187 0.0564073623
0.9617740318 0.5104443169 0.0548796739
0.9726459356 0.5227181125 0.0549647091
0.9805097546 0.5383678764 0.0542263614
0.1271125792 0.4464019689 0.0045727539
0.1330442429 0.4469752512 0.0046975763
0.1394848418 0.4476261203 0.0048501271
0.1483497963 0.4485646030 0.0050868111
0.1597898947 0.4498351395 0.0054345599
0.1739361022 0.4514716703 0.0059252847
0.1913487847 0.4535005237 0.0066025144
0.2124342803 0.4559351957 0.0075290626
0.2371866510 0.4587828381 0.0088009387
0.2655130222 0.4620529282 0.0105734662
0.2974392573 0.4656304086 0.0128310388
0.3326288208 0.4694808419 0.0155462927
0.3703098207 0.4736737015 0.0190130807
0.4093680546 0.4783279282 0.0238102665
0.4483219922 0.4835478776 0.0299531801
0.4882128259 0.4893574321 0.0369943130
0.5297937075 0.4956702602 0.0412317953
0.5718834093 0.5028282903 0.0506240972
0.6119238504 0.5110971639 0.0725285569
0.6517205919 0.5183557898 0.0915222237
0.6927798695 0.5213373652 0.1071249393
0.7292270819 0.5220660476 0.1220467960
0.7598141043 0.5248916091 0.1356219657
0.7870112011 0.5309523030 0.1452007509
0.8144463879 0.5365984555 0.1499068035
0.8432102274 0.5398607397 0.1492872814
0.8731625524 0.5403632938 0.1427298151
0.9032204258 0.5387651930 0.1312923832
0.9306859042 0.5367641751 0.1168957172
0.9526380624 0.5364665328 0.0997022480
0.9669823745 0.5409230634 0.0733904203
0.9771621148 0.5532677213 0.0794521423
0.9840691427 0.5688623455 0.0763486614
0.1426733646 0.4862787047 0.0045267171
0.1485246798 0.4867933997 0.0046286350
0.1549510119 0.4873801145 0.0047521145
0.1638922771 0.4882300641 0.0049425993
0.1755504770 0.4893876600 0.0052212363
0.1903187102 0.4908898673 0.0056129279
0.2084018834 0.4927725929 0.0061504927
0.2297587049 0.4950687937 0.0068795704
0.2542821086 0.4978057589 0.0078662405
0.2818121430 0.5009959412 0.0092124958
0.3121166938 0.5046524786 0.0110913861
0.3449772930 0.5087300483 0.0136611298
0.3801313986 0.5130718910 0.0167950807
0.4166727898 0.5177197891 0.0211192490
0.4534380375 0.5227676167 0.0269247472
0.4919986241 0.5282878511 0.0340244197
0.5326304357 0.5342725674 0.0414232051
0.5741180501 0.5406961372 0.0469191369
0.6152019844 0.5476471595 0.0513746133
0.6537345369 0.5557343010 0.0743074745
0.6900108224 0.5632799844 0.0940388787
0.7270441250 0.5665926272 0.1096855342
0.7627089632 0.5661932456 0.1240778712
0.7942493645 0.5659412140 0.1385005316
0.8221556233 0.5684486377 0.1504209332
0.8490803963 0.5720219774 0.1574381629
0.8767227717 0.5738879480 0.1585865875
0.9050156324 0.5740223108 0.1530294968
0.9314763434 0.5736492292 0.1427250296
0.9534120637 0.5743505233 0.1298043075
0.9695383518 0.5777002110 0.1143354377
0.9797829289 0.5855152623 0.0905060850
0.9867860028 0.6004803194 0.1028084593
0.1583847146 0.5271612853 0.0045607735
0.1643146833 0.5276107742 0.0046437405
0.1708820807 0.5281240062 0.0047437179
0.1801468183 0.5288691274 0.0048972611
0.1925149207 0.5298873474 0.0051208851
0.2080734854 0.5312151893 0.0054339045
0.2267681478 0.5328905734 0.0058614389
0.2484425147 0.5349507209 0.0064377579
0.2728777337 0.5374296555 0.0072103266
0.2998217603 0.5403569873 0.0082475629
0.3289927895 0.5437594687 0.0096541427
0.3600480931 0.5476568833 0.0116074757
0.3925638367 0.5520585637 0.0143997010
0.4262344635 0.5567553504 0.0180353357
0.4605118159 0.5617153706 0.0232128508
0.4972670035 0.5670027144 0.0299623301
0.5363306502 0.5726581966 0.0378475073
0.5766959069 0.5786382550 0.0452305080
0.6170928268 0.5849543510 0.0512368810
0.6562666746 0.5914928490 0.0517614609
0.6927407882 0.5990169722 0.0753344159
0.7259315222 0.6060761182 0.0956193808
0.7608624793 0.6090856859 0.1115865483
0.7962814523 0.6074442133 0.1259295261
0.8287082404 0.6044110836 0.1411873757
0.8571357030 0.6035588338 0.1553326527
0.8831544008 0.6053691850 0.1640688553
0.9090317252 0.6071761193 0.1655038607
0.9333441911 0.6088060501 0.1610029496
0.9539617068 0.6112598965 0.1529504533
0.9698857047 0.6153608518 0.1433829347
0.9812735862 0.6219083923 0.1324946126
0.9886026633 0.6319900468 0.1146408298
0.1742709345 0.5683050710 0.0046655432
0.1804177377 0.5686930654 0.0047343303
0.1873450701 0.5691353727 0.0048166486
0.1971930193 0.5697765601 0.0049422500
0.2102071489 0.5706518602 0.0051239878
0.2263927826 0.5717936512 0.0053766656
0.2456139999 0.5732377489 0.0057194776
0.2676211797 0.5750221477 0.0061782209
0.2920919087 0.5771845042 0.0067881329
0.3186698296 0.5797591960 0.0075983187
0.3469865214 0.5827754034 0.0086787126
0.3766556627 0.5862584931 0.0101352957
0.4072354455 0.5902373368 0.0121448445
0.4381646106 0.5947533231 0.0150540787
0.4700442759 0.5996352901 0.0192268796
0.5046934136 0.6047343850 0.0252022058
0.5417330048 0.6100793020 0.0327739871
0.5804187470 0.6156711432 0.0411843651
