latent/luts/04Viride.cube
TITLE "Viride"
#LUMIXPHOTOSTYLE STD
# look 04Viride (苍翠)  order=PGN  source=04Viride.json
LUT_3D_SIZE 5
0.0000000000 0.0000000000 0.0000000000
0.1642878423 0.0065222047 0.0078463160
0.4903453409 0.0622517768 0.0423152635
0.7833128771 0.0742382759 0.0820443343
0.9514747077 0.0870945177 0.1837315922
0.0004655073 0.1365798870 0.0484228327
0.1604051186 0.1767240490 0.0086939991
0.4870758132 0.2387250512 0.1054540628
0.7585885062 0.3075276463 0.1533366853
0.9686592425 0.2810819460 0.1552971857
0.0012871175 0.4206017611 0.1503936105
0.0349702984 0.4577517905 0.0624302674
0.4469541932 0.4849725674 0.0161937514
0.8062427247 0.5400778344 0.0696987529
0.9763206452 0.5889376658 0.1950032784
0.0052727452 0.7263152340 0.2500178127
0.0145972745 0.7423998999 0.2021116132
0.4010911179 0.7776886709 0.0755832880
0.7423475173 0.7962548965 0.0568578459
0.9775785332 0.8274156161 0.1537379466
0.0165075936 0.9629252867 0.4703268301
0.0277888220 0.9689723634 0.4466037469
0.4076349291 0.9877154882 0.3023427904
0.7625401847 0.9931666427 0.2897262957
0.9752026700 0.9985910155 0.5615413972
0.0052184945 0.0004682770 0.1069009377
0.1780194108 0.0068119151 0.1999231368
0.5258962835 0.0212529992 0.2360927195
0.7960885958 0.0373662622 0.2696817985
0.9607753462 0.0964512371 0.3474194245
0.0064987423 0.1763616964 0.1818666364
0.1907818916 0.1871137181 0.1914369226
0.5446934473 0.1930591622 0.2034974281
0.8253439657 0.2170143987 0.2343443032
0.9755318853 0.2755576572 0.3305492910
0.0020108179 0.4302739091 0.2505035421
0.0393169427 0.4802451702 0.1858816317
0.4947570508 0.5099809155 0.1610958817
0.8224203212 0.5456920506 0.2552970883
0.9797469394 0.5900345054 0.3403391220
0.0045344333 0.7298190858 0.3703592683
0.0135750876 0.7471534847 0.3272365692
0.3800937329 0.7851825449 0.1854023514
0.7513416004 0.7993713847 0.1784423976
0.9856536323 0.8256212263 0.3180323204
0.0161382909 0.9642497348 0.5492437117
0.0278163961 0.9703532551 0.5293193782
0.4122224442 0.9887216089 0.4168747702
0.7636951187 0.9938645089 0.4112454248
0.9773241082 0.9986358121 0.6192189235
0.0377425533 0.0004618282 0.3045659554
0.1823258969 0.0055352294 0.4478872233
0.5057545746 0.0304714948 0.5737870226
0.8013558543 0.0578216391 0.5998264086
0.9672316297 0.1267508641 0.6124956356
0.0171626183 0.1410411300 0.4664673995
0.1863796195 0.1604250707 0.5345538619
0.5421147212 0.1952565416 0.5811834881
0.8352512990 0.2088745282 0.5989021673
0.9779237858 0.2947796635 0.6112475654
0.0108701197 0.4825161875 0.4974768144
0.1718972668 0.5187177349 0.5283663788
0.5327317569 0.5271484720 0.5337287721
0.8324149934 0.5265190387 0.5395620955
0.9849717303 0.5796421567 0.6029882766
0.0071826941 0.7421561733 0.5638611048
0.0457422418 0.7672414333 0.5371760443
0.4139160275 0.7956582771 0.5030699193
0.7962616910 0.8101542527 0.5088998990
0.9926577662 0.8298857812 0.6174091037
0.0189571668 0.9678926632 0.7011803358
0.0360130757 0.9740636952 0.6891327781
0.4437983114 0.9897315950 0.6327824595
0.7747209783 0.9944265153 0.6288377476
0.9842430579 0.9986444449 0.7428703895
0.0921726713 0.0008858601 0.5511526931
0.2075872945 0.0031703388 0.6304778644
0.5047157289 0.0260336375 0.7775153992
0.7787784891 0.0756750704 0.8507878745
0.9640221816 0.1536388375 0.8551298378
0.0708439184 0.1123733462 0.7650206811
0.2182021029 0.1126252592 0.8033640098
0.5405401183 0.1717829131 0.8362617374
0.8053599441 0.2186753495 0.8724256666
0.9744725027 0.3118486277 0.8593947006
0.0498551897 0.4540698505 0.7607249013
0.1717085196 0.4665549628 0.8020508208
0.5273109855 0.5063853046 0.8206604286
0.8266500010 0.5341496722 0.8555272796
0.9847908749 0.5924501718 0.8535418401
0.0157851765 0.7653690380 0.7808164834
0.1453746511 0.7919027719 0.8062789372
0.5170765645 0.8131473409 0.8156330168
0.8180058058 0.8177902970 0.8180442895
0.9916236840 0.8309350966 0.8339840097
0.0328155930 0.9749909763 0.8567982784
0.1290185793 0.9838738336 0.8509830925
0.5029139815 0.9910006724 0.8441335731
0.8067937117 0.9954106245 0.8491939431
0.9958810297 0.9991710735 0.8723577740
0.1671300509 0.0025519619 0.7628927071
0.2650619402 0.0048685344 0.8021077379
0.5128821907 0.0205282913 0.8906138315
0.7592258303 0.1107215219 0.9644945442
0.9294622738 0.2375660821 0.9801100027
0.1482090491 0.0997512745 0.9271154052
0.2690980968 0.1256498675 0.9354756039
0.5394232705 0.1927760352 0.9542767202
0.7763441003 0.2798702808 0.9758354479
0.9394650107 0.3934999540 0.9839105449
0.1747932548 0.4461505053 0.9493808593
0.2962584692 0.4565608077 0.9546735283
0.5585822587 0.4963948722 0.9641558317
0.8024281431 0.5626291138 0.9808432777
0.9581915894 0.6373492754 0.9881733724
0.1662728382 0.7580158190 0.9701542401
0.2976425720 0.7635343212 0.9750970022
0.5652519632 0.7821326254 0.9797142668
0.8220597236 0.8152421066 0.9854607341
0.9834220069 0.8505286758 0.9917550117
0.3451211003 0.9807324364 0.9904147323
0.4496442950 0.9829088911 0.9912782190
0.6515042918 0.9884869925 0.9932217295
0.8590371510 0.9956249660 0.9961149300
1.0000000000 1.0000000000 1.0000000000
