latent/luts/04Viride.cube
TITLE "Viride"
#LUMIXPHOTOSTYLE STD
# look 04Viride (苍翠)  order=PGN  source=04Viride.json
LUT_3D_SIZE 33
0.0000000000 0.0000000000 0.0000000000
0.0061311575 0.0002890616 0.0002942026
0.0156607275 0.0006437191 0.0006564316
0.0304935432 0.0011994263 0.0012398470
0.0501078988 0.0020091322 0.0021307311
0.0726384723 0.0029431782 0.0032325630
0.0996409950 0.0039474458 0.0045409433
0.1305197288 0.0050314891 0.0060841514
0.1642878423 0.0065222047 0.0078463160
0.2001176903 0.0090894109 0.0098071119
0.2399461073 0.0136636209 0.0121306238
0.2827704189 0.0216551173 0.0155736578
0.3252587244 0.0311881881 0.0205768841
0.3674286353 0.0404601202 0.0261157043
0.4098325458 0.0482991902 0.0314949952
0.4511854030 0.0552122336 0.0367658382
0.4903453409 0.0622517768 0.0423152635
0.5290930087 0.0698182136 0.0481445723
0.5675481070 0.0775728098 0.0540539287
0.6061454997 0.0840613922 0.0594830542
0.6448252365 0.0880852701 0.0642374236
0.6828380602 0.0890272562 0.0684248949
0.7189286095 0.0868020530 0.0723835910
0.7525730724 0.0817122105 0.0766913164
0.7833128771 0.0742382759 0.0820443343
0.8101960879 0.0645796224 0.0891986398
0.8316365865 0.0520950347 0.0997372596
0.8480887119 0.0398245832 0.1148127198
0.8747040042 0.0505799739 0.1258276386
0.8975529166 0.0599009555 0.1377247190
0.9177377886 0.0671179671 0.1513909609
0.9359255586 0.0760498461 0.1666744717
0.9514747077 0.0870945177 0.1837315922
0.0007882531 0.0068143495 0.0008085192
0.0076855242 0.0075479676 0.0007153353
0.0187990786 0.0079709220 0.0009650246
0.0354172843 0.0085701254 0.0013374118
0.0556754624 0.0093512790 0.0018451813
0.0788432201 0.0103100436 0.0025204556
0.1065724759 0.0114081636 0.0034020992
0.1380008535 0.0129181539 0.0045926598
0.1719448774 0.0160200518 0.0063043581
0.2071023350 0.0216447691 0.0088788269
0.2447518735 0.0295177523 0.0127535126
0.2835711787 0.0389566726 0.0184027259
0.3228847544 0.0486796865 0.0247592217
0.3638998129 0.0571517054 0.0307828020
0.4064597865 0.0639903194 0.0360068688
0.4481139833 0.0705320288 0.0410760560
0.4874670959 0.0775214153 0.0464272287
0.5263458381 0.0849986884 0.0520438914
0.5647599862 0.0928951339 0.0578487859
0.6032528253 0.0999043126 0.0632936115
0.6421615336 0.1044548887 0.0679332204
0.6808688697 0.1057133834 0.0716352213
0.7180455076 0.1035022728 0.0747274896
0.7530139184 0.0981228358 0.0778318907
0.7852841041 0.0901211486 0.0816724343
0.8139598316 0.0798314343 0.0868857814
0.8380428778 0.0675177624 0.0944681429
0.8562433178 0.0532798694 0.1066164513
0.8810949875 0.0637358022 0.1189528545
0.9031383263 0.0735859949 0.1318458861
0.9227996512 0.0817132182 0.1458542366
0.9402742441 0.0916461364 0.1615649735
0.9550174881 0.1037512044 0.1791419513
0.0015804224 0.0174195940 0.0019811035
0.0085266842 0.0191404249 0.0013358458
0.0201997793 0.0198191084 0.0015562701
0.0371201641 0.0205734919 0.0018662394
0.0574479628 0.0214882660 0.0022493710
0.0808206725 0.0226448319 0.0027300912
0.1087153079 0.0240955505 0.0033711174
0.1402785694 0.0263130975 0.0044255282
0.1740657870 0.0304645286 0.0064680057
0.2083848545 0.0374081649 0.0103633157
0.2439768448 0.0463718500 0.0166336943
0.2797760039 0.0561895713 0.0242042873
0.3173577069 0.0655515237 0.0315569055
0.3582146034 0.0736595751 0.0375421357
0.4013159079 0.0803845816 0.0422924108
0.4434132160 0.0870475735 0.0470142804
0.4831531243 0.0940422355 0.0520004332
0.5223042270 0.1014101331 0.0572409968
0.5609405710 0.1092014698 0.0627756046
0.5993090625 0.1166914481 0.0683671243
0.6382716494 0.1219486561 0.0730154641
0.6775374809 0.1237791383 0.0763238573
0.7157775471 0.1218276670 0.0785655355
0.7520745230 0.1163424829 0.0804243360
0.7858888075 0.1078814239 0.0826936573
0.8162522594 0.0968390042 0.0859954478
0.8422391853 0.0838927494 0.0912218124
0.8630925021 0.0695343776 0.0996790615
0.8858400891 0.0770839039 0.1133839332
0.9073276328 0.0872852783 0.1272955885
0.9265755225 0.0960351382 0.1416019987
0.9434987281 0.1066649302 0.1576488376
0.9576281145 0.1194948448 0.1756418269
0.0020736588 0.0329996991 0.0040897522
0.0084201329 0.0358137702 0.0024173595
0.0206994152 0.0369852925 0.0022072518
0.0385168203 0.0380039216 0.0024712126
0.0590792413 0.0390883593 0.0028327656
0.0825341579 0.0403343162 0.0032634678
0.1103083367 0.0419838831 0.0038695801
0.1417408584 0.0445139556 0.0050145984
0.1756202877 0.0487457696 0.0075542209
0.2100220526 0.0554605969 0.0130997897
0.2434295766 0.0647602275 0.0224402306
0.2765857599 0.0752552994 0.0323662306
0.3125291125 0.0852537463 0.0407321147
0.3527135996 0.0936549247 0.0467192287
0.3952736315 0.1009203372 0.0513253457
0.4371769509 0.1081251493 0.0558415354
0.4770611781 0.1154057682 0.0604451458
0.5163296323 0.1228414570 0.0653537885
0.5552639834 0.1305055601 0.0706795079
0.5935712888 0.1383307720 0.0763574322
0.6322204560 0.1446894473 0.0812752280
0.6717627435 0.1476837599 0.0843816203
0.7111188182 0.1465542542 0.0857074357
0.7490044271 0.1413762067 0.0859907474
0.7848087232 0.1326136274 0.0861377843
0.8173451853 0.1206860711 0.0868617602
0.8454913398 0.1066714273 0.0892039441
0.8686464067 0.0915820128 0.0941782316
0.8902734638 0.0940086758 0.1072431136
0.9114222732 0.1050257688 0.1225205731
0.9302714435 0.1142415607 0.1372438216
0.9466469246 0.1254400960 0.1536449638
0.9601671118 0.1388345314 0.1720873221
0.0018475624 0.0509598663 0.0078399912
0.0065457698 0.0548374707 0.0047610652
0.0180902655 0.0568627414 0.0034151889
0.0376076157 0.0581787014 0.0032764086
0.0595971374 0.0594893308 0.0034281453
0.0838113225 0.0608435968 0.0038117153
0.1118512296 0.0624582395 0.0044169855
0.1435159799 0.0649203864 0.0057131298
0.1779394062 0.0690632013 0.0089460200
0.2128717857 0.0756334518 0.0164748707
0.2456563332 0.0852769236 0.0284882727
0.2778526248 0.0959853460 0.0402955665
0.3142686090 0.1051448551 0.0482036356
0.3537881705 0.1134615442 0.0541322200
0.3937494572 0.1220321908 0.0598830235
0.4334487788 0.1305807215 0.0654417748
0.4719861671 0.1388989450 0.0708241908
0.5103500706 0.1470080272 0.0761485995
0.5489148261 0.1550041624 0.0815764091
0.5871312250 0.1629823636 0.0872205603
0.6249612982 0.1705705807 0.0927553413
0.6638669755 0.1754935387 0.0963632080
0.7037268635 0.1761552711 0.0972440881
0.7430551999 0.1721966272 0.0959730341
0.7811332590 0.1637276099 0.0934973953
0.8163430945 0.1511970427 0.0908571275
0.8470491508 0.1360548302 0.0895521255
0.8724723295 0.1199414783 0.0907700830
0.8940870138 0.1143805520 0.0999909514
0.9150825371 0.1268025529 0.1175531508
0.9336229701 0.1361459667 0.1329508762
0.9495096430 0.1476633593 0.1497314524
0.9624769024 0.1613484954 0.1686377975
0.0012454556 0.0693462440 0.0142144550
0.0038429651 0.0743206479 0.0099256106
0.0113249108 0.0782753224 0.0063341737
0.0314382297 0.0806635900 0.0047211123
0.0564029130 0.0823574706 0.0045188497
0.0825607098 0.0841532405 0.0045695831
0.1117707857 0.0860030518 0.0047777628
0.1440070797 0.0883540290 0.0057472993
0.1794208087 0.0921468768 0.0087368463
0.2166685760 0.0982603326 0.0170471752
0.2514736407 0.1075515122 0.0316495237
0.2838756369 0.1181403739 0.0459663185
0.3194424059 0.1273126892 0.0550806968
0.3583791586 0.1352649371 0.0609101569
0.3976423195 0.1434962140 0.0667351072
0.4359714551 0.1521682649 0.0729774424
0.4724908094 0.1612330154 0.0796397612
0.5086385503 0.1704512829 0.0864799996
0.5453484436 0.1794503416 0.0931192979
0.5823128264 0.1881294077 0.0995257703
0.6190666137 0.1966071227 0.1057797925
0.6560446187 0.2041159818 0.1110068418
0.6947660304 0.2078800171 0.1129070070
0.7345061042 0.2063618748 0.1110249911
0.7746043728 0.1989645137 0.1058961537
0.8127690631 0.1865720465 0.0992478197
0.8464631995 0.1708998767 0.0934318211
0.8743627182 0.1539357691 0.0901888539
0.8970899233 0.1399012893 0.0919886459
0.9180707341 0.1523409482 0.1121818702
0.9364657964 0.1613307671 0.1286073133
0.9519780272 0.1727652807 0.1459676711
0.9644806192 0.1863936834 0.1653451708
0.0008154873 0.0897284106 0.0240478201
0.0018823352 0.0945910631 0.0196115241
0.0052271964 0.1003020587 0.0136951745
0.0186099498 0.1057867697 0.0082535582
0.0464207119 0.1083970067 0.0063718479
0.0759459567 0.1104536035 0.0058999159
0.1077809623 0.1126932324 0.0058834910
0.1412154592 0.1150483430 0.0058992368
0.1771113472 0.1180673423 0.0069762365
0.2165564837 0.1228553897 0.0120395246
0.2583014944 0.1301337429 0.0256522991
0.2945282566 0.1402623762 0.0439309860
0.3281442844 0.1508861484 0.0592029094
0.3644179679 0.1598310461 0.0684012857
0.4027662037 0.1676873047 0.0746186885
0.4403567190 0.1758289455 0.0809772023
0.4762442002 0.1843143936 0.0876852098
0.5117639647 0.1931223014 0.0947474651
0.5472564318 0.2024218870 0.1021565127
0.5824654327 0.2122049475 0.1098562372
0.6174153566 0.2221649826 0.1174715650
0.6520297666 0.2320125571 0.1247143729
0.6875283106 0.2399558018 0.1297232031
0.7256143385 0.2424902078 0.1293808765
0.7663795513 0.2374893789 0.1228410856
0.8070052926 0.2255501632 0.1124222086
0.8437725559 0.2092508352 0.1016515725
0.8743732305 0.1917795568 0.0932964366
0.8990240722 0.1755016356 0.0887120039
0.9202448599 0.1811619304 0.1060319924
0.9387095848 0.1892877130 0.1238063560
0.9540219424 0.2002868823 0.1422346942
0.9661667336 0.2142857797 0.1621611820
0.0005784214 0.1122024382 0.0362994438
0.0010789783 0.1164127002 0.0331159454
0.0021815132 0.1215730549 0.0280046934
0.0071988397 0.1295985797 0.0183575411
0.0283897971 0.1361945762 0.0107610498
0.0617145531 0.1389626304 0.0084125896
0.0970876983 0.1413085701 0.0075134307
0.1340091907 0.1439142704 0.0072107324
0.1708703946 0.1467467194 0.0072813743
0.2097555136 0.1501915267 0.0076793336
0.2552549042 0.1554508951 0.0139504162
0.3019531513 0.1630063176 0.0310114939
0.3405537059 0.1734232803 0.0527952279
0.3745193061 0.1842899484 0.0708292050
0.4097400599 0.1934191391 0.0821829526
0.4458263238 0.2016504958 0.0898029201
0.4809224052 0.2100101000 0.0967248082
0.5159682654 0.2188242108 0.1038353872
0.5510325650 0.2280968610 0.1112126009
0.5858275390 0.2377970157 0.1188501013
0.6200658064 0.2478962386 0.1267286990
0.6534616473 0.2583735972 0.1348190169
0.6860520695 0.2689029480 0.1426663888
0.7206885964 0.2758581330 0.1458481724
0.7597281383 0.2751244856 0.1406107082
0.8009355072 0.2661343777 0.1284945018
0.8398427296 0.2510489055 0.1137454590
0.8729183055 0.2333516121 0.1004274500
0.8995514405 0.2164180089 0.0907637019
0.9215769226 0.2109993269 0.0959515894
0.9403000591 0.2209794974 0.1180491611
0.9556222419 0.2317785216 0.1380088015
0.9675553122 0.2460038326 0.1589638946
0.0004655073 0.1365798870 0.0484228327
0.0007712646 0.1401772549 0.0464730289
0.0012781946 0.1444543096 0.0433915961
0.0027641024 0.1512207100 0.0367096173
0.0103764582 0.1614378112 0.0234291027
0.0399142610 0.1684174120 0.0139289722
0.0779656063 0.1712965178 0.0108729954
0.1191880864 0.1738480885 0.0094018326
0.1604051186 0.1767240490 0.0086939991
0.2000685249 0.1799082694 0.0085076110
0.2434649381 0.1836662602 0.0081426580
0.2941868188 0.1891509693 0.0145661733
0.3457206404 0.1966518455 0.0341020866
0.3869621684 0.2071865473 0.0586676220
0.4210545648 0.2187814951 0.0802344981
0.4540734933 0.2292132984 0.0951103675
0.4870758132 0.2387250512 0.1054540628
0.5211308402 0.2478488964 0.1136031994
0.5556351717 0.2570381085 0.1211095915
0.5899533360 0.2665511527 0.1287171792
0.6237649443 0.2763808907 0.1364842715
0.6568144257 0.2864717478 0.1443508956
0.6894471215 0.2962435681 0.1513894084
0.7224474454 0.3044119808 0.1557661617
0.7585885062 0.3075276463 0.1533366853
0.7978350346 0.3031908264 0.1427452957
0.8366631201 0.2920216822 0.1269437290
0.8709943120 0.2768470593 0.1104824539
0.8991650496 0.2611491479 0.0966341460
0.9219330302 0.2481993811 0.0867560108
0.9412352743 0.2574431952 0.1111156172
0.9567604886 0.2674118192 0.1326603559
0.9686592425 0.2810819460 0.1552971857
0.0004229316 0.1628043248 0.0598367573
0.0006456596 0.1658019361 0.0585463642
0.0009664385 0.1693366467 0.0566458242
0.0016626977 0.1747270608 0.0527865803
0.0038655046 0.1830250357 0.0441986119
0.0162046957 0.1949608812 0.0276588791
0.0531133077 0.2017437585 0.0179208962
0.0959528892 0.2048351118 0.0137887766
0.1419964137 0.2076824300 0.0115824427
0.1865602126 0.2109474640 0.0103637163
0.2302582105 0.2146579946 0.0098214850
0.2778905274 0.2191327393 0.0097601260
0.3320771643 0.2251301276 0.0139869554
0.3877035726 0.2329548804 0.0346755539
0.4314720125 0.2436874868 0.0613313549
0.4655596783 0.2558705851 0.0864709485
0.4967541198 0.2675777685 0.1062022048
0.5286412922 0.2783058040 0.1203230667
0.5615066210 0.2882565522 0.1306865500
0.5949167736 0.2978152803 0.1391130636
0.6281985327 0.3073361034 0.1468878964
0.6612510681 0.3166690525 0.1539399553
0.6945338649 0.3250562924 0.1590534298
0.7281636640 0.3317555915 0.1612437060
0.7629747453 0.3358613635 0.1594609362
0.7996248672 0.3351090827 0.1512689380
0.8364164936 0.3287211010 0.1372107942
0.8700918874 0.3181996770 0.1206938903
0.8987104675 0.3061321431 0.1050506430
0.9223891535 0.2954033875 0.0919446553
0.9416244525 0.2970301537 0.1022178934
0.9574561117 0.3065309296 0.1259670791
0.9694698170 0.3190331582 0.1504117867
0.0004066978 0.1907606399 0.0721075198
0.0005895000 0.1932084554 0.0708007769
0.0008344152 0.1961207272 0.0691089930
0.0012944221 0.2005828395 0.0661850962
0.0023125896 0.2072372959 0.0609062445
0.0060890107 0.2179281401 0.0493244270
0.0275777541 0.2316647300 0.0308221350
0.0683843435 0.2380454927 0.0222001329
0.1159628035 0.2415722377 0.0173318871
0.1655833810 0.2448130722 0.0141151530
0.2131640705 0.2485272520 0.0122321160
0.2617378655 0.2527887173 0.0112567088
0.3125851483 0.2578670239 0.0109424142
0.3682675291 0.2642848132 0.0125526770
0.4265573245 0.2721840882 0.0327880524
0.4722130501 0.2825779745 0.0611528424
0.5079508085 0.2948751315 0.0896827974
0.5394788564 0.3074624401 0.1147749473
0.5704551748 0.3191504558 0.1334118943
0.6018860306 0.3298229776 0.1468124279
0.6341692584 0.3394599713 0.1561915598
0.6674531865 0.3478519537 0.1620730848
0.7014600241 0.3547479413 0.1647298276
0.7358248586 0.3598375771 0.1641402199
0.7706767469 0.3630107179 0.1605590612
0.8052658096 0.3641158348 0.1541194894
0.8393610826 0.3617354627 0.1431216460
0.8711133424 0.3560716965 0.1288808383
0.8990213176 0.3487237451 0.1141115363
0.9229776706 0.3418059672 0.1006905230
0.9413954246 0.3379028166 0.0894809774
0.9578343508 0.3479368108 0.1185702834
0.9700089108 0.3590609013 0.1440818465
0.0004009006 0.2218542794 0.0865418202
0.0005562058 0.2239745903 0.0851478616
0.0007565348 0.2264903585 0.0834222060
0.0011079698 0.2303257269 0.0806115436
0.0017761499 0.2359533070 0.0760160031
0.0033719253 0.2442250948 0.0680636464
0.0106973411 0.2580379698 0.0515394224
0.0434321971 0.2712513587 0.0339621166
0.0874081911 0.2771312707 0.0264160566
0.1384663257 0.2810299709 0.0212552366
0.1903190219 0.2845769308 0.0170392520
0.2421562282 0.2885860802 0.0143060514
0.2947972805 0.2932088829 0.0127568817
0.3478455081 0.2986792680 0.0120675960
0.4032103492 0.3053392700 0.0111122960
0.4617391458 0.3133175168 0.0285361966
0.5104078935 0.3230895308 0.0588542699
0.5492268480 0.3350914894 0.0904207327
0.5817743827 0.3478961515 0.1202520572
0.6125028177 0.3598726906 0.1428937847
0.6438637177 0.3701489520 0.1574140437
0.6766031743 0.3784045508 0.1649135072
0.7104839181 0.3845249732 0.1667042398
0.7450676938 0.3885170964 0.1639856817
0.7797214830 0.3908567802 0.1585901301
0.8131517145 0.3922090356 0.1521636458
0.8447496528 0.3925039139 0.1444582172
0.8740020241 0.3911082010 0.1343788483
0.9004247949 0.3884850833 0.1230078141
0.9239707970 0.3857500605 0.1118293207
0.9429066223 0.3843319943 0.1012469312
0.9578517263 0.3884126082 0.1053054164
0.9703797446 0.3998819737 0.1370558693
0.0004064733 0.2571206258 0.1032581821
0.0005416100 0.2589168740 0.1017877700
0.0007115366 0.2610385368 0.1000105403
0.0009967494 0.2642561745 0.0972147450
0.0014939596 0.2689350549 0.0928844758
0.0024782001 0.2756292743 0.0860215037
0.0051917473 0.2856844978 0.0740061043
0.0213380260 0.3024145489 0.0509815046
0.0635048093 0.3126570806 0.0366041663
0.1122718020 0.3177238242 0.0296488915
0.1659322319 0.3215597859 0.0241996307
0.2198326567 0.3252025048 0.0193287969
0.2757640879 0.3293991222 0.0159920131
0.3308660084 0.3343339939 0.0140399886
0.3844796994 0.3401633731 0.0130936435
0.4387115004 0.3472961787 0.0131725956
0.4939531562 0.3553193072 0.0221476016
0.5472652963 0.3642923754 0.0545958989
0.5893901844 0.3754310653 0.0875696065
0.6245554308 0.3872245310 0.1186386546
0.6568946496 0.3980315408 0.1418445817
0.6892239462 0.4067441454 0.1552537408
0.7221554494 0.4130366408 0.1601152109
0.7557767627 0.4171069775 0.1587535744
0.7892835531 0.4195550664 0.1538527048
0.8214442414 0.4211455877 0.1477666907
0.8512152983 0.4226918118 0.1423386007
0.8781867576 0.4242393730 0.1371190986
0.9029035357 0.4254808155 0.1311174493
0.9254907174 0.4265932527 0.1246415798
0.9444817118 0.4280796043 0.1180121559
0.9590214328 0.4309158670 0.1106276688
0.9706000694 0.4389440779 0.1254330158
0.0004426357 0.2959035011 0.1211151845
0.0005669625 0.2974363130 0.1194894435
0.0007210938 0.2992304431 0.1175419470
0.0009735085 0.3019256031 0.1145278299
0.0013934675 0.3058032231 0.1099991027
0.0021504375 0.3112694549 0.1031948213
0.0038167130 0.3191234635 0.0924641389
0.0104679003 0.3324497546 0.0718792175
0.0461898881 0.3479627707 0.0470675833
0.0934665743 0.3540508406 0.0365334921
0.1470195430 0.3578516164 0.0299392320
0.2013024628 0.3612833152 0.0244411486
0.2580341646 0.3650255009 0.0197338500
0.3153686355 0.3695915947 0.0166212144
0.3703818428 0.3749959661 0.0147860182
0.4224198505 0.3812781076 0.0138908120
0.4733272211 0.3887749126 0.0139193256
0.5254666372 0.3970042217 0.0157520764
0.5826594994 0.4051469155 0.0458237930
0.6287037303 0.4146972228 0.0776697599
0.6672431385 0.4245500873 0.1066749029
0.7017845475 0.4333135296 0.1281048826
0.7345534716 0.4401715288 0.1403383782
0.7670208653 0.4450349892 0.1447955605
0.7989086511 0.4483516903 0.1442028403
0.8293509644 0.4508509769 0.1414234284
0.8574815658 0.4533351603 0.1389154657
0.8827482560 0.4564676322 0.1382667063
0.9060736598 0.4601492880 0.1384333028
0.9275106340 0.4640332782 0.1381861675
0.9460297654 0.4679462368 0.1369126114
0.9608612435 0.4721454872 0.1342046608
0.9716053908 0.4776825628 0.1299078491
0.0005682108 0.3370321347 0.1363778147
0.0006935002 0.3384082676 0.1345413165
0.0008478309 0.3399943481 0.1323483675
0.0010979405 0.3423369919 0.1289786540
0.0015051243 0.3456452057 0.1239915970
0.0022076813 0.3502229139 0.1167103729
0.0036126278 0.3566515547 0.1058241899
0.0076685645 0.3666202996 0.0877058925
0.0350016669 0.3834880188 0.0564655087
0.0827395246 0.3906358767 0.0415036689
0.1360996835 0.3938840492 0.0333495465
0.1905944704 0.3965260627 0.0272295568
0.2464861825 0.3995568494 0.0220920946
0.3037504681 0.4036427655 0.0185851959
0.3594785154 0.4087563342 0.0163494584
0.4118657607 0.4147297887 0.0150634660
0.4603197190 0.4214775216 0.0144868138
0.5083009828 0.4292464705 0.0146265526
0.5587318824 0.4376278241 0.0154166430
0.6137403533 0.4454276171 0.0292997889
0.6650519176 0.4528028209 0.0612678337
0.7064471270 0.4604859059 0.0872147755
0.7423808592 0.4672831870 0.1072571628
0.7756366849 0.4727941932 0.1201991245
0.8069311501 0.4771229207 0.1273751727
0.8361629322 0.4807593152 0.1312564548
0.8629503073 0.4843537815 0.1343847314
0.8870370839 0.4885446685 0.1388643423
0.9094407464 0.4936726480 0.1452774247
0.9299013645 0.4993706580 0.1514668837
0.9477443122 0.5051172491 0.1555929477
0.9623526181 0.5107733204 0.1569800059
0.9732410758 0.5170659815 0.1567932856
0.0008321464 0.3789935996 0.1463392480
0.0009702918 0.3802779607 0.1442847359
0.0011405835 0.3817533529 0.1418475332
0.0014161133 0.3839154645 0.1381280733
0.0018621762 0.3869224401 0.1326682438
0.0026193894 0.3909849887 0.1247866400
0.0040751807 0.3965372079 0.1132566958
0.0078321336 0.4048464653 0.0950611713
0.0313109767 0.4200911377 0.0620608845
0.0803849616 0.4275183191 0.0438529323
0.1332088212 0.4299980258 0.0346714065
0.1870261219 0.4316529820 0.0280879204
0.2416256629 0.4337102148 0.0228798224
0.2976762155 0.4369644843 0.0194312076
0.3524919611 0.4414855307 0.0172514923
0.4045125407 0.4470693182 0.0159578288
0.4525952633 0.4534505378 0.0153033607
0.4973052790 0.4604450547 0.0151161921
0.5436375993 0.4682193313 0.0154157518
0.5924028652 0.4765742354 0.0166402498
0.6407848152 0.4847220495 0.0162614940
0.6945841400 0.4909769862 0.0387997454
0.7394587069 0.4968105454 0.0654337229
0.7771688001 0.5024505512 0.0860730038
0.8105173323 0.5074564435 0.1023957624
0.8403369134 0.5120164655 0.1153595292
0.8669393610 0.5165693238 0.1266874930
0.8906294719 0.5215857640 0.1380454103
0.9126723957 0.5274152560 0.1504556820
0.9326102599 0.5339352920 0.1624486200
0.9499095991 0.5405859217 0.1712080747
0.9640612993 0.5471960189 0.1761526727
0.9746492299 0.5543111524 0.1790125103
0.0012871175 0.4206017611 0.1503936105
0.0014514653 0.4217851973 0.1481200560
0.0016546400 0.4231442635 0.1454380232
0.0019842679 0.4251350652 0.1413737068
0.0025187666 0.4279020076 0.1354640216
0.0034240345 0.4316360771 0.1270352745
0.0051428519 0.4367057610 0.1148704953
0.0094207009 0.4441767787 0.0959979656
0.0349702984 0.4577517905 0.0624302674
0.0847879560 0.4641510896 0.0439385374
0.1368192290 0.4658857386 0.0345851363
0.1890994620 0.4667037500 0.0278897716
0.2418915316 0.4679554262 0.0230758296
0.2959431445 0.4703421823 0.0199245697
0.3489532415 0.4740439803 0.0179393935
0.3996091990 0.4789948656 0.0167799069
0.4469541932 0.4849725674 0.0161937514
0.4907838062 0.4917260980 0.0160105144
0.5339595578 0.4990685224 0.0161051818
0.5786010358 0.5071106786 0.0165005834
0.6253217486 0.5156290633 0.0175753561
0.6728376690 0.5238791402 0.0200086709
0.7170510033 0.5312183541 0.0200928661
0.7654480546 0.5357615360 0.0434931135
0.8062427247 0.5400778344 0.0696987529
0.8398050688 0.5447717835 0.0921833966
0.8683188374 0.5496926345 0.1129854481
0.8929494631 0.5550438996 0.1325018598
0.9155021575 0.5609606787 0.1508087015
0.9355986096 0.5674317005 0.1674493753
0.9526638453 0.5742206039 0.1804351026
0.9663039366 0.5812489502 0.1890440502
0.9763206452 0.5889376658 0.1950032784
0.0019772356 0.4607306288 0.1499900040
0.0021813969 0.4618002488 0.1475664424
0.0024342934 0.4630283525 0.1447195418
0.0028452135 0.4648270404 0.1404282896
0.0035117628 0.4673349044 0.1342325431
0.0046372955 0.4707414009 0.1254724084
0.0067545286 0.4754116163 0.1129526522
0.0119291952 0.4824225007 0.0936719276
0.0421608146 0.4951540025 0.0605720191
0.0919162961 0.5008836268 0.0435725836
0.1427515138 0.5024809081 0.0347181224
0.1929886563 0.5030542602 0.0284336992
0.2438313078 0.5039282897 0.0241246630
0.2957948766 0.5057161733 0.0212368255
0.3469253591 0.5086820160 0.0193658888
0.3960488706 0.5128988428 0.0182573691
0.4423498497 0.5182528511 0.0176947820
0.4854751474 0.5245174846 0.0174946831
0.5278681631 0.5314517130 0.0175244394
0.5699616095 0.5388644859 0.0176920731
0.6130935812 0.5468138098 0.0180276506
0.6577666394 0.5551437231 0.0188803488
0.7027126242 0.5632625328 0.0208657009
0.7463995250 0.5703783977 0.0249389855
0.7871071865 0.5762125757 0.0276675189
0.8316055588 0.5791471221 0.0604139533
0.8655044709 0.5834276166 0.0903630825
0.8930149651 0.5884461192 0.1177397037
0.9173390895 0.5939580196 0.1420577973
0.9383846641 0.5999218750 0.1631443919
0.9556721906 0.6063434707 0.1804342541
0.9689342821 0.6133182991 0.1932957162
0.9783143355 0.6212420420 0.2033407396
0.0028590323 0.4996774817 0.1489609557
0.0031067785 0.5007043772 0.1465445535
0.0034129373 0.5018863495 0.1437157264
0.0039084587 0.5036229074 0.1394697604
0.0047063858 0.5060466698 0.1333731950
0.0060359979 0.5093364335 0.1248103642
0.0084775562 0.5138383726 0.1126622772
0.0142841716 0.5205587639 0.0940928167
0.0459011569 0.5327037657 0.0621597132
0.0956487066 0.5386993835 0.0456678979
0.1450095278 0.5407843914 0.0373860496
0.1934531576 0.5417923754 0.0316644517
0.2427368308 0.5427382387 0.0276225302
0.2933791585 0.5441618635 0.0247479878
0.3435259974 0.5464107917 0.0227336360
0.3920063180 0.5496699990 0.0213869646
0.4379403982 0.5539913776 0.0205642795
0.4808264317 0.5592678505 0.0201012582
