latent/luts/05Clear.cube
TITLE "Clear"
#LUMIXPHOTOSTYLE STD
# look 05Clear (澄明)  order=PGN  source=05Clear.json
LUT_3D_SIZE 5
0.0000000000 0.0000000000 0.0000000000
0.2363878996 0.0153066859 0.0122525414
0.4988388274 0.0508328094 0.0166787750
0.7350535002 0.1156874105 0.0260062227
0.9322661285 0.1835164423 0.0480742392
0.0810086285 0.2260220142 0.0072697754
0.2641438144 0.2552532705 0.0193460785
0.5379298294 0.2716822126 0.0445829376
0.7505622426 0.3149410034 0.0348289779
0.9462115463 0.3624066185 0.0712604948
0.2650700608 0.4873248897 0.0094793366
0.3689900911 0.5007218654 0.0123223818
0.5644257617 0.5382439336 0.0326278808
0.8000707408 0.5622957753 0.1170153746
0.9656086126 0.5928559285 0.2333433422
0.4544991094 0.7306114600 0.0142447005
0.5244034315 0.7359741872 0.0156736328
0.6615928137 0.7537479857 0.0224906813
0.8212248472 0.7879632594 0.0502985825
0.9763660963 0.8202596310 0.1148445010
0.5631792646 0.9522672286 0.0269965366
0.6147334782 0.9549586995 0.0285741594
0.7298660543 0.9634886048 0.0351860701
0.8674278494 0.9788062405 0.0587707923
0.9934197921 0.9958606916 0.1968100991
0.0123168347 0.0005858799 0.1606456627
0.2465106335 0.0123703756 0.2458437899
0.5313631212 0.0252891803 0.2588010058
0.7779498803 0.0500031477 0.2623234871
0.9545239678 0.0952573324 0.2883169893
0.0163145481 0.2484487702 0.2505980337
0.2616133809 0.2616133809 0.2616133809
0.5746698800 0.2501228959 0.2482885748
0.8156216544 0.2661175943 0.2409828859
0.9677456311 0.3262482634 0.2854900387
0.0830357726 0.5125623778 0.1962706988
0.2756398475 0.5292519685 0.1763723734
0.5661948622 0.5494553053 0.2238913267
0.8027533565 0.5576825465 0.3062741370
0.9664098142 0.5939328796 0.3532470676
0.3586285727 0.7508613606 0.0575809206
0.4618351769 0.7543625339 0.0620186910
0.6335074343 0.7706330431 0.1153797290
0.8269740294 0.7947202269 0.2197206161
0.9840800795 0.8180107812 0.3452065735
0.5142757511 0.9610382074 0.0553648378
0.5759582724 0.9633895834 0.0595351662
0.7035914466 0.9718510959 0.0879142107
0.8547782719 0.9865730235 0.2341403960
0.9941672885 0.9967268678 0.4034633033
0.0462343333 0.0008015623 0.3519370896
0.2359759067 0.0103532070 0.4694628938
0.5313458117 0.0278677790 0.5216897271
0.7762174422 0.0458396877 0.5365802911
0.9575265426 0.1033414571 0.5492858259
0.0198842587 0.1967533405 0.4625973700
0.2398805117 0.2221326153 0.5527965260
0.5639885332 0.2525307192 0.5635126719
0.8203842700 0.2584302072 0.5480654378
0.9700381239 0.3254915190 0.5523819010
0.0171387855 0.4889994808 0.5095772914
0.2131852170 0.5440260132 0.5511458341
0.5553564548 0.5553564548 0.5553564548
0.8321621739 0.5419895260 0.5405935207
0.9775408615 0.5844233529 0.5709125623
0.0416020467 0.7490187704 0.5351038845
0.2422684302 0.7751385579 0.4929851793
0.5528370775 0.7927822743 0.4702722223
0.8193874824 0.8038390783 0.5080454675
0.9846359469 0.8143463617 0.6235087475
0.3348585709 0.9793740359 0.4967725908
0.4514826517 0.9805387416 0.4921119091
0.6541816508 0.9830113465 0.4948728597
0.8506763226 0.9887061391 0.5366679530
0.9977569137 0.9957225494 0.6427835234
0.1029527305 0.0014466487 0.5610004658
0.2371882550 0.0077661165 0.6406520480
0.5224085233 0.0239860079 0.7233467102
0.7739489928 0.0457528568 0.7613402670
0.9589707898 0.0988957901 0.7682888023
0.0330841326 0.1881968563 0.7070035161
0.2181553284 0.2024146119 0.7743786218
0.5489766953 0.2398491149 0.7961007858
0.8155273577 0.2548732676 0.8032988838
0.9723658204 0.3261531786 0.7790891891
0.0526917175 0.4612275129 0.7165419438
0.2062106740 0.4797638628 0.7703173202
0.5361639372 0.5265449488 0.8118857281
0.8199392054 0.5436097828 0.8200034978
0.9788735665 0.5880758104 0.7939097094
0.0265222883 0.7255220339 0.7603156636
0.1653630944 0.7552632148 0.7925437404
0.5008310135 0.8038228226 0.8110189354
0.8073790311 0.8073790311 0.8073790311
0.9874281995 0.8172485542 0.8155702253
0.0437520399 0.9652673192 0.8324336306
0.2328927318 0.9811982408 0.8149170296
0.5773587213 0.9863738393 0.7943027580
0.8402114484 0.9912715865 0.7920724769
0.9996479606 0.9951731087 0.8735937327
0.1594531597 0.0028961538 0.7525258219
0.2636995149 0.0082541941 0.8077409880
0.5150267831 0.0239348982 0.8863601777
0.7628019475 0.0524684368 0.9292901309
0.9559343321 0.1100295695 0.9449847808
0.0791101839 0.1727303586 0.9118139476
0.2375490449 0.2051052097 0.9294106171
0.5259788558 0.2539633648 0.9465104828
0.7844090563 0.2892086311 0.9594577653
0.9672390790 0.3424333532 0.9571856197
0.1320969093 0.4723522251 0.9287586518
0.2602576499 0.4892798893 0.9377083775
0.5226326915 0.5279241359 0.9526187589
0.7911785967 0.5610811254 0.9677442555
0.9751971393 0.5962310333 0.9676715829
0.1951903805 0.7237537419 0.9592179291
0.3181196411 0.7316997884 0.9601625711
0.5550402852 0.7574604173 0.9643022945
0.8028067019 0.7994141772 0.9795291720
0.9850234083 0.8239098406 0.9847782724
0.1462344289 0.9563223091 0.9927960551
0.3915157939 0.9629651058 0.9948805417
0.6254138146 0.9748581877 0.9948332460
0.8375840535 0.9929801527 0.9954830574
1.0000000000 1.0000000000 1.0000000000
