latent/luts/05Clear.cube
TITLE "Clear"
#LUMIXPHOTOSTYLE STD
# look 05Clear (澄明)  order=PGN  source=05Clear.json
LUT_3D_SIZE 33
0.0000000000 0.0000000000 0.0000000000
0.0183994625 0.0008168604 0.0008164450
0.0418232169 0.0017628217 0.0017544777
0.0722672445 0.0031733177 0.0031143789
0.1060933530 0.0051351461 0.0049255990
0.1385952447 0.0073479747 0.0068358775
0.1709331607 0.0097537471 0.0087272055
0.2035303318 0.0123851175 0.0105798811
0.2363878996 0.0153066859 0.0122525414
0.2694093399 0.0185881116 0.0135720038
0.3028038768 0.0222836260 0.0144707531
0.3363426326 0.0264340366 0.0150092669
0.3698135171 0.0310412068 0.0153533107
0.4032021504 0.0361238433 0.0157048454
0.4362912125 0.0413239303 0.0161316965
0.4678862652 0.0444333569 0.0163214720
0.4988388274 0.0508328094 0.0166787750
0.5290259082 0.0598217939 0.0171595844
0.5585090685 0.0690069245 0.0176692674
0.5876347555 0.0774952571 0.0183264662
0.6167334512 0.0853729566 0.0192384663
0.6460120151 0.0931073076 0.0204705076
0.6755214669 0.1007339613 0.0220374637
0.7052142329 0.1082535113 0.0239102209
0.7350535002 0.1156874105 0.0260062227
0.7647780429 0.1229507243 0.0282421709
0.7937059950 0.1302489598 0.0304646436
0.8211855312 0.1376067030 0.0325079795
0.8468091157 0.1452615419 0.0343657560
0.8704720320 0.1535347720 0.0362924695
0.8926188548 0.1624769330 0.0388201768
0.9133758332 0.1723016596 0.0425012265
0.9322661285 0.1835164423 0.0480742392
0.0021495323 0.0200070787 0.0021354442
0.0212906835 0.0212899971 0.0022691391
0.0465334506 0.0222223431 0.0030035203
0.0784878547 0.0235097774 0.0040119883
0.1122865440 0.0250940342 0.0052066596
0.1445475257 0.0270558805 0.0065614736
0.1768572016 0.0294674956 0.0080349190
0.2093112364 0.0323944481 0.0095115255
0.2417373653 0.0359656605 0.0107735517
0.2740638952 0.0402165568 0.0116875749
0.3066341118 0.0450890855 0.0122798970
0.3393956102 0.0505017645 0.0126820065
0.3723589775 0.0563615967 0.0130596558
0.4055514789 0.0625531430 0.0135489622
0.4387040376 0.0690138478 0.0141792311
0.4706574378 0.0735696963 0.0144368249
0.5010825904 0.0778494693 0.0146097405
0.5309472988 0.0871210151 0.0153058748
0.5601898930 0.0969962530 0.0160487492
0.5890583847 0.1056318814 0.0168071241
0.6179362532 0.1130875462 0.0177304098
0.6470480443 0.1199055926 0.0189505978
0.6764709292 0.1264000842 0.0205247096
0.7061698513 0.1325949971 0.0224501009
0.7361132530 0.1385866138 0.0246652987
0.7660150844 0.1446178100 0.0270813892
0.7951481846 0.1507938571 0.0295331315
0.8227874772 0.1571775169 0.0318058199
0.8484500798 0.1640113377 0.0338473920
0.8720022920 0.1716005832 0.0358944233
0.8939934325 0.1799988254 0.0384978496
0.9145752476 0.1893217162 0.0422851086
0.9332762229 0.2000661847 0.0480160606
0.0048439508 0.0457218896 0.0043083666
0.0235777994 0.0481558592 0.0040088525
0.0493315526 0.0493019344 0.0046915061
0.0813023584 0.0506570563 0.0055239862
0.1146584270 0.0522966144 0.0065296611
0.1466178983 0.0543036250 0.0077267336
0.1787827027 0.0567794484 0.0090828090
0.2111697922 0.0598265726 0.0104488676
0.2435802344 0.0635411382 0.0115909016
0.2758334006 0.0679613584 0.0123269524
0.3081485511 0.0730419156 0.0126663137
0.3405873767 0.0786292916 0.0128273775
0.3733478090 0.0845234310 0.0130408177
0.4065229682 0.0905362186 0.0134463045
0.4396963487 0.0966167532 0.0140126122
0.4718907682 0.1027885192 0.0144985692
0.5022057919 0.1066492441 0.0142172243
0.5318536651 0.1130115380 0.0146902476
0.5610085387 0.1211618302 0.0155325652
0.5896999729 0.1288422888 0.0163253638
0.6183748191 0.1356805048 0.0171979438
0.6473176449 0.1419265949 0.0183275651
0.6766512308 0.1478493968 0.0198269586
0.7063675781 0.1534343496 0.0217143279
0.7364587873 0.1587584488 0.0239549489
0.7666165373 0.1640908877 0.0264805536
0.7960661998 0.1695377813 0.0291175434
0.8239944668 0.1752128557 0.0316045962
0.8498192439 0.1814079482 0.0338270354
0.8733617275 0.1884615252 0.0359843920
0.8952427395 0.1964747233 0.0386333472
0.9156783076 0.2054579194 0.0424914335
0.9342160395 0.2158790871 0.0483506896
0.0091078136 0.0777051705 0.0062725569
0.0271821521 0.0810064210 0.0057558639
0.0527099164 0.0827170328 0.0063443419
0.0845638506 0.0842829665 0.0071510188
0.1174743261 0.0859093903 0.0080882873
0.1491579973 0.0877257036 0.0091638679
0.1813691831 0.0895945647 0.0104449352
0.2137060036 0.0919818306 0.0118401459
0.2461522216 0.0950010693 0.0131092562
0.2786462184 0.0987020984 0.0140228193
0.3113599463 0.1030485110 0.0145127967
0.3440801496 0.1079189499 0.0146951414
0.3767932794 0.1131341208 0.0147738820
0.4096196198 0.1184875410 0.0149485570
0.4422494383 0.1239496756 0.0152255449
0.4739758239 0.1296246738 0.0154783157
0.5041671519 0.1350497927 0.0153864255
0.5331905574 0.1394368087 0.0149615252
0.5621303846 0.1461656133 0.0155966903
0.5906128093 0.1534752807 0.0163929758
0.6189368176 0.1602254907 0.0171706610
0.6475373790 0.1663146308 0.0181351703
0.6766235751 0.1719748740 0.0194699017
0.7062386933 0.1772549706 0.0212418750
0.7364218688 0.1821919040 0.0234570085
0.7668767111 0.1870308786 0.0260878458
0.7967725839 0.1918564590 0.0289538808
0.8251744164 0.1968277579 0.0317406892
0.8513361855 0.2023251725 0.0342425749
0.8749831912 0.2087756954 0.0365798208
0.8967807774 0.2163863753 0.0392957336
0.9170407599 0.2250789483 0.0432240755
0.9353814201 0.2352223611 0.0492329732
0.0155253715 0.1102333176 0.0072385477
0.0342014033 0.1135657171 0.0071495659
0.0587891582 0.1158503532 0.0079567732
0.0889678518 0.1180106287 0.0087421074
0.1207858920 0.1198863287 0.0095446542
0.1521247627 0.1216304664 0.0106318493
0.1838235205 0.1234325764 0.0118868589
0.2173496045 0.1243540914 0.0133795097
0.2504615958 0.1258814221 0.0149772846
0.2831109496 0.1286270993 0.0162893913
0.3161928232 0.1320391746 0.0172010840
0.3494212380 0.1360559119 0.0177513323
0.3826576101 0.1405434154 0.0180907153
0.4156923537 0.1453512345 0.0183153515
0.4479789805 0.1504236590 0.0183616836
0.4790360715 0.1557948265 0.0182220923
0.5086322402 0.1614792946 0.0179882705
0.5367544382 0.1667871763 0.0170479707
0.5646458955 0.1720068028 0.0165231401
0.5927000675 0.1787776983 0.0171344631
0.6204718765 0.1856059699 0.0177959812
0.6484206301 0.1918826744 0.0185288700
0.6769313476 0.1976023691 0.0195797485
0.7061509392 0.2028970103 0.0211185785
0.7361921462 0.2078128913 0.0232211725
0.7668293812 0.2124695595 0.0259215282
0.7971926890 0.2168887386 0.0290417339
0.8262148032 0.2212383961 0.0322243381
0.8529164468 0.2260052083 0.0351510834
0.8768411688 0.2317696694 0.0377977011
0.8986454179 0.2388985270 0.0406630105
0.9186940114 0.2473692457 0.0446708285
0.9367915364 0.2573177460 0.0508574027
0.0255750887 0.1399139087 0.0074729038
0.0461071134 0.1430514331 0.0077606221
0.0691043540 0.1457516099 0.0086539786
0.0966024421 0.1486725193 0.0098764227
0.1256667825 0.1514030367 0.0111914468
0.1557834275 0.1537605614 0.0120659335
0.1870336547 0.1558196847 0.0130767374
0.2189562267 0.1578105211 0.0146023192
0.2525735530 0.1591563474 0.0163707839
0.2892788260 0.1583029065 0.0185629037
0.3225571753 0.1610181150 0.0202338757
0.3559568904 0.1645389913 0.0214716518
0.3894363153 0.1685249130 0.0223460317
0.4226038193 0.1728368123 0.0228618174
0.4549774670 0.1774217334 0.0230199414
0.4860808917 0.1822847775 0.0228470670
0.5155628369 0.1874724888 0.0223885744
0.5438264986 0.1930384174 0.0217269529
0.5702763888 0.1984388159 0.0197138938
0.5969491118 0.2042980017 0.0189737429
0.6240135841 0.2110360524 0.0194037191
0.6510106663 0.2176468444 0.0198433689
0.6785067787 0.2237422445 0.0204761931
0.7068638688 0.2293387488 0.0215964366
0.7363485942 0.2345976857 0.0234498372
0.7668269613 0.2394621405 0.0261170201
0.7974750755 0.2438015920 0.0294532399
0.8271166536 0.2477357227 0.0330865224
0.8545060970 0.2518208898 0.0365886761
0.8789032183 0.2568340333 0.0397205651
0.9008611331 0.2633591528 0.0428778770
0.9207064783 0.2716091883 0.0470276685
0.9384922113 0.2815356705 0.0534235655
0.0403355483 0.1685772766 0.0074013744
0.0625592053 0.1714224861 0.0078600060
0.0836500261 0.1742240184 0.0086930703
0.1080333365 0.1776301233 0.0099542422
0.1337481379 0.1812165657 0.0115536245
0.1614733841 0.1845553751 0.0132757431
0.1911684078 0.1874713838 0.0148478849
0.2224512764 0.1899414704 0.0155973387
0.2547988968 0.1922081764 0.0171726762
0.2883590779 0.1943769246 0.0194164605
0.3273635558 0.1930550583 0.0221426698
0.3631546878 0.1939142426 0.0247600185
0.3966076214 0.1974104818 0.0266603009
0.4298262377 0.2012141080 0.0280051558
0.4622838587 0.2053038042 0.0287549833
0.4934723630 0.2096657746 0.0289146679
0.5231331026 0.2143197286 0.0285353210
0.5516470903 0.2193218120 0.0277166575
0.5790709600 0.2247249939 0.0265799932
0.6043813622 0.2302058270 0.0234463972
0.6301308514 0.2364577320 0.0224772125
0.6562842935 0.2431716296 0.0226154111
0.6824891282 0.2497441425 0.0227236760
0.7094945796 0.2559030445 0.0232339773
0.7379026910 0.2617501293 0.0246466572
0.7676967705 0.2671638221 0.0271231648
0.7981965614 0.2718214716 0.0305633523
0.8282054290 0.2756981666 0.0346335814
0.8562358030 0.2793370001 0.0388020193
0.8812039655 0.2836910134 0.0425706372
0.9034445210 0.2895995234 0.0461647695
0.9231697551 0.2975145311 0.0505874775
0.9405581115 0.3074852616 0.0572299051
0.0602110581 0.1970405427 0.0072803437
0.0814135389 0.1994955236 0.0077227672
0.1004945107 0.2021088604 0.0083979701
0.1218911182 0.2055572627 0.0094841995
0.1450534845 0.2095904700 0.0110332736
0.1702830026 0.2137735116 0.0129847886
0.1976825354 0.2177134745 0.0151320451
0.2272355735 0.2212150431 0.0172170772
0.2586538279 0.2242204236 0.0186233408
0.2917645909 0.2268218658 0.0195802459
0.3263504705 0.2292653223 0.0223418793
0.3640691839 0.2298715846 0.0256067268
0.4033090070 0.2281160058 0.0294521592
0.4371176774 0.2306749946 0.0324375343
0.4695598731 0.2342911615 0.0346193075
0.5007841944 0.2381701094 0.0359047794
0.5307030831 0.2423141382 0.0362421192
0.5596014185 0.2467578745 0.0357007090
0.5874381469 0.2515685269 0.0344683204
0.6141251164 0.2567935625 0.0325307548
0.6386163886 0.2623814264 0.0282300493
0.6639602455 0.2687057321 0.0271985120
0.6894545360 0.2754632209 0.0270049405
0.7151893157 0.2822329426 0.0269690016
0.7422010654 0.2887814728 0.0277934974
0.7708110354 0.2948946712 0.0299257077
0.8005927156 0.3001505669 0.0333755420
0.8304751473 0.3043163159 0.0379029817
0.8587543815 0.3078948991 0.0427468809
0.8840573313 0.3119127556 0.0471115050
0.9065415583 0.3172779904 0.0511681692
0.9261492400 0.3247377878 0.0558809187
0.9430966776 0.3345883408 0.0628239566
0.0810086285 0.2260220142 0.0072697754
0.1000956738 0.2280618219 0.0076027963
0.1171145754 0.2303150694 0.0080845665
0.1366132319 0.2334465258 0.0088922726
0.1582737189 0.2374154817 0.0101577379
0.1817163654 0.2419469923 0.0119387538
0.2070114486 0.2466488478 0.0142018254
0.2344407818 0.2511598298 0.0167642885
0.2641438144 0.2552532705 0.0193460785
0.2961743409 0.2588409609 0.0217004490
0.3300603996 0.2618791818 0.0222605966
0.3651370136 0.2646240059 0.0249336101
0.4013360230 0.2668119664 0.0291137070
0.4412392864 0.2647375225 0.0339372209
0.4765748902 0.2646696256 0.0387489536
0.5077977748 0.2679837566 0.0423140761
0.5379298294 0.2716822126 0.0445829376
0.5672102000 0.2756400443 0.0453999291
0.5955557718 0.2799047250 0.0448367757
0.6229101886 0.2845551762 0.0431853372
0.6489176663 0.2896615776 0.0397878759
0.6729983761 0.2953701455 0.0343511288
0.6984697945 0.3015745195 0.0337023453
0.7242578825 0.3081699363 0.0340692974
0.7505622426 0.3149410034 0.0348289779
0.7780469112 0.3214212171 0.0368155748
0.8066990173 0.3271829698 0.0404570325
0.8354813242 0.3320815187 0.0452419424
0.8628781501 0.3363852637 0.0502035939
0.8877965508 0.3407408992 0.0546271849
0.9101727829 0.3459689068 0.0587839929
0.9296648079 0.3529439340 0.0638383389
0.9462115463 0.3624066185 0.0712604948
0.1009433484 0.2560181694 0.0074810958
0.1172739915 0.2577332118 0.0077416610
0.1324009789 0.2596403185 0.0080921890
0.1508126158 0.2623283707 0.0086604799
0.1716812902 0.2658478123 0.0095336419
0.1942922927 0.2701477344 0.0108355084
0.2183474582 0.2750579470 0.0127344051
0.2440652814 0.2802354040 0.0152604044
0.2719073218 0.2853123596 0.0182039602
0.3023380332 0.2900253652 0.0212861466
0.3350191969 0.2942251062 0.0242009079
0.3691755389 0.2978541945 0.0258306435
0.4040089059 0.3009711349 0.0271313901
0.4393764661 0.3037965272 0.0323433100
0.4769745841 0.3035141006 0.0383186637
0.5134259565 0.3010382416 0.0451843240
0.5446986923 0.3027799366 0.0507894119
0.5742097105 0.3063351908 0.0545121021
0.6030021274 0.3101157070 0.0562513718
0.6309932608 0.3141683136 0.0560358049
0.6580588454 0.3186110705 0.0541357837
0.6835327142 0.3235649735 0.0487468197
0.7080792422 0.3291375776 0.0437034865
0.7346205470 0.3349049818 0.0451386426
0.7615859836 0.3409529692 0.0477368136
0.7887119858 0.3471630625 0.0507689993
0.8161168770 0.3532032358 0.0547784291
0.8433050926 0.3588240199 0.0596158677
0.8691428062 0.3640545741 0.0641642335
0.8929738629 0.3692418825 0.0677469168
0.9145684771 0.3749690847 0.0709271570
0.9334936704 0.3819728984 0.0753677450
0.9495582216 0.3910829951 0.0829398067
0.1211265747 0.2871185107 0.0077419867
0.1346475041 0.2886505995 0.0079810471
0.1480426176 0.2903587970 0.0082803957
0.1649143420 0.2927586221 0.0087405752
0.1846730308 0.2958920902 0.0094069842
0.2065924450 0.2997690523 0.0103549295
0.2301427843 0.3043510617 0.0116997193
0.2550945012 0.3095117714 0.0135947982
0.2816825065 0.3150292766 0.0162269338
0.3105158042 0.3205695104 0.0195040948
0.3415890343 0.3258055608 0.0230599163
0.3744625844 0.3305421197 0.0265483592
0.4084451284 0.3347099103 0.0296137882
0.4423933898 0.3382155224 0.0294990716
0.4767003674 0.3413096530 0.0350152531
0.5112355794 0.3430006423 0.0425916124
0.5476696662 0.3401071615 0.0511816955
0.5803071767 0.3390909104 0.0591911976
0.6094404575 0.3420259542 0.0644295827
0.6377808174 0.3456440058 0.0673781001
0.6656187731 0.3494506842 0.0685003638
0.6929689214 0.3535371976 0.0686263854
0.7188588397 0.3580312216 0.0630159899
0.7450286733 0.3630685830 0.0614206028
0.7728745158 0.3681710130 0.0675000855
0.8003262974 0.3736456895 0.0741146780
0.8269314113 0.3794998881 0.0797222642
0.8525753415 0.3854673666 0.0844220942
0.8767970092 0.3913500946 0.0879518948
0.8994610373 0.3972262047 0.0899384823
0.9198980974 0.4036577877 0.0907790984
0.9377651896 0.4111669887 0.0928795594
0.9529962155 0.4203372276 0.0990490115
0.1426672773 0.3194537534 0.0079899496
0.1541131575 0.3208017921 0.0082109903
0.1657668192 0.3223209620 0.0084795045
0.1807786313 0.3244824311 0.0088872743
0.1987593741 0.3273392513 0.0094676402
0.2192479449 0.3308817192 0.0102568768
0.2418876146 0.3350588632 0.0113077323
0.2662974639 0.3398312585 0.0127202680
0.2924114631 0.3451271742 0.0146414526
0.3202193205 0.3507946579 0.0172505703
0.3498150516 0.3566101032 0.0207278800
0.3811446184 0.3622107670 0.0247105859
0.4137783885 0.3673519001 0.0287572955
0.4470537936 0.3719229524 0.0325002938
0.4798265077 0.3758218868 0.0330784362
0.5122348215 0.3791580390 0.0369471047
0.5450154771 0.3818640444 0.0463401816
0.5801384041 0.3804437956 0.0566219846
0.6140818722 0.3774032929 0.0667672707
0.6438247450 0.3783401537 0.0743110297
0.6718185061 0.3818146206 0.0798701713
0.6995023807 0.3855787303 0.0841782410
0.7270256301 0.3895575881 0.0875004285
0.7541999046 0.3933781255 0.0847840473
0.7814051801 0.3980301500 0.0892358169
0.8081884521 0.4034276032 0.0978774383
0.8339430778 0.4092090756 0.1050601501
0.8585960084 0.4151337473 0.1099152540
0.8819672742 0.4210388522 0.1127921996
0.9041504078 0.4269329579 0.1142247249
0.9244157292 0.4331721309 0.1151329786
0.9419849271 0.4404865909 0.1169998141
0.9564897532 0.4496535397 0.1214108901
0.1650707302 0.3527862719 0.0080077501
0.1751997376 0.3539362446 0.0082876977
0.1856133326 0.3552458826 0.0086121498
0.1990575943 0.3571350365 0.0090362211
0.2152701861 0.3596703637 0.0095521983
0.2340156021 0.3628694233 0.0102466940
0.2550356682 0.3667144457 0.0111593095
0.2782155617 0.3711456918 0.0123392392
0.3035465515 0.3760729611 0.0138579063
0.3306472466 0.3814290244 0.0158396816
0.3591956117 0.3871355458 0.0184628525
0.3891175882 0.3930374080 0.0219455405
0.4202924218 0.3988312907 0.0262916940
0.4522585246 0.4042175066 0.0308555022
0.4843557251 0.4090560771 0.0352589699
0.5157625408 0.4132533275 0.0380620207
0.5464179951 0.4167988846 0.0384162425
0.5784341224 0.4197297009 0.0490980583
0.6117162276 0.4203466737 0.0616071304
0.6461670809 0.4170164784 0.0747332151
0.6772159853 0.4156846636 0.0869889818
0.7051966014 0.4183443598 0.0965881068
0.7325559008 0.4222682794 0.1042485567
0.7599917759 0.4261921691 0.1087966917
0.7872406305 0.4299576524 0.1097687513
0.8134776505 0.4349096534 0.1173506149
0.8385770080 0.4404819538 0.1257830352
0.8625588784 0.4461635285 0.1317989463
0.8854215955 0.4517994348 0.1350193011
0.9072459935 0.4574992916 0.1364285123
0.9272678157 0.4635941496 0.1374377017
0.9447019607 0.4706629425 0.1398999106
0.9590973110 0.4793688464 0.1457407979
0.1889614942 0.3867399857 0.0081174507
0.1975442543 0.3877284968 0.0082708355
0.2066416713 0.3888499827 0.0084710804
0.2187922112 0.3904628780 0.0088136624
0.2338110195 0.3926380009 0.0093765406
0.2512572001 0.3954282153 0.0101879371
0.2707469210 0.3988543954 0.0110742127
0.2924537277 0.4028831882 0.0121046717
0.3163052748 0.4074552148 0.0134111164
0.3420666836 0.4124832149 0.0150598803
0.3694564018 0.4178692400 0.0171474173
0.3981548303 0.4235386376 0.0198254409
0.4278910437 0.4293971772 0.0233130113
0.4584194662 0.4352108606 0.0278432953
0.4892591906 0.4406800166 0.0328849371
0.5198683393 0.4456351321 0.0379523869
0.5504091306 0.4499811955 0.0425550066
0.5798368078 0.4536755493 0.0407202742
0.6110074962 0.4566809454 0.0507494371
0.6430047405 0.4585798745 0.0655954583
0.6770417585 0.4564417773 0.0827877258
0.7092023623 0.4538753259 0.1013757427
0.7377078867 0.4550327450 0.1162387479
0.7645858715 0.4588895985 0.1261402026
0.7916081394 0.4625452199 0.1297566071
0.8178510559 0.4665629732 0.1340658286
0.8425369680 0.4716125351 0.1426083652
0.8659618764 0.4769289207 0.1501049412
0.8883654114 0.4822201555 0.1546889241
0.9098229951 0.4876033073 0.1568971877
0.9295103348 0.4934983593 0.1586781306
0.9466638716 0.5004037476 0.1621560779
0.9608404439 0.5087952719 0.1690757597
0.2146736868 0.4207804106 0.0085939622
0.2221762173 0.4216362279 0.0087146354
0.2301894951 0.4226064769 0.0088551401
0.2409689066 0.4240013478 0.0090656612
0.2544284731 0.4258799363 0.0093745182
0.2703788696 0.4282806641 0.0098427794
0.2887511206 0.4312343675 0.0105932006
0.3092894823 0.4347693366 0.0117458338
0.3316451303 0.4388754022 0.0130912666
0.3557420629 0.4434738513 0.0145192606
0.3814619816 0.4484898830 0.0162940861
0.4085501878 0.4538334521 0.0185060673
0.4367298461 0.4594196093 0.0212850764
0.4656871758 0.4651452183 0.0248200796
0.4950173442 0.4708316219 0.0293784638
0.5244898102 0.4762331295 0.0348806592
0.5542123863 0.4811541811 0.0405749785
0.5840064227 0.4854980352 0.0459011893
0.6128645316 0.4892249805 0.0451016118
0.6427384824 0.4922910478 0.0513301270
0.6741751167 0.4945667507 0.0678474989
0.7072261453 0.4941451028 0.0880866806
0.7401764009 0.4915572538 0.1125202615
0.7692728310 0.4913976380 0.1337200162
0.7957324504 0.4942501977 0.1461050966
0.8219637808 0.4975996807 0.1493384559
0.8466207728 0.5017605628 0.1560042926
0.8696392981 0.5065458452 0.1642483000
0.8915901937 0.5114665937 0.1706164443
0.9125504299 0.5165980469 0.1747526937
0.9317416019 0.5223601783 0.1783576041
0.9484440907 0.5292325796 0.1835732507
0.9622828018 0.5375377422 0.1917964943
0.2402099681 0.4544381419 0.0090581677
0.2470837693 0.4551752776 0.0091823976
0.2544784416 0.4560130812 0.0093254655
0.2644853623 0.4572197373 0.0095339493
0.2770761847 0.4588462549 0.0098183788
0.2920465666 0.4609234439 0.0101875812
0.3091737128 0.4634759257 0.0106613214
0.3282928019 0.4665234381 0.0113031517
0.3492678619 0.4700754453 0.0122736150
0.3718811033 0.4741386076 0.0137811652
0.3958633070 0.4786751528 0.0156503855
0.4211095333 0.4835695595 0.0175595775
0.4474323302 0.4887568675 0.0198914931
0.4745549465 0.4941593442 0.0227802925
0.5021181814 0.4996722928 0.0263973086
0.5300820034 0.5051332869 0.0309812116
0.5586976885 0.5103622533 0.0368269184
0.5876980854 0.5151644449 0.0431127226
0.6168604355 0.5194408925 0.0491111368
0.6455771987 0.5231388073 0.0513192315
0.6738894937 0.5262991067 0.0515394626
0.7051424180 0.5285731578 0.0688846495
0.7373109899 0.5294941889 0.0899281075
0.7705407060 0.5275880272 0.1174132618
0.8001432897 0.5265042287 0.1444672899
0.8265146367 0.5277870737 0.1593191024
0.8511840264 0.5309170842 0.1660972756
0.8739512525 0.5351350634 0.1741731067
0.8954733268 0.5397748004 0.1823395229
0.9157915057 0.5448001922 0.1893561982
0.9343095984 0.5505250411 0.1958566023
0.9504276743 0.5573351737 0.2033562672
0.9637901161 0.5655617308 0.2134462862
0.2650700608 0.4873248897 0.0094793366
0.2715525426 0.4879448112 0.0095977709
0.2785929856 0.4886507193 0.0097356345
0.2882052082 0.4896703468 0.0099394562
0.3003420140 0.4910512070 0.0102222563
0.3147567777 0.4928270791 0.0105944280
0.3311673156 0.4950241657 0.0110636549
0.3493123015 0.4976561308 0.0116353628
0.3689900911 0.5007218654 0.0123223818
0.3900766969 0.5042213012 0.0131882626
0.4124610982 0.5081578331 0.0144225290
0.4359482616 0.5125300322 0.0163108311
0.4603172101 0.5172936569 0.0187827098
0.4854342533 0.5223163329 0.0213048772
0.5110647403 0.5275519149 0.0242990888
0.5373806370 0.5329103091 0.0279985093
0.5644257617 0.5382439336 0.0326278808
0.5922123956 0.5433779594 0.0386648227
0.6205560231 0.5481176713 0.0455247897
0.6491764445 0.5523552340 0.0521789744
0.6778150489 0.5560314396 0.0573856263
0.7049355255 0.5592790725 0.0529730121
0.7358139836 0.5616064125 0.0687798558
0.7675333763 0.5631589261 0.0901358751
0.8000707408 0.5622957753 0.1170153746
0.8302664197 0.5604654024 0.1444723618
0.8563240883 0.5604486452 0.1648240476
0.8789910605 0.5631626930 0.1794371060
0.9000383348 0.5674691064 0.1902160692
0.9196756158 0.5723812770 0.2003761972
0.9374439581 0.5780235952 0.2102239060
0.9528562043 0.5847372338 0.2207013338
0.9656086126 0.5928559285 0.2333433422
0.2893744759 0.5191693404 0.0099304881
0.2956035996 0.5196907633 0.0100333364
0.3023911961 0.5202850218 0.0101540401
0.3116885083 0.5211447187 0.0103347168
0.3234628520 0.5223124073 0.0105908929
0.3374691645 0.5238219650 0.0109374747
0.3533998802 0.5257052656 0.0113884049
0.3709412418 0.5279887387 0.0119551677
0.3898167942 0.5306883068 0.0126444850
0.4098125750 0.5338040874 0.0134577442
0.4307803112 0.5373184494 0.0144013365
0.4526226277 0.5412137321 0.0155359923
0.4752207819 0.5454778005 0.0170658580
0.4983697182 0.5501025831 0.0193320583
0.5220483916 0.5550475796 0.0224437947
0.5466079444 0.5601796516 0.0258429099
0.5720226870 0.5653957130 0.0296218203
0.5982248639 0.5705916050 0.0343170997
0.6252256864 0.5756104862 0.0403875482
0.6529750059 0.5802736647 0.0477728308
0.6811302459 0.5844571194 0.0550705118
0.7095252932 0.5881049662 0.0616546735
0.7363750758 0.5913668797 0.0567227416
0.7661982561 0.5938391703 0.0676850736
0.7976062322 0.5955021708 0.0903263369
0.8283235201 0.5957380607 0.1114760584
0.8583147328 0.5937829954 0.1373799887
0.8838592825 0.5929824662 0.1663456412
0.9052619687 0.5951209541 0.1906514468
0.9242423831 0.5994310371 0.2072769633
0.9412359706 0.6049318713 0.2207628704
0.9558379533 0.6115420962 0.2349373149
0.9678547352 0.6195411725 0.2509205815
0.3131570939 0.5504580481 0.0104546523
0.3191365708 0.5509051779 0.0105434127
0.3256734739 0.5514141344 0.0106472302
0.3346579582 0.5521496366 0.0108020996
0.3460760674 0.5531480283 0.0110211437
0.3597001172 0.5544392740 0.0113188361
0.3752246933 0.5560538074 0.0117128271
0.3923134530 0.5580211613 0.0122241844
0.4106365206 0.5603671855 0.0128718995
0.4299056063 0.5631090586 0.0136673303
0.4498991111 0.5662492930 0.0146149081
0.4704614096 0.5697718177 0.0157113547
0.4914796282 0.5736430160 0.0169567249
0.5129046245 0.5778300174 0.0184039482
0.5350044949 0.5823128181 0.0202484539
0.5578644197 0.5870775951 0.0228420068
0.5815573946 0.5920877938 0.0264683878
0.6061404674 0.5972164583 0.0309789802
