latent/luts/06Almond.cube
TITLE "Almond"
#LUMIXPHOTOSTYLE STD
# look 06Almond (杏色)  order=PGN  source=06Almond.json
LUT_3D_SIZE 33
0.0079758189 0.0078431373 0.0077336547
0.0243441061 0.0085801961 0.0084590522
0.0449993766 0.0094535474 0.0092993769
0.0711563424 0.0108131783 0.0105247229
0.1019513671 0.0127965453 0.0121546064
0.1366083184 0.0150345555 0.0138368264
0.1762084741 0.0178612825 0.0154917929
0.2182044899 0.0218810917 0.0172117164
0.2595441513 0.0270958273 0.0191637009
0.2975371286 0.0335021248 0.0216016846
0.3339425689 0.0408635735 0.0246652864
0.3691143594 0.0485553271 0.0283363422
0.4033257506 0.0559148634 0.0324380384
0.4371007185 0.0632277462 0.0366298959
0.4706276836 0.0706289037 0.0405707755
0.5034430176 0.0779240364 0.0440195351
0.5351393005 0.0849170925 0.0470271647
0.5658656978 0.0917695406 0.0497793890
0.5958635477 0.0988213382 0.0524261796
0.6254007884 0.1063496991 0.0546392047
0.6545204255 0.1145928120 0.0560549131
0.6832331473 0.1246363284 0.0570928169
0.7118372632 0.1381160401 0.0595489464
0.7397504203 0.1548261360 0.0641005213
0.7664692816 0.1717288992 0.0681202652
0.7921861760 0.1873926635 0.0706141966
0.8175555902 0.2025690122 0.0734257758
0.8428846519 0.2170499164 0.0771161219
0.8690003258 0.2309752412 0.0822137776
0.8956020212 0.2450474486 0.0892605586
0.9200910102 0.2603582801 0.0987156951
0.9406059394 0.2773462335 0.1112173407
0.9563859106 0.2965400448 0.1280131671
0.0099752943 0.0253471479 0.0096440902
0.0269274203 0.0265032090 0.0097138370
0.0488832741 0.0273294274 0.0103534123
0.0759964130 0.0285260959 0.0112435598
0.1069370824 0.0301331473 0.0123258796
0.1418976979 0.0323455699 0.0135933289
0.1819422676 0.0351529144 0.0149312278
0.2238897054 0.0388068044 0.0163961492
0.2636825442 0.0447033717 0.0185591724
0.2998832356 0.0512767493 0.0213644542
0.3346458881 0.0577041707 0.0248522562
0.3685715359 0.0638987071 0.0290000286
0.4022032027 0.0701938660 0.0336333564
0.4359806636 0.0769169970 0.0384156480
0.4697808770 0.0840743735 0.0428754073
0.5028364142 0.0912079983 0.0467635148
0.5348278746 0.0980177518 0.0501514603
0.5658517654 0.1045923083 0.0531521132
0.5960439340 0.1112141229 0.0560231034
0.6257489614 0.1183693584 0.0585507372
0.6551518644 0.1263701582 0.0602215737
0.6841332871 0.1354752762 0.0607482395
0.7125376081 0.1471021633 0.0613890283
0.7402572580 0.1629210961 0.0648425304
0.7672334584 0.1806916174 0.0697969549
0.7931834697 0.1968790551 0.0727508239
0.8186626498 0.2121369024 0.0754215396
0.8440473228 0.2266220376 0.0789605851
0.8702257861 0.2404022970 0.0839416790
0.8967444569 0.2540919649 0.0909689770
0.9210462674 0.2687686662 0.1005289351
0.9413325887 0.2851616896 0.1131887712
0.9568948961 0.3039933940 0.1302829603
0.0127042695 0.0473636844 0.0116733681
0.0290588076 0.0493920585 0.0113379886
0.0512083101 0.0504324380 0.0118750367
0.0782679852 0.0516375676 0.0125844547
0.1087417247 0.0531853894 0.0134806551
0.1433369043 0.0552678387 0.0145891836
0.1829539830 0.0580801478 0.0159384770
0.2248319601 0.0613756591 0.0173649062
0.2648724514 0.0653270958 0.0191830083
0.3005659224 0.0703490135 0.0220632452
0.3344604483 0.0751910648 0.0257061796
0.3675057416 0.0799663474 0.0300868487
0.4006087576 0.0852124295 0.0350631166
0.4342977148 0.0913002777 0.0403169785
0.4681486221 0.0981301492 0.0452022529
0.5013183163 0.1049963681 0.0496233784
0.5335606438 0.1116144876 0.0535095496
0.5649101433 0.1181035180 0.0568901980
0.5954020341 0.1246788725 0.0599973298
0.6252867413 0.1316732608 0.0628760353
0.6549591685 0.1394148774 0.0649360804
0.6844092803 0.1481020366 0.0656875340
0.7131742565 0.1581283067 0.0651291293
0.7406876535 0.1717862322 0.0661155607
0.7677738818 0.1895673468 0.0710062972
0.7940854885 0.2068185729 0.0752157970
0.8197450228 0.2221859854 0.0777687522
0.8452384017 0.2367008577 0.0811372999
0.8715182159 0.2503652986 0.0859702671
0.8979622835 0.2636922528 0.0929391589
0.9220665433 0.2776973517 0.1025913864
0.9421099081 0.2936606628 0.1154409923
0.9574409487 0.3121113137 0.1328593971
0.0172846140 0.0740753586 0.0136045229
0.0330697815 0.0765252917 0.0131827992
0.0543650362 0.0780458966 0.0136441871
0.0810185331 0.0796007838 0.0142415431
0.1111968062 0.0812320268 0.0149916627
0.1454415820 0.0831601277 0.0159420897
0.1844180947 0.0856678352 0.0172989530
0.2254775987 0.0886704857 0.0190151850
0.2653887829 0.0916307665 0.0207052642
0.3013881963 0.0948603178 0.0231074576
0.3353903732 0.0985287587 0.0267118468
0.3683104081 0.1022130894 0.0310962224
0.4009182963 0.1062883432 0.0362652230
0.4338739199 0.1112607240 0.0419447821
0.4669228758 0.1172271533 0.0474850238
0.4995406532 0.1236803324 0.0527150486
0.5315926856 0.1303155488 0.0574321151
0.5630324572 0.1369314578 0.0615448121
0.5937930490 0.1435071274 0.0651523268
0.6238674654 0.1502366898 0.0685018713
0.6537055900 0.1575301181 0.0712308010
0.6836046615 0.1656687003 0.0726010697
0.7131800439 0.1748179425 0.0722176264
0.7411947365 0.1855317455 0.0704784540
0.7681819478 0.2008676405 0.0722239618
0.7949361650 0.2193541937 0.0781145501
0.8209921847 0.2352869697 0.0812445950
0.8467207739 0.2498546562 0.0843909547
0.8732039461 0.2634098867 0.0890013105
0.8995841998 0.2763209336 0.0958378204
0.9234336210 0.2897984511 0.1055597964
0.9431530689 0.3052775649 0.1187035864
0.9581759685 0.3232265079 0.1365642713
0.0250679178 0.1030334381 0.0149997086
0.0414760936 0.1054297167 0.0150176642
0.0607355025 0.1073920594 0.0155424687
0.0854514224 0.1095611279 0.0161670424
0.1144649821 0.1117574262 0.0168862352
0.1483459255 0.1139566811 0.0177328063
0.1867541612 0.1163586947 0.0187846412
0.2272343410 0.1191836662 0.0207310683
0.2661001132 0.1217858971 0.0230813015
0.3021816707 0.1240599035 0.0249035607
0.3366605882 0.1266688050 0.0279402089
0.3701833131 0.1298173758 0.0321400003
0.4034177522 0.1336015742 0.0371218046
0.4364509255 0.1382034762 0.0428373511
0.4686590617 0.1434509693 0.0488455823
0.5000392026 0.1491328320 0.0549002897
0.5309154065 0.1551807718 0.0606829647
0.5615549621 0.1614596034 0.0659233193
0.5919458603 0.1677856788 0.0705039475
0.6219558980 0.1741361639 0.0745486299
0.6516010612 0.1807646500 0.0782211918
0.6815052831 0.1880981645 0.0807353711
0.7116657691 0.1963382306 0.0813181865
0.7408194695 0.2056161382 0.0797131086
0.7684921188 0.2165772963 0.0767313778
0.7954320423 0.2331529441 0.0800605576
0.8221237672 0.2507520694 0.0859371260
0.8482969586 0.2653567538 0.0889195708
0.8751564936 0.2788176463 0.0932560553
0.9015462222 0.2917407029 0.0998688107
0.9251195415 0.3050363711 0.1095624370
0.9444429624 0.3199566849 0.1231333438
0.9590880934 0.3372991230 0.1415503020
0.0390579109 0.1335154780 0.0166284778
0.0550902233 0.1358950985 0.0167280169
0.0719109081 0.1382252807 0.0172278794
0.0938696204 0.1411028476 0.0180857799
0.1203661981 0.1442846160 0.0190400284
0.1527587287 0.1475424120 0.0199828301
0.1900589223 0.1507354153 0.0210086869
0.2298732567 0.1539955070 0.0222147032
0.2694235201 0.1574223157 0.0240239178
0.3038561305 0.1590748971 0.0275703265
0.3384527992 0.1609163210 0.0296853034
0.3726121759 0.1635400475 0.0333668087
0.4063746718 0.1668484374 0.0381415512
0.4394596388 0.1707573699 0.0438503649
0.4715199604 0.1753127097 0.0500199513
0.5026327660 0.1803997905 0.0564256387
0.5329327139 0.1858654283 0.0628140366
0.5626377520 0.1915198572 0.0689484922
0.5919460699 0.1971817360 0.0746353169
0.6211036216 0.2028457457 0.0797343510
0.6501175634 0.2086166328 0.0843592361
0.6792100234 0.2148305860 0.0884161754
0.7090404148 0.2218743469 0.0907638623
0.7387450375 0.2298349027 0.0905943853
0.7677761814 0.2385965698 0.0874882058
0.7955490435 0.2495315615 0.0837270885
0.8227582528 0.2668181492 0.0900819749
0.8496356750 0.2821699681 0.0947617383
0.8771125543 0.2960586403 0.0988705701
0.9036889216 0.3094764353 0.1052114113
0.9270465686 0.3229136262 0.1148010736
0.9459387912 0.3373837502 0.1288424919
0.9601499728 0.3540395586 0.1479132703
0.0595855947 0.1668839561 0.0192943281
0.0734252273 0.1690260303 0.0193787076
0.0878466015 0.1713544511 0.0195643134
0.1068422136 0.1744815644 0.0199449457
0.1308032774 0.1782395589 0.0207940923
0.1607278907 0.1823749810 0.0221195056
0.1956090781 0.1866638195 0.0235565302
0.2335300392 0.1908515742 0.0249244824
0.2718228556 0.1949488953 0.0262676646
0.3092433162 0.1990484338 0.0275640916
0.3434849325 0.2008618672 0.0309653101
0.3754153416 0.2014143481 0.0350974904
0.4093133129 0.2039905193 0.0396422310
0.4424376328 0.2070367045 0.0452627518
0.4744699733 0.2107016380 0.0514699881
0.5054410998 0.2149490784 0.0580911907
0.5354927988 0.2196714524 0.0649051749
0.5648588847 0.2247108632 0.0716184054
0.5937549979 0.2298712207 0.0779548078
0.6223455737 0.2349669420 0.0837317465
0.6506882645 0.2399333099 0.0889995202
0.6787718917 0.2449211070 0.0940522563
0.7072012426 0.2504334977 0.0984321916
0.7361584911 0.2567171876 0.1005095837
0.7655593555 0.2635524256 0.0990198289
0.7947583363 0.2711976426 0.0940515473
0.8228130392 0.2830891046 0.0929470790
0.8503501114 0.3000566297 0.1014556602
0.8786928954 0.3145851499 0.1057850953
0.9057452598 0.3287203123 0.1119604869
0.9290721255 0.3426869545 0.1215809874
0.9475894268 0.3571142044 0.1359581430
0.9613321514 0.3730809056 0.1557232471
0.0808335795 0.2021315582 0.0228766621
0.0932666337 0.2038465081 0.0228948773
0.1061858411 0.2058095064 0.0229844849
0.1233991904 0.2086156124 0.0232020182
0.1457937302 0.2122639537 0.0236098197
0.1732299149 0.2165942225 0.0242905052
0.2050360354 0.2214143664 0.0255431852
0.2398791909 0.2264877930 0.0273036192
0.2756316431 0.2314606635 0.0290876786
0.3113758067 0.2362229954 0.0306215862
0.3483096945 0.2407684695 0.0319887920
0.3841503451 0.2441705938 0.0348756449
0.4134970997 0.2433334140 0.0415619596
0.4452271284 0.2447234724 0.0474588983
0.4773053113 0.2474738919 0.0535240441
0.5082566598 0.2507555031 0.0601798385
0.5381873733 0.2545291678 0.0672212638
0.5673246400 0.2586888205 0.0743801365
0.5958961334 0.2630831920 0.0813351527
0.6241128589 0.2675328261 0.0877907733
0.6521281663 0.2718792503 0.0935736251
0.6799778884 0.2760912023 0.0987972787
0.7075872838 0.2803358746 0.1037849103
0.7351561383 0.2848464647 0.1074817462
0.7636075235 0.2897798572 0.1080546434
0.7929562373 0.2955168210 0.1048591616
0.8222220854 0.3032580192 0.0996084708
0.8504019627 0.3182954981 0.1063726560
0.8795260683 0.3339616441 0.1136140014
0.9073657785 0.3487441062 0.1201441207
0.9309656098 0.3635035611 0.1300459918
0.9492887756 0.3783883101 0.1447169993
0.9626059701 0.3940230499 0.1650235853
0.1010418006 0.2380179267 0.0273266457
0.1124253195 0.2392569946 0.0273189980
0.1247521867 0.2407060026 0.0273441915
0.1417690943 0.2428586342 0.0274532768
0.1633682180 0.2458326245 0.0277396778
0.1890514219 0.2496328289 0.0283008286
0.2181452075 0.2541538222 0.0292102907
0.2496394536 0.2592530038 0.0305174204
0.2820104612 0.2646706312 0.0322886788
0.3154640148 0.2700156396 0.0343303232
0.3505326258 0.2750984054 0.0363457066
0.3868503207 0.2798675686 0.0385155520
0.4235874069 0.2842850082 0.0418259657
0.4533761959 0.2843557833 0.0490211414
0.4802215335 0.2833464149 0.0566004607
0.5108917391 0.2855741762 0.0631117181
0.5408251757 0.2884522581 0.0701207749
0.5698666738 0.2917635680 0.0774695292
0.5982340567 0.2954231211 0.0848538299
0.6261500423 0.2993056293 0.0919296054
0.6538170101 0.3032598879 0.0983913533
0.6813777679 0.3071509383 0.1040747973
0.7088739713 0.3108221069 0.1088144924
0.7357959110 0.3142027927 0.1124861286
0.7631649526 0.3176883089 0.1140539878
0.7917381676 0.3218498666 0.1124867535
0.8211504500 0.3275143370 0.1082472588
0.8500507293 0.3384438759 0.1105141910
0.8795532660 0.3542348934 0.1215056974
0.9082753182 0.3692241956 0.1293068824
0.9324559852 0.3846627567 0.1399642759
0.9508610038 0.4003177709 0.1551914111
0.9639232993 0.4161375390 0.1755595433
0.1203774349 0.2727791883 0.0322361602
0.1312986496 0.2736437292 0.0323794871
0.1433796323 0.2746426309 0.0325060768
0.1600559807 0.2761300962 0.0326684785
0.1811221976 0.2782419057 0.0329284530
0.2057932913 0.2810986247 0.0334162158
0.2330644702 0.2847715507 0.0342954368
0.2618548480 0.2892448573 0.0356962530
0.2911489377 0.2944633508 0.0377030361
0.3220758923 0.3001728247 0.0402124847
0.3548608674 0.3059735047 0.0429942031
0.3891878436 0.3116175432 0.0459049550
0.4247040998 0.3169245720 0.0489830154
0.4609074855 0.3219103192 0.0526419515
0.4928289029 0.3242903622 0.0584697555
0.5164677458 0.3220606240 0.0666884157
0.5432347977 0.3224653472 0.0741131954
0.5722971317 0.3251493504 0.0813224965
0.6005962774 0.3282190893 0.0888211739
0.6283378943 0.3315901093 0.0962726272
0.6557383127 0.3351436810 0.1033052091
0.6830626095 0.3386533830 0.1093427149
0.7104688897 0.3418231048 0.1138342172
0.7373678011 0.3444945785 0.1166980608
0.7640113593 0.3468205684 0.1181284160
0.7915301849 0.3495827117 0.1175431596
0.8203174428 0.3537454692 0.1149010935
0.8494544492 0.3617572379 0.1158142063
0.8792150163 0.3756520498 0.1278065069
0.9084884739 0.3903936920 0.1385683627
0.9333822385 0.4059262433 0.1505964933
0.9521273019 0.4222134528 0.1668997438
0.9652436342 0.4381038421 0.1855354772
0.1414971562 0.3059409638 0.0365715744
0.1515554832 0.3066597770 0.0371070673
0.1627154337 0.3074747766 0.0376336895
0.1782698964 0.3086505659 0.0382538569
0.1981950302 0.3102628263 0.0389089631
0.2217175543 0.3124304634 0.0396534047
0.2476216660 0.3152965837 0.0406720361
0.2744896878 0.3189780582 0.0422234517
0.3019373664 0.3235308170 0.0445259589
0.3308704192 0.3289540237 0.0476094323
0.3613575522 0.3349917186 0.0512143851
0.3933747074 0.3412474817 0.0549571923
0.4267193190 0.3474239864 0.0586144855
0.4611129710 0.3532717557 0.0621900204
0.4961155424 0.3586662797 0.0660232282
0.5296159402 0.3629942120 0.0708429292
0.5537494515 0.3617799925 0.0781572120
0.5756388887 0.3596383593 0.0862941999
0.6028008817 0.3614419885 0.0937368093
0.6305094144 0.3642778506 0.1011721249
0.6578404513 0.3673021606 0.1081929865
0.6851111725 0.3702782844 0.1140598678
0.7124517254 0.3729500847 0.1182300379
0.7393212915 0.3751419440 0.1204076389
0.7658542402 0.3768719865 0.1209328957
0.7925007756 0.3785794725 0.1204775918
0.8202385875 0.3813814920 0.1191573002
0.8488497701 0.3874053427 0.1212737298
0.8786739003 0.3986490583 0.1331218200
0.9082662942 0.4122891727 0.1465087431
0.9338092677 0.4273488290 0.1606335308
0.9531250862 0.4434676101 0.1773203135
0.9665129238 0.4593354853 0.1942243946
0.1654630658 0.3388161140 0.0395639271
0.1744701139 0.3394431031 0.0404869204
0.1844337107 0.3401506394 0.0414899238
0.1982914786 0.3411651075 0.0428375847
0.2160920670 0.3425304289 0.0444397974
0.2373891420 0.3442915493 0.0461430429
0.2612675258 0.3465243594 0.0478894997
0.2863636740 0.3493737032 0.0498489192
0.3128294038 0.3530037626 0.0523283836
0.3405710733 0.3575392546 0.0555789146
0.3694175219 0.3630471183 0.0596724506
0.3994062910 0.3692921432 0.0642950841
0.4305670664 0.3758921012 0.0689933463
0.4628005855 0.3825100782 0.0734456871
0.4959068551 0.3888421994 0.0775576085
0.5295686671 0.3946440163 0.0815611929
0.5630925623 0.3999393664 0.0859679091
0.5900108097 0.4011015959 0.0917732677
0.6097625544 0.3979212050 0.0993776836
0.6327919438 0.3972441807 0.1067108434
0.6600738803 0.3995195818 0.1128547558
0.6874667810 0.4018945575 0.1179677554
0.7147994449 0.4040619275 0.1215152612
0.7415707237 0.4058823392 0.1231878336
0.7680190555 0.4073432081 0.1231914359
0.7943610957 0.4086218073 0.1223419775
0.8211181639 0.4104666261 0.1218925986
0.8487091526 0.4150183762 0.1263349547
0.8782058499 0.4235685141 0.1380639185
0.9079638967 0.4350429106 0.1522290276
0.9340510034 0.4487340669 0.1676712942
0.9539886985 0.4640084615 0.1845020761
0.9674713347 0.4806723855 0.2055017525
0.1922087345 0.3713290447 0.0413706242
0.2000766824 0.3718950484 0.0425104595
0.2087567454 0.3725309141 0.0438117117
0.2208015580 0.3734365068 0.0456913351
0.2362804396 0.3746275208 0.0480883698
0.2548170258 0.3761289837 0.0508674882
0.2756453059 0.3779956036 0.0538839666
0.2984962634 0.3803089574 0.0570297803
0.3235350925 0.3831753921 0.0603195036
0.3502086450 0.3867612751 0.0640032940
0.3779905539 0.3912592898 0.0683983852
0.4066024342 0.3967847330 0.0735982515
0.4360234086 0.4031300430 0.0792625454
0.4662831130 0.4099440509 0.0849022706
0.4973444323 0.4168738175 0.0901230969
0.5291058736 0.4235779404 0.0947426149
0.5614788489 0.4297320298 0.0988810947
0.5940737479 0.4353220091 0.1030251606
0.6237809532 0.4387606224 0.1075166033
0.6447825541 0.4363644816 0.1125531505
0.6645778720 0.4331008849 0.1173215958
0.6899661701 0.4334576534 0.1210813893
0.7173346175 0.4351505312 0.1237096592
0.7439882480 0.4366603925 0.1249871106
0.7702655543 0.4379688162 0.1249865755
0.7964663690 0.4391780043 0.1242700965
0.8226701328 0.4407964798 0.1251829272
0.8493039390 0.4442061200 0.1315174024
0.8782536124 0.4502941683 0.1426098930
0.9079324587 0.4591445757 0.1561419957
0.9343390011 0.4707355300 0.1717966121
0.9545479649 0.4850684332 0.1913758095
0.9678041753 0.5029296689 0.2225607240
0.2209389338 0.4034035632 0.0424071823
0.2276743952 0.4039327615 0.0436472894
0.2350754292 0.4045242193 0.0450861678
0.2453011455 0.4053601936 0.0472088188
0.2583754387 0.4064525043 0.0500853058
0.2740208494 0.4077851951 0.0535750894
0.2920652196 0.4093885067 0.0576187292
0.3126764390 0.4113224273 0.0620754748
0.3355727343 0.4136805027 0.0667967325
0.3604102374 0.4165835115 0.0717272742
0.3868024808 0.4201739988 0.0769498166
0.4142871870 0.4246411281 0.0826891827
0.4424586191 0.4301351141 0.0890693140
0.4711961416 0.4364891198 0.0957626087
0.5004985772 0.4433903531 0.1022729872
0.5303904084 0.4504860852 0.1081645264
0.5609421508 0.4574127772 0.1132322947
0.5921622565 0.4638016230 0.1175603293
0.6237991212 0.4695101585 0.1215476255
0.6548047087 0.4741862831 0.1253941712
0.6790542550 0.4736816604 0.1269651821
0.6983923616 0.4692287563 0.1262813681
0.7204563021 0.4667064697 0.1257320896
0.7463614306 0.4674635413 0.1263675945
0.7724628400 0.4686541789 0.1267198218
0.7984686199 0.4698826704 0.1270091515
0.8244518050 0.4716120957 0.1300213454
0.8506829369 0.4742218904 0.1368902065
0.8791668104 0.4783438546 0.1465932193
0.9084667172 0.4847666418 0.1589398717
0.9346919408 0.4942496823 0.1755695585
0.9546242103 0.5077266605 0.2015310934
0.9676855837 0.5255248507 0.2403728070
0.2501619333 0.4349407100 0.0429989988
0.2558435892 0.4354508507 0.0442396277
0.2620498000 0.4360195011 0.0457008240
0.2705632132 0.4368196199 0.0478976763
0.2813956225 0.4378677121 0.0510247088
0.2947850741 0.4391241467 0.0550018286
0.3107635522 0.4405704541 0.0596632673
0.3292062918 0.4422444432 0.0649516261
0.3499254479 0.4442163931 0.0708115271
0.3726660254 0.4465890319 0.0771222479
0.3971140422 0.4494954910 0.0837482107
0.4229189809 0.4530915296 0.0906637538
0.4497165811 0.4575538612 0.0979353472
0.4771780432 0.4629913388 0.1055520521
0.5050846886 0.4692757776 0.1132530018
0.5334083526 0.4761423938 0.1207793015
0.5622648995 0.4832542434 0.1276418606
0.5917679296 0.4902420010 0.1334562004
0.6219835593 0.4967233946 0.1381274602
0.6527771049 0.5024596046 0.1420319795
0.6837350059 0.5074657793 0.1457532948
0.7111256408 0.5090999131 0.1456415891
0.7317083836 0.5051706905 0.1388250696
0.7512646042 0.5005560189 0.1317052694
0.7745633866 0.4993783080 0.1294939076
0.8003155153 0.5005164252 0.1310871550
0.8262560444 0.5021512727 0.1354066796
0.8526379903 0.5042748049 0.1419656638
0.8809441421 0.5071539456 0.1504049937
0.9096044425 0.5118451077 0.1625011067
0.9350793953 0.5196847385 0.1821855149
0.9544678437 0.5318551733 0.2139249424
0.9675214865 0.5481751200 0.2553109648
0.2780230736 0.4658815569 0.0436515590
0.2828321192 0.4663693238 0.0448272669
0.2881480041 0.4669170555 0.0462195058
0.2955649739 0.4676928539 0.0483322597
0.3052004681 0.4687131902 0.0513892740
0.3170707495 0.4699637052 0.0556039498
0.3312967243 0.4713571502 0.0607034761
0.3478215402 0.4728910123 0.0665691027
0.3665114532 0.4746115529 0.0731272195
0.3871890605 0.4765992642 0.0803000715
0.4096290038 0.4789650686 0.0880345716
0.4335530307 0.4818473223 0.0962320038
0.4586448879 0.4854083116 0.1047450507
0.4845802853 0.4898254172 0.1135327040
0.5110793103 0.4951802898 0.1227328811
0.5380200463 0.5013419805 0.1320067554
0.5654144209 0.5080744391 0.1408294756
0.5933443705 0.5150730176 0.1486925497
0.6219250569 0.5219860134 0.1552477368
0.6512389091 0.5284456452 0.1604468595
0.6812279969 0.5341631650 0.1646607892
0.7114641210 0.5391344479 0.1686223417
0.7398174312 0.5424052956 0.1701047144
0.7626042536 0.5402364336 0.1604365288
0.7819948434 0.5350627422 0.1465783642
0.8030777639 0.5318872633 0.1393587542
0.8279872048 0.5323300910 0.1418798616
0.8546152785 0.5341253958 0.1483428027
0.8830013447 0.5364925036 0.1570560907
0.9109859803 0.5402351786 0.1705891611
0.9355931305 0.5466981534 0.1928633349
0.9545586217 0.5569459924 0.2260426695
0.9675483984 0.5712425084 0.2678124457
0.3044088005 0.4962955385 0.0447365909
0.3088000250 0.4967437622 0.0458370660
0.3136545640 0.4972506146 0.0471427228
0.3204257233 0.4979750882 0.0491302239
0.3292137857 0.4989398949 0.0520201457
0.3400048787 0.5001497570 0.0560901886
0.3528654055 0.5015452152 0.0613652360
0.3678609001 0.5030389188 0.0675015230
0.3848564317 0.5046371946 0.0744942583
0.4037086738 0.5063874905 0.0822636931
0.4242551694 0.5083765803 0.0906933419
0.4462995337 0.5107209193 0.0996770936
0.4696047384 0.5135604984 0.1091384621
0.4938968726 0.5170550666 0.1191771436
0.5189011889 0.5213759071 0.1298745886
0.5444411687 0.5265860655 0.1409262344
0.5704397354 0.5325703294 0.1518480955
0.5969130585 0.5391150925 0.1620994618
0.6239436266 0.5459359872 0.1712018674
0.6516372051 0.5527056218 0.1788691571
0.6800690640 0.5590840694 0.1851129915
0.7091449904 0.5647786927 0.1903067115
0.7378468881 0.5697389688 0.1952070725
0.7658442793 0.5738426335 0.1996705388
0.7908295575 0.5739649217 0.1929258518
0.8119292383 0.5696848469 0.1757729831
0.8324911933 0.5653921999 0.1624253037
0.8563706750 0.5643224278 0.1612312793
0.8845665282 0.5661868026 0.1701321935
0.9123151238 0.5693182665 0.1842064781
0.9364546306 0.5744856566 0.2060539356
0.9550758691 0.5828360659 0.2382147918
0.9679123875 0.5949871792 0.2788859750
0.3296191937 0.5262744530 0.0465532355
0.3337046136 0.5266755358 0.0475887250
0.3382242134 0.5271310218 0.0488165760
0.3445300343 0.5277860629 0.0506853488
0.3527103095 0.5286664373 0.0534050132
0.3627382606 0.5297845730 0.0572449839
0.3746012512 0.5311237413 0.0624605071
0.3884348537 0.5325696434 0.0686364944
0.4041388470 0.5341065300 0.0757100757
0.4215598673 0.5357479072 0.0836785511
0.4405321767 0.5375268355 0.0925023006
0.4608971132 0.5395189161 0.1020623135
0.4824903544 0.5418409802 0.1122078140
0.5051159401 0.5446320923 0.1231679298
0.5285783354 0.5480466999 0.1350163607
0.5527084000 0.5522422568 0.1476103378
0.5773588399 0.5572684676 0.1605507563
0.6024628136 0.5630299079 0.1732719314
0.6280462443 0.5693392860 0.1851754116
0.6541994463 0.5759377431 0.1957675724
0.6810076056 0.5825253710 0.2049212668
0.7084646666 0.5887974081 0.2127586721
0.7358619964 0.5944849736 0.2196599065
0.7630959052 0.5995019524 0.2263067547
0.7902952911 0.6039255190 0.2333564328
0.8165855763 0.6062034329 0.2339734192
0.8401953405 0.6038266411 0.2192234826
0.8625433733 0.5995210879 0.2009321376
0.8871783847 0.5971292150 0.1928316397
0.9136707440 0.5983525847 0.2006357050
0.9376392404 0.6025150915 0.2210347153
0.9560056014 0.6093128785 0.2512045308
0.9686517278 0.6194777673 0.2898893013
0.3534334881 0.5559472756 0.0493757403
0.3572670153 0.5563054096 0.0503810976
0.3615169118 0.5567120795 0.0515690682
0.3674583768 0.5572974926 0.0533707874
0.3751787212 0.5580867076 0.0559838558
0.3846480586 0.5590953576 0.0596649487
0.3958220258 0.5603231545 0.0647201330
0.4088231359 0.5616656405 0.0708009246
0.4235702826 0.5630961238 0.0778103973
0.4399090238 0.5646231672 0.0857767349
0.4576816344 0.5662658724 0.0946866256
0.4767289778 0.5680585756 0.1044830322
0.4968861294 0.5700574274 0.1151363422
0.5180033063 0.5723583848 0.1269467055
0.5399760980 0.5750961854 0.1398275400
0.5626868152 0.5784193888 0.1536053507
0.5860118922 0.5824714224 0.1680753846
0.6098270344 0.5872920817 0.1828843480
