latent/luts/06Almond.cube
TITLE "Almond"
#LUMIXPHOTOSTYLE STD
# look 06Almond (杏色)  order=PGN  source=06Almond.json
LUT_3D_SIZE 5
0.0079758189 0.0078431373 0.0077336547
0.2595441513 0.0270958273 0.0191637009
0.5351393005 0.0849170925 0.0470271647
0.7664692816 0.1717288992 0.0681202652
0.9563859106 0.2965400448 0.1280131671
0.1010418006 0.2380179267 0.0273266457
0.2820104612 0.2646706312 0.0322886788
0.5408251757 0.2884522581 0.0701207749
0.7631649526 0.3176883089 0.1140539878
0.9639232993 0.4161375390 0.1755595433
0.3044088005 0.4962955385 0.0447365909
0.3848564317 0.5046371946 0.0744942583
0.5704397354 0.5325703294 0.1518480955
0.7908295575 0.5739649217 0.1929258518
0.9679123875 0.5949871792 0.2788859750
0.4812569437 0.7290329821 0.1410355142
0.5350665989 0.7309289929 0.1754826459
0.6601298866 0.7369726608 0.2846200454
0.8068147435 0.7605462628 0.4180402798
0.9750030642 0.8028978300 0.5294163952
0.6833534419 0.9414706329 0.4335810806
0.7114927476 0.9434095331 0.4450335288
0.7858453532 0.9500637614 0.4806575169
0.9068456319 0.9634709857 0.5400972773
0.9998505938 0.9791678148 0.7730931717
0.0112560172 0.0239507599 0.1907914587
0.2684783623 0.0330905010 0.2653092267
0.5632770574 0.0719602137 0.2781165198
0.7913411027 0.1445051688 0.2774097455
0.9644088743 0.2811119486 0.3263448787
0.0267760841 0.2667470621 0.2641951123
0.2768760537 0.2733249824 0.2701507627
0.5708414790 0.2861551009 0.2741887564
0.7923420332 0.3323978013 0.2936229403
0.9678825613 0.4092519055 0.3429353555
0.2224933569 0.5166888199 0.2567018019
0.3499190718 0.5203846076 0.2638897495
0.5679406590 0.5429841863 0.2871962157
0.7851463226 0.5569948331 0.3023905590
0.9685861420 0.5892411721 0.3878993974
0.4586772275 0.7351920092 0.2951013951
0.5207735815 0.7353205352 0.3161182667
0.6513742253 0.7398856334 0.3853360986
0.7987698496 0.7647480815 0.4876162633
0.9732858259 0.8075673619 0.5704884641
0.6760844947 0.9441719237 0.4910603318
0.7051717569 0.9459523405 0.5003760912
0.7815096634 0.9521250359 0.5302530039
0.9032467773 0.9648643150 0.5827538043
0.9998123222 0.9804729104 0.7902740212
0.0143284683 0.0892840868 0.4017468068
0.2330763384 0.0900094117 0.5009490320
0.5536875596 0.0811627459 0.5445810372
0.7913244186 0.1297177783 0.5446812130
0.9668370713 0.2633861289 0.5545738384
0.0433326103 0.2743720570 0.5089356139
0.2632178933 0.2801677207 0.5220618832
0.5575825426 0.2964565686 0.5550287074
0.7945170762 0.3243546945 0.5521692483
0.9703752398 0.3999434755 0.5624231068
0.0685946172 0.5418255687 0.5419363190
0.2743295973 0.5509884767 0.5464303917
0.5588455501 0.5525214364 0.5463976391
0.7988314744 0.5592448733 0.5482150961
0.9710951688 0.6215083764 0.5976125632
0.3858392540 0.7499029732 0.5423969838
0.4637510117 0.7499237892 0.5496492624
0.6220806785 0.7556939186 0.5638236758
0.7951667976 0.7774063957 0.5832180470
0.9831137444 0.7961799984 0.6188970376
0.6513664410 0.9528023044 0.6230463375
0.6836902260 0.9541254504 0.6282956659
0.7677183308 0.9587702497 0.6471804475
0.8912761892 0.9695279159 0.6878824029
0.9994297789 0.9856504535 0.8257083718
0.0162976891 0.1664943082 0.5934924168
0.2052502631 0.1489718529 0.7147590237
0.5215407707 0.1479053543 0.7588465208
0.7842000404 0.1368125591 0.7733389777
0.9683320544 0.2679692020 0.7526475787
0.0279279254 0.3091493514 0.6676104018
0.2263893141 0.3120152715 0.7274366296
0.5217984960 0.3254833734 0.7590057493
0.7864735627 0.3231194977 0.7779341382
0.9699807895 0.4094424217 0.7578386993
0.1107283715 0.5478656506 0.7655303065
0.2945163814 0.5498274845 0.7664786162
0.5475592279 0.5557016334 0.7661047258
0.7840669394 0.5719188593 0.7821650667
0.9692487944 0.6252478945 0.7742311884
0.3123245741 0.7668451782 0.7712610006
0.3978614517 0.7703178838 0.7729829997
0.5659344450 0.7827193453 0.7797978714
0.7892051598 0.7852780327 0.7811585789
0.9859103952 0.8002763438 0.7931488195
0.5984490239 0.9669626628 0.7925832327
0.6353380849 0.9681442687 0.7948701541
0.7300373707 0.9721490420 0.8048662799
0.8573662760 0.9830479984 0.8121829427
0.9995347255 0.9942125499 0.8755912098
0.0189725479 0.2504991732 0.7656660901
0.1858793900 0.2268217925 0.8966313467
0.4911019194 0.2527556278 0.9223447116
0.7412634270 0.2631922915 0.9510929962
0.9571091997 0.3408927280 0.9439694201
0.0255106030 0.3609822734 0.8070443608
0.2105287635 0.3541783290 0.9081551277
0.4976973936 0.3747185609 0.9281186112
0.7436536764 0.3918048988 0.9543482873
0.9581846188 0.4531284860 0.9462257004
0.1237395864 0.5609840072 0.9296441074
0.2947132521 0.5658754414 0.9366977151
0.5252464902 0.5803854165 0.9384614434
0.7494352696 0.6033507387 0.9541002638
0.9597007871 0.6430558120 0.9512480813
0.3864050184 0.7715847331 0.9578378401
0.4628718560 0.7741224422 0.9565982364
0.6167532993 0.7807070117 0.9560529003
0.7869823267 0.7925332483 0.9690884858
0.9771422831 0.8171156035 0.9770182082
0.5782655601 0.9756791606 0.9808946239
0.6149595655 0.9774057617 0.9816275055
0.7036450423 0.9836993051 0.9862625152
0.8240110003 0.9942189396 0.9947112538
1.0000000000 1.0000000000 1.0000000000
