latent/luts/07Voile.cube
TITLE "Voile"
#LUMIXPHOTOSTYLE STD
# look 07Voile (轻纱)  order=PGN  source=07Voile.json
LUT_3D_SIZE 5
0.0000000000 0.0000000000 0.0000000000
0.2284557567 0.0125140416 0.0123967442
0.4856167258 0.0545090515 0.0249486334
0.7683751657 0.0923907959 0.0975726600
0.9612726957 0.2091924451 0.2972520639
0.0056463565 0.2740251361 0.0998831793
0.2580401109 0.2785438469 0.0255986990
0.5093358977 0.2534837341 0.0604422879
0.7560271442 0.2970585946 0.0965895918
0.9604796848 0.3831621479 0.2833453168
0.0088976835 0.5743847210 0.3069089394
0.1642856843 0.6123185827 0.1914962950
0.5605360743 0.6066250668 0.1258142320
0.7921360940 0.5499561246 0.1616747816
0.9596442748 0.5966897832 0.3099370653
0.0121276502 0.8054843850 0.4806424440
0.0397481026 0.8177680092 0.4552453042
0.4848235103 0.8478390618 0.3616518569
0.7734227408 0.8464004309 0.4078577658
0.9769365762 0.8316677148 0.4427288952
0.3411593745 0.9881716333 0.6556844327
0.4466370811 0.9893504461 0.6570156511
0.6316224737 0.9918292179 0.6669689743
0.8098726887 0.9955903501 0.6920636047
0.9676150232 0.9998083199 0.7658506854
0.0022585330 0.0166179709 0.1978461269
0.2588337512 0.0155931936 0.2761029163
0.5608198766 0.0501101830 0.3190387678
0.7914562589 0.0848364838 0.3323202201
0.9610645004 0.2232316703 0.4313014756
0.0172145165 0.2608654418 0.2746291187
0.2578006717 0.2654130757 0.2795924221
0.5379951193 0.2631237391 0.2561541173
0.7856587366 0.2873445149 0.2663170729
0.9607063614 0.3847347905 0.4088241165
0.0166115497 0.5737914925 0.4087446302
0.2002495805 0.6022789302 0.3550978265
0.5632772448 0.5859985965 0.3008417525
0.7852532641 0.5418713084 0.3158604685
0.9581134903 0.5928784741 0.3983701997
0.0172704338 0.8057281199 0.5451282271
0.0795091510 0.8240665120 0.5096059769
0.5133079935 0.8436832825 0.4600858229
0.7911494358 0.8406474533 0.4836876735
0.9809039225 0.8206299433 0.5033599514
0.3753058582 0.9881079225 0.6897327125
0.4674218537 0.9891646493 0.6913642309
0.6415180049 0.9916515691 0.6999275689
0.8149924817 0.9954697267 0.7212778752
0.9705242045 0.9997368484 0.7866101020
0.0025712969 0.0982065972 0.4260944252
0.2600875754 0.0470632838 0.5700473382
0.5592057314 0.0590763297 0.5966567660
0.8000711249 0.1001842386 0.6249123004
0.9596752117 0.2689318027 0.6489642380
0.0183356224 0.3034183188 0.5214536706
0.2617456341 0.2911643855 0.5813738046
0.5826303993 0.2899619659 0.5994724610
0.8206806356 0.3095435615 0.6244456282
0.9626069864 0.4138887918 0.6469892337
0.0614610070 0.5702267747 0.5732790614
0.2643893464 0.5703786099 0.5761105797
0.5631099955 0.5646348678 0.5713316548
0.7952229580 0.5620060272 0.5558488016
0.9622038809 0.6107852675 0.5974750050
0.0545522503 0.8095600873 0.6697786692
0.2584893461 0.8311176632 0.6531060882
0.5587830444 0.8291087253 0.6452468986
0.8094174724 0.8216469505 0.6180222762
0.9827978999 0.8044257213 0.6351817321
0.4460505719 0.9877223955 0.7738111338
0.5162427680 0.9886603460 0.7752928249
0.6675042004 0.9912057281 0.7809390192
0.8306813931 0.9951176408 0.7922940037
0.9819779407 0.9992849306 0.8278347125
0.0028749411 0.1921736532 0.6427773829
0.2272103824 0.1104172608 0.8108122672
0.5567076689 0.0802750095 0.8158682501
0.7962423240 0.1084623710 0.8387399461
0.9599725773 0.2967177785 0.8360214550
0.0079927015 0.3507443872 0.6931806178
0.2235106727 0.3280623738 0.8203077604
0.5656921131 0.3107435174 0.8323347505
0.8134776932 0.3169736127 0.8526892258
0.9618769996 0.4357650806 0.8355097295
0.0965825827 0.6004807230 0.7907229045
0.2867485413 0.5995595275 0.8127059129
0.5670990578 0.5852183845 0.8120303467
0.8136853761 0.5947431344 0.8237296314
0.9638411719 0.6569696463 0.8339196749
0.2944358261 0.8187577474 0.8153792412
0.3972832026 0.8170231800 0.8142119930
0.5818500777 0.8121842493 0.8117488493
0.8144498656 0.8109603539 0.8111456430
0.9832908485 0.8201474046 0.8130827568
0.5227840628 0.9871085891 0.8816927272
0.5764818732 0.9879883369 0.8830129315
0.7030306511 0.9905771979 0.8875865349
0.8460277926 0.9947323819 0.8890275119
0.9944548888 0.9990996893 0.8835281536
0.0035186170 0.2842879371 0.8225800928
0.2023201563 0.2336501021 0.9390958605
0.5380382705 0.2214464886 0.9496564291
0.7663596541 0.2612926090 0.9639829326
0.9378134521 0.3908120179 0.9724098111
0.0073910874 0.4069995418 0.8488555437
0.2113776686 0.3877288524 0.9444724517
0.5447375162 0.3874063233 0.9529159494
0.7720557869 0.4142492170 0.9649112948
0.9417971792 0.4984468956 0.9725806102
0.0347008164 0.6225814713 0.9055075836
0.2882017091 0.6245847335 0.9530614190
0.5694539077 0.6259108934 0.9583440041
0.7877163550 0.6386435402 0.9651005028
0.9531637525 0.6845739993 0.9741729310
0.4101105851 0.8261075636 0.9593431069
0.4943587339 0.8264470305 0.9609700416
0.6505660521 0.8261540852 0.9651723402
0.8196402229 0.8265954632 0.9763851736
0.9796672268 0.8493555890 0.9839805346
0.6044074722 0.9873486661 0.9844932344
0.6462846114 0.9880709375 0.9855671514
0.7427012809 0.9903345247 0.9887241087
0.8572401054 0.9952715050 0.9950450861
1.0000000000 1.0000000000 1.0000000000
