latent/luts/07Voile.cube
TITLE "Voile"
#LUMIXPHOTOSTYLE STD
# look 07Voile (轻纱)  order=PGN  source=07Voile.json
LUT_3D_SIZE 33
0.0000000000 0.0000000000 0.0000000000
0.0099928595 0.0004838888 0.0005078141
0.0251494120 0.0010811498 0.0011320844
0.0486076444 0.0020379119 0.0021469745
0.0783873625 0.0034710864 0.0036960491
0.1108023901 0.0052119425 0.0055846074
0.1482280665 0.0072572747 0.0077406593
0.1884416547 0.0096703192 0.0100705173
0.2284557567 0.0125140416 0.0123967442
0.2655076714 0.0158397798 0.0145117223
0.2997884640 0.0195784173 0.0162637429
0.3324771521 0.0238136436 0.0176466402
0.3637051361 0.0286934391 0.0187943026
0.3939480771 0.0342677193 0.0198755712
0.4238895669 0.0405806003 0.0211025303
0.4542366470 0.0474121074 0.0227138397
0.4856167258 0.0545090515 0.0249486334
0.5184329531 0.0614761840 0.0281027575
0.5531207717 0.0678822648 0.0325595983
0.5895589303 0.0733566692 0.0387983430
0.6271305872 0.0777354790 0.0473593370
0.6645317309 0.0815247689 0.0579067886
0.7008217245 0.0851536540 0.0698822937
0.7355705969 0.0887272420 0.0831529467
0.7683751657 0.0923907959 0.0975726600
0.7993730012 0.0963713476 0.1140700473
0.8287316393 0.1010867879 0.1331402085
0.8565013500 0.1072112829 0.1548553504
0.8828085127 0.1158475732 0.1792875964
0.9081440918 0.1287267467 0.2063936500
0.9303349131 0.1478421496 0.2357256449
0.9480544847 0.1746969008 0.2661071187
0.9612726957 0.2091924451 0.2972520639
0.0012890488 0.0117736579 0.0014111337
0.0122389183 0.0126508918 0.0016045864
0.0289373528 0.0134946059 0.0021628301
0.0537320244 0.0147064058 0.0029706897
0.0829301620 0.0161352964 0.0039966335
0.1142488836 0.0178729803 0.0052886043
0.1509224688 0.0201006333 0.0069201284
0.1903401178 0.0228974334 0.0088597176
0.2296632988 0.0264113025 0.0109970572
0.2661734020 0.0305755375 0.0131419745
0.3001635182 0.0352589795 0.0150591776
0.3326484714 0.0403715705 0.0166470188
0.3637355303 0.0458506422 0.0179740065
0.3938325873 0.0516800199 0.0192087680
0.4236078304 0.0579259240 0.0205425042
0.4538025960 0.0645663328 0.0222077454
0.4850486449 0.0713992898 0.0244337992
0.5177539268 0.0780732503 0.0274942328
0.5523755703 0.0841909340 0.0317410209
0.5888441261 0.0893984757 0.0376087831
0.6265678744 0.0935123978 0.0455912720
0.6642689883 0.0970029213 0.0554755557
0.7009622617 0.1003488913 0.0667879773
0.7361567855 0.1036717359 0.0794422050
0.7694039862 0.1071329429 0.0933370655
0.8008103586 0.1109756080 0.1090357597
0.8304925971 0.1156393108 0.1275404783
0.8584360780 0.1219013485 0.1490910559
0.8847847546 0.1309510063 0.1738929835
0.9098535571 0.1444373106 0.2019102295
0.9315166948 0.1640204889 0.2324985330
0.9487208317 0.1907032039 0.2641595390
0.9615951645 0.2239916886 0.2962168895
0.0028153982 0.0310479719 0.0034905026
0.0143465193 0.0321532430 0.0030757143
0.0318868221 0.0330461712 0.0035586492
0.0569668928 0.0344202962 0.0042344053
0.0858416108 0.0359628027 0.0051182159
0.1161811488 0.0373988479 0.0062573045
0.1510042776 0.0395392362 0.0076848270
0.1893502051 0.0425071946 0.0094407243
0.2280207234 0.0459092660 0.0114469875
0.2643489658 0.0497184433 0.0135253160
0.2983909668 0.0539334903 0.0154561930
0.3311192051 0.0585830636 0.0170937260
0.3625184759 0.0636596878 0.0184554530
0.3928927874 0.0691244250 0.0196900544
0.4228235697 0.0749653593 0.0210152596
0.4530572716 0.0811736147 0.0226528890
0.4842539184 0.0875850527 0.0248212504
0.5168487782 0.0938837227 0.0277760532
0.5513176658 0.0998376878 0.0318370898
0.5876620466 0.1051867763 0.0373958525
0.6253335449 0.1096102111 0.0448932036
0.6631203732 0.1133878865 0.0541582990
0.7000837520 0.1168822736 0.0648287365
0.7356696324 0.1202375165 0.0768427185
0.7693596842 0.1236364226 0.0901491874
0.8012240287 0.1273240632 0.1050543170
0.8313189595 0.1318419385 0.1228630188
0.8595523013 0.1380905290 0.1440604620
0.8860512655 0.1473544135 0.1690234452
0.9109996214 0.1611933286 0.1977471391
0.9323298771 0.1809452868 0.2294147932
0.9491919363 0.2071646558 0.2622386153
0.9618326230 0.2390185270 0.2951701113
0.0042714485 0.0611619278 0.0070873761
0.0160661271 0.0622596495 0.0051442285
0.0352225872 0.0624513364 0.0053695077
0.0609505064 0.0633880104 0.0058791481
0.0898003511 0.0648331782 0.0066093382
0.1205009356 0.0652340189 0.0076098639
0.1534392345 0.0653540037 0.0089945940
0.1898948107 0.0675627157 0.0106876359
0.2274488184 0.0704839796 0.0126499842
0.2632921939 0.0736886802 0.0147503491
0.2972774987 0.0771669410 0.0167803828
0.3302240602 0.0809832650 0.0185473308
0.3619356363 0.0852421081 0.0199948729
0.3926417099 0.0899686075 0.0212740567
0.4227799374 0.0951064560 0.0226050643
0.4530151531 0.1007796765 0.0242083172
0.4840419208 0.1069984002 0.0263067167
0.5163407263 0.1135273998 0.0291454275
0.5504148820 0.1199778746 0.0330128162
0.5863227923 0.1259106410 0.0382516086
0.6235842075 0.1309757194 0.0452302729
0.6611086356 0.1353665732 0.0537661992
0.6981207575 0.1392922021 0.0636783241
0.7340027193 0.1428995297 0.0749141623
0.7681346007 0.1463817185 0.0874252469
0.8005321709 0.1499617736 0.1013788151
0.8311879328 0.1542593230 0.1181934765
0.8599029279 0.1603207131 0.1387108791
0.8867232673 0.1695622333 0.1635761706
0.9117283758 0.1834511041 0.1928875209
0.9328917824 0.2029672710 0.2256705891
0.9495354436 0.2281807738 0.2598153289
0.9620166585 0.2578984519 0.2938109130
0.0050754965 0.0967169603 0.0135347977
0.0156613809 0.0985915478 0.0085939676
0.0369292934 0.0979921895 0.0080063506
0.0648099458 0.0977652721 0.0081403754
0.0940658219 0.0984639441 0.0086187802
0.1263636597 0.0995575030 0.0093707110
0.1606744569 0.0975536246 0.0105286283
0.1938864668 0.0954213270 0.0123435589
0.2292191642 0.0969555370 0.0144254558
0.2639889400 0.0995336868 0.0166563265
0.2975716442 0.1024120174 0.0188835382
0.3307194398 0.1056426439 0.0209335802
0.3630206458 0.1093479058 0.0227495964
0.3943267037 0.1136561695 0.0243207716
0.4248414099 0.1186180008 0.0257912667
0.4550895917 0.1242218706 0.0274174545
0.4857824936 0.1304521323 0.0294649991
0.5175004854 0.1371553526 0.0321897500
0.5508238628 0.1439868095 0.0358602187
0.5858451160 0.1505051325 0.0407740811
0.6221072851 0.1563976795 0.0471382053
0.6588311610 0.1616871930 0.0548411307
0.6954433836 0.1663751382 0.0638941955
0.7312977486 0.1705606846 0.0742565941
0.7656752565 0.1743970834 0.0858418463
0.7984975981 0.1780914757 0.0987206649
0.8297284568 0.1822340017 0.1143042349
0.8590626287 0.1879660266 0.1337751464
0.8863833338 0.1968359600 0.1581294763
0.9117110147 0.2102580696 0.1876971078
0.9329857345 0.2288996476 0.2214411587
0.9496248885 0.2523827728 0.2569409058
0.9620793402 0.2794739275 0.2921403058
0.0052810870 0.1371463434 0.0251764218
0.0130299982 0.1409536133 0.0160338711
0.0337203220 0.1409290098 0.0124308815
0.0657424831 0.1393009975 0.0116987298
0.0976105238 0.1384846631 0.0115619723
0.1312978899 0.1389013125 0.0119102343
0.1681415080 0.1398474145 0.0126211609
0.2045231845 0.1355706093 0.0138743984
0.2365458686 0.1297649594 0.0162679536
0.2674914423 0.1286500593 0.0189926956
0.2999804983 0.1310012387 0.0216570557
0.3328692297 0.1340316728 0.0243004737
0.3654679057 0.1375003490 0.0267644546
0.3974845327 0.1415350143 0.0289482245
0.4288407058 0.1462347278 0.0308981255
0.4596846615 0.1515947512 0.0328104627
0.4903422055 0.1575341947 0.0349582536
0.5214220381 0.1640126598 0.0376287351
0.5536937764 0.1708510805 0.0410870624
0.5872804841 0.1777358240 0.0455208333
0.6218991189 0.1843587050 0.0510562245
0.6572587041 0.1905156503 0.0578217033
0.6929059574 0.1960866308 0.0658931417
0.7282337422 0.2010619087 0.0752601350
0.7624765040 0.2054916883 0.0857936849
0.7954368119 0.2095606519 0.0975100794
0.8270589524 0.2137608371 0.1117138324
0.8569912847 0.2191665872 0.1298241800
0.8849077024 0.2273628773 0.1531943726
0.9108113977 0.2397490012 0.1825311886
0.9325058760 0.2567901406 0.2169125439
0.9493873055 0.2779946774 0.2536789555
0.9619731082 0.3034655497 0.2901657494
0.0050913938 0.1825879621 0.0465653208
0.0105805137 0.1873824781 0.0327392946
0.0244957668 0.1906899056 0.0214582485
0.0600800346 0.1890003011 0.0177501166
0.0973295374 0.1864935024 0.0163534632
0.1346582353 0.1850314293 0.0157375776
0.1731088840 0.1850039232 0.0158121704
0.2119092616 0.1857856312 0.0163784703
0.2483208101 0.1804354927 0.0175798793
0.2783424498 0.1706203469 0.0205918034
0.3066352445 0.1651196808 0.0245909564
0.3372579091 0.1657022642 0.0284113200
0.3696281809 0.1689100542 0.0319063355
0.4018993484 0.1727284364 0.0349777416
0.4338168779 0.1771539544 0.0376769116
0.4653085829 0.1822137750 0.0401482889
0.4964020193 0.1878382690 0.0426151418
0.5273315316 0.1939186517 0.0453397206
0.5587341718 0.2003990896 0.0485559680
0.5907933550 0.2071133969 0.0524443559
0.6236282425 0.2138585657 0.0571937707
0.6572569755 0.2204146752 0.0629962926
0.6914401687 0.2265852586 0.0699913509
0.7257011426 0.2322218107 0.0782007788
0.7593223985 0.2372468003 0.0875103707
0.7920224206 0.2417743092 0.0979783372
0.8236979316 0.2462012074 0.1107382963
0.8540143414 0.2513861175 0.1272644679
0.8824696149 0.2587525130 0.1492172359
0.9090808561 0.2696622559 0.1777678553
0.9314491456 0.2850410537 0.2123276513
0.9488004233 0.3050189444 0.2501441397
0.9616722799 0.3291608446 0.2879288105
0.0050483547 0.2295721089 0.0735195296
0.0090157818 0.2336089025 0.0612848698
0.0172990055 0.2387248949 0.0444047896
0.0461696816 0.2413675419 0.0293265076
0.0899379755 0.2384500512 0.0245516058
0.1328793303 0.2353890508 0.0219577066
0.1757583212 0.2334260669 0.0206227394
0.2163880367 0.2329335913 0.0202608666
0.2543919291 0.2334512420 0.0205470598
0.2895825180 0.2281124896 0.0215469698
0.3204840300 0.2160444279 0.0252847785
0.3481011624 0.2062189833 0.0314279060
0.3765164472 0.2035613502 0.0370162316
0.4075809091 0.2061991342 0.0413344088
0.4395630896 0.2104207096 0.0450578483
0.4713355122 0.2151696296 0.0483570433
0.5027185837 0.2203992589 0.0513943355
0.5337068997 0.2259809235 0.0543806819
0.5645952296 0.2318075886 0.0575508257
0.5956347236 0.2378789994 0.0611203924
0.6271015946 0.2441394067 0.0653058057
0.6591214942 0.2504376390 0.0702994427
0.6916499532 0.2565878974 0.0762538426
0.7244614632 0.2623818609 0.0831980865
0.7570020280 0.2676694054 0.0911285410
0.7890018279 0.2725217604 0.1002827474
0.8203366845 0.2772275017 0.1116325321
0.8506788930 0.2824639986 0.1264613427
0.8794536099 0.2894373505 0.1466741912
0.9067135826 0.2996541938 0.1739053333
0.9298893549 0.3141330273 0.2080861709
0.9478803761 0.3330233008 0.2465854269
0.9611697086 0.3558959559 0.2855632852
0.0056463565 0.2740251361 0.0998831793
0.0086411995 0.2769549777 0.0914962768
0.0148837915 0.2816350229 0.0769221413
0.0337534250 0.2877155910 0.0540531823
0.0759957398 0.2880053630 0.0410587259
0.1233896079 0.2848845291 0.0347878901
0.1726049514 0.2816465255 0.0298260257
0.2180936426 0.2794059492 0.0268869005
0.2580401109 0.2785438469 0.0255986990
0.2945969556 0.2787606851 0.0252806111
0.3306146345 0.2741864824 0.0258938449
0.3629523283 0.2623018709 0.0302067858
0.3910655294 0.2500783829 0.0386909060
0.4178153482 0.2441170155 0.0464244420
0.4468094581 0.2447697959 0.0519911050
0.4780382026 0.2487874722 0.0564851108
0.5093358977 0.2534837341 0.0604422879
0.5402473299 0.2583968848 0.0640244002
0.5707918195 0.2634182245 0.0674404046
0.6011242024 0.2685938672 0.0709483032
0.6315483620 0.2740577288 0.0747930428
0.6622825175 0.2797948235 0.0791924093
0.6933955087 0.2856631047 0.0842510986
0.7247771710 0.2914710927 0.0900089037
0.7560271442 0.2970585946 0.0965895918
0.7869915030 0.3023694135 0.1045324645
0.8176109701 0.3075694071 0.1145339130
0.8475981104 0.3131846296 0.1277452001
0.8763620675 0.3202014547 0.1460641238
0.9040207056 0.3299773533 0.1715620835
0.9279737988 0.3436405134 0.2047790653
0.9466832327 0.3614922838 0.2434419671
0.9604796848 0.3831621479 0.2833453168
0.0063476419 0.3162755817 0.1252758299
0.0088535329 0.3187621120 0.1184542135
0.0136473340 0.3226721161 0.1071126217
0.0270473201 0.3294663227 0.0861280233
0.0630973223 0.3341458689 0.0648487927
0.1104627811 0.3328117662 0.0553928027
0.1631130445 0.3297406304 0.0488070832
0.2142494251 0.3266009328 0.0425856699
0.2588347821 0.3241484814 0.0373764798
0.2976306025 0.3229169949 0.0340181511
0.3347620022 0.3228248171 0.0320970571
0.3713605756 0.3188044563 0.0306772378
0.4050169618 0.3072787375 0.0351918118
0.4342987835 0.2937653789 0.0456332239
0.4603872255 0.2851205682 0.0558526501
0.4872437348 0.2831358400 0.0632198426
0.5165043472 0.2857367200 0.0686824995
0.5469820859 0.2900636480 0.0732989385
0.5772299717 0.2946506704 0.0773944378
0.6070843463 0.2993936967 0.0812135349
0.6367290395 0.3043862054 0.0850242975
0.6664126859 0.3096831827 0.0890169645
0.6962926370 0.3152248005 0.0933074309
0.7263618302 0.3208827018 0.0980987497
0.7563537831 0.3265274150 0.1037343115
0.7862109363 0.3320854803 0.1106223741
0.8159175490 0.3376440398 0.1194221269
0.8452588666 0.3435899032 0.1312226993
0.8736961408 0.3507316903 0.1477826642
0.9013937720 0.3602314268 0.1713517566
0.9259269395 0.3731967433 0.2031117479
0.9453156325 0.3900753061 0.2413278001
0.9596470264 0.4105984317 0.2817082034
0.0069764716 0.3574194147 0.1516321373
0.0091745546 0.3596462124 0.1457217143
0.0127862586 0.3627603260 0.1367043577
0.0230902500 0.3692556119 0.1167481917
0.0533342451 0.3768691140 0.0909953503
0.0978125818 0.3785312204 0.0767232287
0.1508698692 0.3766104632 0.0690938007
0.2058868356 0.3737221006 0.0624876297
0.2553926697 0.3707827264 0.0562892414
0.2978332006 0.3684252900 0.0511934116
0.3371876558 0.3670408323 0.0469825893
0.3748052100 0.3666491682 0.0430733839
0.4116225704 0.3631455636 0.0368665077
0.4461282634 0.3525702712 0.0404636769
0.4766432086 0.3384941972 0.0522309742
0.5027488676 0.3274182539 0.0648692599
0.5278562376 0.3224913517 0.0744177027
0.5549294901 0.3229619669 0.0811594477
0.5840054359 0.3265024027 0.0864406060
0.6134424556 0.3309130355 0.0910173924
0.6425093773 0.3354876696 0.0951305968
0.6713842134 0.3402972645 0.0990598312
0.7002391001 0.3453769558 0.1030521116
0.7291296673 0.3506915296 0.1073493442
0.7578933530 0.3561659922 0.1122678323
0.7865950482 0.3617534009 0.1182679560
0.8152910518 0.3674983654 0.1260516980
0.8438407997 0.3736707605 0.1366982623
0.8717649842 0.3809079853 0.1518562544
0.8992034673 0.3902115180 0.1736614996
0.9240218094 0.4025889677 0.2037047879
0.9439362484 0.4185599918 0.2409068958
0.9587549095 0.4379741206 0.2811900116
0.0074995872 0.3971231586 0.1789985536
0.0094404566 0.3991530832 0.1739913406
0.0123504013 0.4017954980 0.1667433049
0.0197817023 0.4071421156 0.1504874077
0.0444322107 0.4162162221 0.1204248098
0.0873187838 0.4212026614 0.0990545758
0.1385078187 0.4211682019 0.0892398996
0.1955783968 0.4191561830 0.0826174507
0.2489237172 0.4165408756 0.0761440733
0.2949436150 0.4138826533 0.0698908147
0.3371610838 0.4116932030 0.0645825407
0.3766573322 0.4102971907 0.0603789801
0.4144558720 0.4097636041 0.0566336486
0.4512839792 0.4067653991 0.0470293908
0.4859345562 0.3972495948 0.0464705739
0.5172953142 0.3833060229 0.0588943751
0.5439804457 0.3705477206 0.0734806733
0.5683024906 0.3629769542 0.0851984670
0.5934358269 0.3610318213 0.0934262930
0.6205445700 0.3630932695 0.0994479595
0.6488435825 0.3670449749 0.1045005329
0.6770862122 0.3714166765 0.1089789243
0.7051096569 0.3760213591 0.1131218376
0.7329768939 0.3809032730 0.1172509172
0.7606120429 0.3860620882 0.1217638554
0.7881776688 0.3914878370 0.1271736370
0.8157999740 0.3972295115 0.1342050815
0.8434199293 0.4034826536 0.1439439414
0.8706558314 0.4107382238 0.1579916108
0.8976488344 0.4198341505 0.1784042963
0.9224859991 0.4316908384 0.2068074038
0.9427215754 0.4468182205 0.2426428099
0.9579182572 0.4651512473 0.2822845571
0.0079043851 0.4352376531 0.2065403231
0.0096157292 0.4370900815 0.2024140130
0.0120253425 0.4393958912 0.1966747507
0.0171203491 0.4434560917 0.1851805839
0.0341682905 0.4519716162 0.1577679609
0.0759229560 0.4605734710 0.1260813554
0.1249744280 0.4630357343 0.1102280929
0.1835246573 0.4622554903 0.1019970873
0.2404299770 0.4603279578 0.0956482861
0.2896664152 0.4580005585 0.0894278342
0.3347601293 0.4556447492 0.0833671463
0.3765758284 0.4536708352 0.0780785979
0.4158392566 0.4523325185 0.0736545780
0.4533837245 0.4517130834 0.0698595065
0.4900080244 0.4492308627 0.0607249380
0.5243090563 0.4407412257 0.0537038723
0.5564021578 0.4274632550 0.0660655917
0.5839210458 0.4138390399 0.0817914861
0.6080180111 0.4041627049 0.0951824852
0.6317032182 0.3998160984 0.1050367146
0.6568438718 0.3999563563 0.1122221982
0.6835159910 0.4028867956 0.1178048205
0.7107645706 0.4070001746 0.1226101987
0.7377496923 0.4114550995 0.1270697387
0.7643840085 0.4162357818 0.1316417107
0.7908986073 0.4213805568 0.1368936227
0.8174646796 0.4269553937 0.1435721223
0.8440948332 0.4331312810 0.1527517287
0.8705027615 0.4402927405 0.1659998761
0.8968924501 0.4491242047 0.1853155097
0.9214970110 0.4604385137 0.2123136349
0.9418231483 0.4747437424 0.2466025365
0.9572578260 0.4920096363 0.2851999389
0.0082060512 0.4717670236 0.2334968386
0.0097128221 0.4734369899 0.2301733835
0.0117411009 0.4754616983 0.2256953584
0.0155947158 0.4787753198 0.2173362951
0.0257198040 0.4851760703 0.1982394356
0.0619498852 0.4961589616 0.1604237600
0.1095447145 0.5017514893 0.1360542774
0.1673616539 0.5028376145 0.1235991607
0.2281017354 0.5018374940 0.1158170873
0.2815731607 0.5000591756 0.1089269294
0.3296620935 0.4979757878 0.1023300370
0.3742126752 0.4958999972 0.0963501643
0.4155314861 0.4941422947 0.0912095715
0.4543252996 0.4928914551 0.0867331029
0.4912968737 0.4922235077 0.0827391877
0.5273276391 0.4901866830 0.0744592751
0.5615401676 0.4827201600 0.0625743028
0.5939461234 0.4704525962 0.0738857536
0.6221489445 0.4566622347 0.0895897908
0.6464288898 0.4454955684 0.1040954903
0.6692357974 0.4390036946 0.1157606585
0.6927011158 0.4371121819 0.1242545299
0.7175479407 0.4386667262 0.1306010386
0.7432845617 0.4422415217 0.1359963771
0.7690372404 0.4466365501 0.1412254071
0.7946169390 0.4514475144 0.1468721392
0.8202071991 0.4567505623 0.1537027664
0.8458658314 0.4627112183 0.1627719994
0.8713863750 0.4696548571 0.1755973534
0.8970862218 0.4781413095 0.1941156518
0.9212408591 0.4888646561 0.2199172856
0.9414253526 0.5023050390 0.2526613682
0.9569313954 0.5184613733 0.2898577736
0.0084441469 0.5068695814 0.2591575192
0.0097714057 0.5083361346 0.2565341589
0.0115001529 0.5100911058 0.2530889956
0.0145721508 0.5128608254 0.2469585589
0.0207609708 0.5174521164 0.2349808995
0.0438476836 0.5272616308 0.2038826599
0.0933058469 0.5370263009 0.1676650896
0.1477638902 0.5406201765 0.1488320910
0.2104696849 0.5410227205 0.1384186782
0.2688177618 0.5400348335 0.1306478048
0.3203741138 0.5384442798 0.1232212281
0.3682387697 0.5365683855 0.1160101219
0.4124826791 0.5346925729 0.1094911853
0.4533419967 0.5330981386 0.1039909382
0.4915427927 0.5319229313 0.0993092770
0.5278254110 0.5312223640 0.0951471005
0.5633848075 0.5295203637 0.0871079429
0.5974518389 0.5230107918 0.0732502157
0.6297263863 0.5118898390 0.0821764889
0.6583685910 0.4984855898 0.0968561141
0.6830140340 0.4864739898 0.1122988393
0.7053967089 0.4782888383 0.1256263763
0.7275750817 0.4745383555 0.1357201435
0.7505798465 0.4746100609 0.1433413043
0.7745625085 0.4773643427 0.1498711974
0.7991565344 0.4816327136 0.1564980245
0.8238862576 0.4866117907 0.1640477835
0.8486540322 0.4922614478 0.1735093569
0.8733158982 0.4988750310 0.1863329512
0.8983157808 0.5069248691 0.2043708863
0.9218637715 0.5170069226 0.2291473947
0.9417220299 0.5295684698 0.2602231711
0.9571247450 0.5446901645 0.2959558829
0.0086676232 0.5409832599 0.2833114099
0.0098438408 0.5422674984 0.2811671606
0.0113372776 0.5437870745 0.2784335537
0.0138728593 0.5461303955 0.2737974288
0.0184202663 0.5497588937 0.2656316765
0.0300660526 0.5563521749 0.2476589787
0.0745785883 0.5689289719 0.2056386023
0.1268219990 0.5755891574 0.1784679674
0.1884336885 0.5779367793 0.1634749407
0.2510603626 0.5780402117 0.1542176260
0.3061574550 0.5771686326 0.1463066489
0.3573245266 0.5757927712 0.1384109380
0.4048830279 0.5741385699 0.1306529679
0.4488076401 0.5724512531 0.1235616960
0.4892859633 0.5709731501 0.1174572891
0.5269794689 0.5698390608 0.1121939548
0.5629306371 0.5690995885 0.1073385450
0.5979335227 0.5676352029 0.0985919231
0.6316589666 0.5619868459 0.0849034485
0.6635985267 0.5519293377 0.0913828671
0.6923922038 0.5391121490 0.1048402476
0.7173688991 0.5267440292 0.1208825834
0.7395645359 0.5173853396 0.1357215303
0.7607523797 0.5121124131 0.1476708242
0.7823445763 0.5107844781 0.1570981043
0.8049127514 0.5125940474 0.1653844395
0.8283903747 0.5165385548 0.1740359646
0.8523360483 0.5217812647 0.1843434847
0.8762569473 0.5280216951 0.1975748504
0.9006076254 0.5356229357 0.2154278905
0.9234964821 0.5450667702 0.2391560473
0.9428872309 0.5567307480 0.2684202313
0.9580001694 0.5707557990 0.3028727033
0.0088976835 0.5743847210 0.3069089394
0.0099511197 0.5755165653 0.3050969418
0.0112629976 0.5768433612 0.3028275668
0.0134193858 0.5788541484 0.2990835502
0.0170315981 0.5818419811 0.2928373128
0.0240682379 0.5865379434 0.2814386489
0.0503346313 0.5966683640 0.2516938424
0.1059363675 0.6076831489 0.2125907790
0.1642856843 0.6123185827 0.1914962950
0.2285619628 0.6138548965 0.1792635671
0.2875550053 0.6138493930 0.1706707681
0.3416894156 0.6131304784 0.1626130925
0.3923315115 0.6119781060 0.1543461269
0.4394421994 0.6105554297 0.1461228612
0.4829229366 0.6090677952 0.1384897360
0.5229690217 0.6077167320 0.1317527340
0.5605360743 0.6066250668 0.1258142320
0.5962161073 0.6058376396 0.1194859572
0.6306308597 0.6045264729 0.1089400356
0.6639005299 0.5997129244 0.0978079705
0.6954492676 0.5907469466 0.1032580054
0.7241378606 0.5787806336 0.1157026024
0.7492054973 0.5664940604 0.1318420939
0.7713497819 0.5564132720 0.1478715033
0.7921360940 0.5499561246 0.1616747816
0.8129435240 0.5474046985 0.1731841656
0.8345321586 0.5482910960 0.1836437145
0.8570245651 0.5518356328 0.1948097914
0.8801637535 0.5573275419 0.2084983219
0.9039904046 0.5643621753 0.2261275606
0.9262384853 0.5730559792 0.2487577390
0.9450283933 0.5837729999 0.2764886511
0.9596442748 0.5966897832 0.3099370653
0.0091439732 0.6069779959 0.3299320609
0.0100977913 0.6079800584 0.3283782458
0.0112680375 0.6091467778 0.3264611124
0.0131466951 0.6108939423 0.3233668788
0.0161553736 0.6134243684 0.3183991945
0.0212972096 0.6171407145 0.3100573700
0.0339636900 0.6234828033 0.2931915043
0.0839697740 0.6368158606 0.2510412953
0.1405337104 0.6442163317 0.2225954969
0.2034295782 0.6474430001 0.2059252951
0.2657884209 0.6484365834 0.1956574511
0.3222397316 0.6483936451 0.1875024687
0.3755083333 0.6478211749 0.1793647832
0.4254367875 0.6468794224 0.1708443467
0.4719212828 0.6456822832 0.1622525469
0.5148172709 0.6443944615 0.1541257606
0.5546937734 0.6431783939 0.1467527385
0.5921340166 0.6421397308 0.1391734947
0.6275227984 0.6412951209 0.1294310367
0.6613102432 0.6401091916 0.1187461855
0.6940591762 0.6361286936 0.1153993686
0.7251577882 0.6282270371 0.1207563837
0.7534739574 0.6172929091 0.1320651602
0.7785913493 0.6055190428 0.1476767152
0.8010149787 0.5952405855 0.1642145221
0.8219127722 0.5880390068 0.1793651488
0.8424895368 0.5845270826 0.1926918528
0.8635273571 0.5845637086 0.2051849033
0.8855563838 0.5876205728 0.2186121557
0.9085612930 0.5931769938 0.2352252864
0.9300905871 0.6009209525 0.2568035939
0.9481333973 0.6107003713 0.2836715880
0.9620321530 0.6225544211 0.3166333441
0.0094085703 0.6386690901 0.3523545311
0.0102815983 0.6395592840 0.3509951098
0.0113403307 0.6405905902 0.3493395466
0.0130101070 0.6421220409 0.3467162247
0.0156013529 0.6443029905 0.3426283043
0.0197283662 0.6473854203 0.3361251822
0.0277804246 0.6520251706 0.3247512980
0.0558672312 0.6618370567 0.2956546561
0.1176712688 0.6736771266 0.2557147355
0.1783913956 0.6788423331 0.2342322798
0.2419930695 0.6810689241 0.2210565947
0.3004531351 0.6817026605 0.2122277725
0.3556484636 0.6816266172 0.2044404873
0.4078100150 0.6811661015 0.1963275736
0.4568006688 0.6804033988 0.1876860845
0.5024567943 0.6794102931 0.1788393405
0.5448661320 0.6783147035 0.1700477793
0.5845599497 0.6772434329 0.1598433153
