latent/luts/08Arcade.cube
TITLE "Arcade"
#LUMIXPHOTOSTYLE STD
# look 08Arcade (骑楼)  order=PGN  source=08Arcade.json
LUT_3D_SIZE 33
0.0000000000 0.0000000000 0.0000000000
0.0043172902 0.0001666965 0.0001865268
0.0121940405 0.0003824257 0.0004198134
0.0270139577 0.0007619696 0.0007898303
0.0473144202 0.0014065168 0.0013305130
0.0699608056 0.0023208477 0.0019429807
0.0965973619 0.0035975251 0.0025852472
0.1271731494 0.0053896115 0.0032685994
0.1615832703 0.0080936769 0.0041271709
0.1992625816 0.0123187199 0.0054780145
0.2401507523 0.0193778504 0.0078259529
0.2822484264 0.0285506605 0.0116624686
0.3233443606 0.0390223267 0.0172959287
0.3634893586 0.0494602456 0.0237794526
0.4036487990 0.0586860116 0.0297208815
0.4431826668 0.0669510546 0.0351265192
0.4818622925 0.0753463776 0.0406894938
0.5210334749 0.0840380441 0.0463939896
0.5603435020 0.0927286629 0.0518219384
0.5998089403 0.1005221873 0.0558353710
0.6389186281 0.1068104520 0.0577135178
0.6761027584 0.1114966814 0.0573258206
0.7097360114 0.1149568258 0.0549904754
0.7400703273 0.1178954659 0.0513084187
0.7680515576 0.1211478324 0.0470315554
0.7942932972 0.1253466236 0.0429088820
0.8192645355 0.1310369213 0.0398882629
0.8436199997 0.1384921302 0.0390687855
0.8681229818 0.1475045301 0.0410927294
0.8928270905 0.1578608244 0.0457501376
0.9159523374 0.1697057990 0.0522623246
0.9360921220 0.1835223072 0.0606706377
0.9525375747 0.1999301724 0.0713587350
0.0003196897 0.0068394082 0.0005270093
0.0051301763 0.0073904793 0.0005379362
0.0140564773 0.0077634872 0.0007330406
0.0301975534 0.0082943950 0.0010215992
0.0507273009 0.0090220614 0.0014046384
0.0731310568 0.0101007147 0.0019033738
0.0993377285 0.0117080218 0.0025221796
0.1297707147 0.0144676189 0.0033398395
0.1643612878 0.0192797526 0.0046241531
0.2020187468 0.0263335227 0.0068210452
0.2421710791 0.0351784297 0.0105321827
0.2820968422 0.0453039146 0.0163142616
0.3208460544 0.0557093485 0.0238011545
0.3600329151 0.0649295713 0.0310676215
0.4003114977 0.0728248640 0.0369801301
0.4401073298 0.0804913653 0.0423294720
0.4788941368 0.0884650299 0.0477586056
0.5181683821 0.0967362184 0.0532257487
0.5574506832 0.1052211253 0.0585945091
0.5967991899 0.1130909150 0.0628339625
0.6361389439 0.1194014019 0.0648888516
0.6740625697 0.1238453008 0.0644452485
0.7086381207 0.1267772589 0.0618026212
0.7398623098 0.1289446458 0.0575696182
0.7686248124 0.1312674314 0.0525403201
0.7954661132 0.1344578318 0.0474815547
0.8207367750 0.1392432908 0.0434854808
0.8450683008 0.1460502000 0.0418020337
0.8693808857 0.1546891926 0.0432038701
0.8938822571 0.1648484605 0.0475973394
0.9168415859 0.1765646389 0.0541450412
0.9367907848 0.1902661967 0.0625816505
0.9530485827 0.2067381625 0.0733957178
0.0006663650 0.0189094356 0.0013783636
0.0056915040 0.0202904716 0.0010522358
0.0151250286 0.0209510620 0.0012332277
0.0315849308 0.0217062097 0.0014844937
0.0519989806 0.0226417620 0.0018216139
0.0743488953 0.0239246121 0.0022789748
0.1005633691 0.0259553518 0.0029365629
0.1313442840 0.0295197169 0.0040038292
0.1662511198 0.0350730579 0.0058124839
0.2039278300 0.0426212185 0.0089953031
0.2428753534 0.0517787063 0.0143686488
0.2802866634 0.0617920525 0.0224080790
0.3175611878 0.0712267697 0.0311784870
0.3567101637 0.0795847713 0.0385123984
0.3972203864 0.0869949951 0.0442284933
0.4371290800 0.0944030587 0.0495660336
0.4759780844 0.1020758258 0.0548547072
0.5153124981 0.1100189883 0.0600747577
0.5546393141 0.1182284238 0.0652000963
0.5937233884 0.1262439282 0.0698097941
0.6328208152 0.1328864855 0.0725170427
0.6710791550 0.1374529483 0.0724131525
0.7066822173 0.1399904686 0.0694897974
0.7389558447 0.1414180823 0.0647269439
0.7686992979 0.1427420588 0.0589959171
0.7963619352 0.1447725452 0.0529320801
0.8221238158 0.1484776407 0.0478213104
0.8465554682 0.1544822407 0.0451122638
0.8707202529 0.1626482330 0.0457348562
0.8949961730 0.1725641155 0.0497233545
0.9177714236 0.1841350815 0.0562520256
0.9375236964 0.1977798141 0.0647001691
0.9535869099 0.2143429066 0.0756879725
0.0009018597 0.0386194033 0.0031171792
0.0057262706 0.0410433904 0.0018299867
0.0158187020 0.0419293378 0.0019102608
0.0329236378 0.0429279733 0.0021106008
0.0534125431 0.0439955899 0.0024064355
0.0759019685 0.0452922396 0.0028438115
0.1027361075 0.0474315089 0.0036504007
0.1344046356 0.0511557005 0.0052636845
0.1694689270 0.0563809362 0.0080656997
0.2062789256 0.0629633521 0.0126433074
0.2432229852 0.0709243645 0.0199081103
0.2794400896 0.0798834230 0.0291763300
0.3166243139 0.0886724164 0.0381404776
0.3555139569 0.0966549902 0.0455295108
0.3954134435 0.1040938839 0.0516596145
0.4348058985 0.1115987697 0.0573964293
0.4733167624 0.1192260555 0.0628014196
0.5124216739 0.1270166622 0.0679865750
0.5516521273 0.1349936750 0.0731815795
0.5903974271 0.1431032887 0.0783402125
0.6288870143 0.1503530461 0.0821751875
0.6668822755 0.1555821003 0.0831593559
0.7029917552 0.1583629341 0.0807039189
0.7366375535 0.1590958902 0.0752544634
0.7678646284 0.1591558345 0.0683724224
0.7969012613 0.1595480598 0.0610252521
0.8236078376 0.1616427468 0.0544011330
0.8484032072 0.1663923106 0.0502002132
0.8724927767 0.1737870083 0.0496153753
0.8964766454 0.1833072557 0.0528695784
0.9189832799 0.1946929223 0.0592243331
0.9384828614 0.2084086020 0.0677105060
0.9542952205 0.2250646881 0.0789533196
0.0009111492 0.0608807426 0.0067161665
0.0045826269 0.0645915786 0.0034264343
0.0146671689 0.0656486179 0.0030156846
0.0329708657 0.0666498607 0.0030534213
0.0543328382 0.0677411411 0.0032401809
0.0771775181 0.0688837323 0.0035891539
0.1046428452 0.0708107629 0.0045397064
0.1383854868 0.0748026953 0.0073802728
0.1738922473 0.0800532916 0.0123812216
0.2086881418 0.0861374421 0.0191900064
0.2439522888 0.0933549471 0.0278762156
0.2803511078 0.1009091862 0.0365233346
0.3182502227 0.1082282654 0.0440805176
0.3574107260 0.1153116457 0.0506425368
0.3966591701 0.1226865469 0.0570965230
0.4351074449 0.1304229815 0.0634776532
0.4726923797 0.1383499613 0.0696147448
0.5110202424 0.1463455654 0.0755896444
0.5496667460 0.1544030605 0.0814148871
0.5879555634 0.1625421819 0.0871326974
0.6254736180 0.1705206878 0.0924172207
0.6625217766 0.1769371085 0.0953395396
0.6983139798 0.1807889598 0.0945114628
0.7323502619 0.1819240163 0.0896990256
0.7653805953 0.1808036841 0.0815131488
0.7964364547 0.1792025638 0.0720642328
0.8247310510 0.1791478620 0.0635112117
0.8503582936 0.1820989159 0.0574509531
0.8746003108 0.1883121727 0.0552065506
0.8982911266 0.1972725466 0.0572971772
0.9204293140 0.2086117477 0.0631343633
0.9396290507 0.2224058682 0.0717394166
0.9551480820 0.2391271538 0.0833017746
0.0008189128 0.0821803363 0.0132543789
0.0029136345 0.0873837679 0.0077706489
0.0106923946 0.0898515975 0.0052506119
0.0298391864 0.0909591463 0.0047944800
0.0531840792 0.0921699794 0.0046707717
0.0773505634 0.0934326587 0.0047836990
0.1041865913 0.0947311186 0.0051797980
0.1371153168 0.0978006336 0.0073240042
0.1766612477 0.1048626952 0.0161154516
0.2114728856 0.1125465668 0.0288039280
0.2463004310 0.1185586821 0.0369637264
0.2828830001 0.1245964578 0.0440533846
0.3210668195 0.1306726452 0.0502942312
0.3600826928 0.1371256710 0.0564030689
0.3990729954 0.1440203438 0.0625230607
0.4372651765 0.1512905539 0.0686273029
0.4745278908 0.1588906500 0.0749191595
0.5122999852 0.1667933635 0.0813962130
0.5501426151 0.1749759094 0.0880389570
0.5875965200 0.1833023883 0.0946563147
0.6241607128 0.1916854067 0.1011214301
0.6595962954 0.1996243957 0.1065740200
0.6940670280 0.2054436331 0.1086435300
0.7274679976 0.2081504383 0.1060589450
0.7610491129 0.2071749185 0.0982113803
0.7944567401 0.2036382886 0.0865642314
0.8249834425 0.2010915154 0.0752598554
0.8520464865 0.2017912294 0.0668368541
0.8768398601 0.2065009637 0.0626630160
0.9003619690 0.2147934246 0.0632041460
0.9220671348 0.2259786918 0.0681613307
0.9409020404 0.2397950797 0.0768561008
0.9561048011 0.2565179350 0.0887929005
0.0007187939 0.1041084758 0.0251277310
0.0019087407 0.1098662471 0.0172998248
0.0060577789 0.1149531962 0.0109595940
0.0225168106 0.1172608002 0.0083673798
0.0483658731 0.1185580809 0.0075304360
0.0745988309 0.1199328525 0.0070802055
0.1032159275 0.1213022898 0.0070185989
0.1340070187 0.1226855556 0.0074398979
0.1705128754 0.1261592040 0.0104890716
0.2131201180 0.1349222551 0.0247742943
0.2501746581 0.1443763334 0.0428939292
0.2866572439 0.1504745952 0.0512510444
0.3246393929 0.1558854458 0.0570233953
0.3633394459 0.1618154989 0.0628409928
0.4020001175 0.1682126450 0.0686469365
0.4398666278 0.1750049832 0.0746505932
0.4769406254 0.1821265299 0.0808691492
0.5145745806 0.1895339539 0.0872766282
0.5522609375 0.1972709409 0.0938570888
0.5893836964 0.2054031789 0.1006236767
0.6253740857 0.2139325677 0.1075744670
0.6595631540 0.2228115225 0.1146314161
0.6919753312 0.2309340638 0.1201843260
0.7238244407 0.2360427766 0.1211136457
0.7568694074 0.2364529239 0.1153168595
0.7912589780 0.2325039071 0.1033528062
0.8242159246 0.2276503601 0.0895113626
0.8531854901 0.2258725846 0.0783825576
0.8789833306 0.2286741348 0.0719036613
0.9025847131 0.2359051138 0.0707328036
0.9238719235 0.2467121817 0.0746911654
0.9422536102 0.2604625315 0.0831580952
0.9571255248 0.2770950664 0.0954706058
0.0006834789 0.1272487574 0.0405800711
0.0014397581 0.1324601407 0.0338057117
0.0035589774 0.1385955668 0.0245383980
0.0133291586 0.1443621082 0.0158473945
0.0391470010 0.1464054152 0.0132898530
0.0679052816 0.1479542852 0.0117871183
0.0985530641 0.1494534381 0.0107822139
0.1315135162 0.1508661941 0.0103940428
0.1661600357 0.1522743136 0.0108116054
0.2052661532 0.1552996200 0.0139630002
0.2510573191 0.1639020158 0.0292187601
0.2913238874 0.1748937447 0.0510454650
0.3289106729 0.1830759412 0.0635319226
0.3671475016 0.1888592072 0.0697534803
0.4054436813 0.1947866333 0.0755337323
0.4429221001 0.2012088037 0.0815005592
0.4797659355 0.2080660977 0.0876497734
0.5172096712 0.2153008593 0.0939838666
0.5547060111 0.2228770356 0.1004880051
0.5916503653 0.2307837433 0.1071553955
0.6274461613 0.2390331659 0.1140026381
0.6613533888 0.2476282939 0.1210199533
0.6927081696 0.2564227905 0.1279725504
0.7230468262 0.2633219507 0.1318169802
0.7548823600 0.2657069642 0.1289831214
0.7887730587 0.2630241423 0.1188763628
0.8231116433 0.2573401899 0.1042283264
0.8539061681 0.2536001335 0.0911380962
0.8809483644 0.2544646572 0.0826824142
0.9048804757 0.2603751376 0.0799270317
0.9258328507 0.2705660790 0.0828511949
0.9436972785 0.2841253920 0.0908789779
0.9581776409 0.3005933347 0.1033692768
0.0007084898 0.1519165240 0.0553827414
0.0012273544 0.1561634942 0.0509579231
0.0025355553 0.1619771331 0.0431128515
0.0076537964 0.1698185035 0.0308961483
0.0281417155 0.1744637627 0.0238106010
0.0585268118 0.1766532129 0.0210265535
0.0900946037 0.1785918580 0.0186298738
0.1248312707 0.1802724924 0.0167450412
0.1617996687 0.1817122304 0.0157775367
0.2004515322 0.1830976311 0.0162029064
0.2433706880 0.1856017994 0.0198356761
0.2911966780 0.1936489794 0.0347281089
0.3339489913 0.2058334431 0.0578674854
0.3720643180 0.2166592408 0.0740946547
0.4093804578 0.2241623250 0.0829698840
0.4464122928 0.2304726325 0.0890530904
0.4830178604 0.2371626365 0.0951788982
0.5202249375 0.2442238426 0.1014527947
0.5574757885 0.2515980287 0.1078848819
0.5941855497 0.2592522725 0.1144696861
0.6297629252 0.2671824758 0.1212105597
0.6634387455 0.2753826008 0.1280860340
0.6949143128 0.2833990130 0.1343285065
0.7249294325 0.2902592312 0.1384946578
0.7558439153 0.2938162064 0.1375377025
0.7888313802 0.2926982956 0.1296708332
0.8230508781 0.2878529951 0.1162962034
0.8548815762 0.2834315688 0.1028568233
0.8829530140 0.2829895826 0.0935691623
0.9072819817 0.2876816703 0.0899828988
0.9279711571 0.2971253116 0.0923262495
0.9452831916 0.3103530783 0.1000833280
0.9592744521 0.3265907400 0.1126127886
0.0007511642 0.1782220534 0.0692643985
0.0011705165 0.1817303682 0.0661298905
0.0020155280 0.1864536982 0.0608760969
0.0051753443 0.1944538898 0.0496610559
0.0186257793 0.2023492064 0.0375888590
0.0490276180 0.2053696133 0.0343109001
0.0805880625 0.2079194191 0.0316192989
0.1153432410 0.2102991886 0.0287381373
0.1533646875 0.2122914921 0.0261720646
0.1937818614 0.2138987126 0.0247054259
0.2373137093 0.2153652364 0.0251633177
0.2835436389 0.2176231106 0.0289037485
0.3325381617 0.2253289711 0.0425834594
0.3767683648 0.2384983078 0.0646550815
0.4150059205 0.2517832025 0.0835001480
0.4506152263 0.2616979374 0.0959551295
0.4866690692 0.2688864009 0.1033201558
0.5236219539 0.2757270555 0.1095873179
0.5605838491 0.2828656770 0.1159687629
0.5970036524 0.2902483596 0.1224848583
0.6323225041 0.2978406686 0.1291160182
0.6660902180 0.3053578256 0.1352973396
0.6980692967 0.3121995562 0.1399814765
0.7286492899 0.3177705247 0.1423303963
0.7593096520 0.3213575260 0.1414532832
0.7914658505 0.3214502234 0.1352653735
0.8249302234 0.3179909427 0.1238348617
0.8568549741 0.3140227444 0.1114690884
0.8853980341 0.3132068724 0.1027685713
0.9099276304 0.3171358657 0.0995833817
0.9303375198 0.3258835972 0.1023023146
0.9470701880 0.3386542019 0.1104304036
0.9604868538 0.3545367520 0.1232717875
0.0007601138 0.2065103111 0.0846975937
0.0011188726 0.2094904334 0.0817194511
0.0017235775 0.2133738635 0.0774878854
0.0037327812 0.2206995629 0.0683218047
0.0118707712 0.2308263451 0.0541263026
0.0392722298 0.2360803674 0.0474600250
0.0722241742 0.2386386690 0.0460524757
0.1062687822 0.2414754209 0.0439896391
0.1434953587 0.2442621506 0.0412446868
0.1839405824 0.2466028269 0.0384702585
0.2283314093 0.2484615945 0.0367724057
0.2757918284 0.2501072458 0.0372719111
0.3244137585 0.2522909884 0.0409936987
0.3738087521 0.2594275949 0.0528771827
0.4184895317 0.2728396403 0.0723051130
0.4564289746 0.2878470425 0.0923269864
0.4916580141 0.3001490304 0.1079949885
0.5274792617 0.3089431484 0.1178932627
0.5640226604 0.3160220318 0.1246320836
0.6001359150 0.3231090795 0.1310723959
0.6355062643 0.3301374730 0.1370219829
0.6697619005 0.3366629285 0.1416046886
0.7023126194 0.3422388476 0.1441408442
0.7334917304 0.3464728863 0.1441734933
0.7645233867 0.3490873423 0.1415027964
0.7962277545 0.3496699936 0.1357408085
0.8287932710 0.3476113450 0.1261885517
0.8600701281 0.3448967118 0.1160126160
0.8885218429 0.3445038815 0.1091646541
0.9129309800 0.3481829150 0.1076047628
0.9329588096 0.3563885861 0.1118272897
0.9490845596 0.3685912600 0.1212611186
0.9618743461 0.3839121911 0.1350600180
0.0007182479 0.2380373456 0.1033434396
0.0010200161 0.2405463941 0.1004399838
0.0014749754 0.2437273938 0.0966353129
0.0026013006 0.2493237148 0.0894646528
0.0073925840 0.2598480142 0.0745769415
0.0282108193 0.2692587507 0.0610240687
0.0637830651 0.2718797204 0.0589221370
0.0983446296 0.2743851104 0.0580413057
0.1349654536 0.2772681801 0.0567845151
0.1742086953 0.2802129041 0.0548784976
0.2172924006 0.2828328921 0.0524931880
0.2650996753 0.2849646455 0.0509629822
0.3151027730 0.2868500977 0.0515897786
0.3649515433 0.2891005329 0.0552026389
0.4138744674 0.2955727503 0.0649922418
0.4580424054 0.3086070806 0.0815670302
0.4970936795 0.3244854448 0.1013104900
0.5331138481 0.3386800677 0.1191282384
0.5683307791 0.3492695850 0.1317874017
0.6040600322 0.3568692716 0.1391864125
0.6399047057 0.3631039066 0.1435165562
0.6747012786 0.3685893376 0.1458853641
0.7076394827 0.3730275012 0.1459862422
0.7392046678 0.3761821770 0.1436909735
0.7705164572 0.3779317115 0.1390752613
0.8021069435 0.3783156455 0.1324611559
0.8338494931 0.3773378101 0.1241833698
0.8641641322 0.3761629456 0.1165948332
0.8921448983 0.3766977434 0.1124494704
0.9161987650 0.3805218246 0.1135290392
0.9357721923 0.3883104420 0.1202601100
0.9512949064 0.3998049652 0.1319083382
0.9634546636 0.4142738700 0.1474080266
0.0006440051 0.2727247700 0.1253463446
0.0008939869 0.2748057244 0.1225409199
0.0012442937 0.2773821236 0.1190441060
0.0019646664 0.2816597491 0.1131068007
0.0041412934 0.2895778375 0.1014819081
0.0156122373 0.3028510244 0.0807374297
0.0512173581 0.3084308303 0.0718131968
0.0891744368 0.3100341572 0.0706023326
0.1269342368 0.3122581415 0.0698664580
0.1659105323 0.3149690296 0.0691974940
0.2072891320 0.3178586940 0.0681632161
0.2535638729 0.3205587761 0.0667383128
0.3034861802 0.3229155333 0.0658143301
0.3546161011 0.3250674831 0.0666665754
0.4044422598 0.3274915087 0.0700629657
0.4519251089 0.3333241365 0.0781906890
0.4964825270 0.3455119833 0.0925490535
0.5373125835 0.3613979293 0.1108118165
0.5745015365 0.3765198473 0.1284376265
0.6101882241 0.3880753582 0.1408879536
0.6458548400 0.3957250551 0.1466057118
0.6808194934 0.4006668180 0.1471682926
0.7138103694 0.4042353500 0.1449336326
0.7454553091 0.4066629598 0.1406284338
0.7767528469 0.4079509630 0.1345898669
0.8080778217 0.4082403342 0.1273283084
0.8389203991 0.4080590656 0.1200723819
0.8683115106 0.4082710669 0.1148687075
0.8957247612 0.4098431121 0.1135754904
0.9193910171 0.4139627110 0.1177071120
0.9385708579 0.4213367276 0.1274770713
0.9535971139 0.4319106466 0.1418603397
0.9652139274 0.4451472865 0.1595358107
0.0005588802 0.3100082379 0.1503249728
0.0007662195 0.3117494703 0.1477027567
0.0010431648 0.3138576950 0.1445134230
0.0015558695 0.3172186833 0.1393809256
0.0026714014 0.3227254666 0.1307845019
0.0071979485 0.3339101309 0.1125850252
0.0322549597 0.3467159567 0.0902809070
0.0749681061 0.3489212072 0.0851731106
0.1160985177 0.3500880472 0.0834293547
0.1569897639 0.3518631207 0.0824222745
0.1983978409 0.3541900795 0.0818735523
0.2432101058 0.3568306981 0.0813297647
0.2918723233 0.3594447152 0.0806067841
0.3428253709 0.3618831716 0.0804162788
0.3938194364 0.3642365231 0.0817589668
0.4424984195 0.3668392237 0.0853615308
0.4890564469 0.3720377168 0.0925793304
0.5348062608 0.3829776252 0.1044668279
0.5773682442 0.3979095639 0.1190166078
0.6164148690 0.4126849451 0.1325308708
0.6530845467 0.4241797346 0.1411924270
0.6877866914 0.4315155405 0.1434950222
0.7203810696 0.4355413356 0.1407075909
0.7517763185 0.4376831011 0.1351827243
0.7827525395 0.4388896407 0.1285447665
0.8134634464 0.4394736093 0.1216733491
0.8431972013 0.4400804201 0.1161496364
0.8717688393 0.4413262091 0.1132105158
0.8987063192 0.4437514248 0.1144589244
0.9221294773 0.4480867095 0.1213056893
0.9411237436 0.4549340672 0.1338136708
0.9558894129 0.4644887162 0.1506619404
0.9671698934 0.4765677005 0.1702616686
0.0004765847 0.3489708211 0.1773504544
0.0006498219 0.3504798662 0.1750288766
0.0008740335 0.3522649880 0.1722276590
0.0012646139 0.3550134778 0.1678201543
0.0019936976 0.3592153834 0.1609029693
0.0037477824 0.3661758092 0.1490705413
0.0132366317 0.3809011693 0.1230882737
0.0536571539 0.3900786583 0.1040843859
0.0996334120 0.3906159247 0.1002049118
0.1440843539 0.3913437752 0.0977412648
0.1877452207 0.3926226554 0.0962580814
0.2329007983 0.3944432905 0.0955155881
0.2810787295 0.3966350740 0.0950855352
0.3315795527 0.3989367215 0.0947824373
0.3829316650 0.4012063738 0.0951346532
0.4330430489 0.4035008282 0.0969656113
0.4804840625 0.4060962678 0.1009121794
0.5273345200 0.4106596456 0.1075302285
0.5734028458 0.4201691142 0.1166261595
0.6169667443 0.4335514634 0.1259127694
0.6570879197 0.4471633080 0.1328392598
0.6932901187 0.4580433385 0.1354105452
0.7262177354 0.4651477380 0.1333106628
0.7575204932 0.4689480263 0.1281052669
0.7880114597 0.4707690144 0.1220098342
0.8177095188 0.4720137434 0.1169537028
0.8464188142 0.4734180224 0.1138514281
0.8742528692 0.4754357242 0.1134936642
0.9008428922 0.4785384314 0.1169355575
0.9242462702 0.4831418433 0.1255585991
0.9433644383 0.4896616743 0.1394887653
0.9582248130 0.4982231628 0.1572827121
0.9694032840 0.5089946624 0.1778892434
0.0004075824 0.3885103870 0.2054819236
0.0005539477 0.3898531270 0.2034766560
0.0007393162 0.3914206894 0.2010764098
0.0010502354 0.3937783347 0.1973567257
0.0015843571 0.3972186579 0.1917234270
0.0026138322 0.4023341911 0.1829578329
0.0055630221 0.4112409710 0.1668498560
0.0279970116 0.4282279594 0.1341734708
0.0767815117 0.4324737701 0.1212599361
0.1260457747 0.4324547960 0.1167097381
0.1735952055 0.4327513023 0.1130871472
0.2209860387 0.4334511804 0.1105608956
0.2707833803 0.4345830426 0.1090011421
0.3222095564 0.4360581331 0.1081269629
0.3741888327 0.4377404497 0.1079093515
0.4250799756 0.4395872623 0.1088250727
0.4734793509 0.4416693280 0.1114427837
0.5209329722 0.4441990369 0.1161269815
0.5670078118 0.4482620457 0.1227166091
0.6120432554 0.4564745638 0.1295057981
0.6549082816 0.4684658857 0.1337380574
0.6937055927 0.4812929025 0.1339292417
0.7283568890 0.4920771029 0.1301798505
0.7607039089 0.4994837107 0.1240024673
0.7914078097 0.5039091641 0.1181250256
0.8206197900 0.5066123615 0.1146520812
0.8485803103 0.5088261170 0.1141541774
0.8758725629 0.5114216978 0.1164134669
0.9022603654 0.5148571101 0.1216389698
0.9259189502 0.5193919601 0.1305933198
0.9455628785 0.5251272442 0.1434655904
0.9607999322 0.5323326733 0.1599307581
0.9719990672 0.5415999129 0.1803230556
0.0003676004 0.4277907799 0.2344144382
0.0004951491 0.4289809334 0.2326506235
0.0006543760 0.4303597659 0.2305351096
0.0009154348 0.4324081399 0.2272566891
0.0013441486 0.4353290088 0.2223241175
0.0020908104 0.4394670897 0.2148901055
0.0036617902 0.4457021053 0.2029719942
0.0104879248 0.4586957580 0.1774242296
0.0529150895 0.4727795197 0.1461605132
0.1065020855 0.4735720244 0.1373378889
0.1588116778 0.4731706932 0.1312952954
0.2094721369 0.4729643780 0.1261493633
0.2618339411 0.4730509641 0.1222956049
0.3152443552 0.4734932868 0.1199029903
0.3684468263 0.4742939515 0.1188327774
0.4201163431 0.4754374842 0.1191199240
0.4689944740 0.4769668497 0.1210749404
0.5169638060 0.4789741242 0.1249463661
0.5633996892 0.4816200203 0.1307666957
0.6074793151 0.4856011449 0.1379224098
0.6499602750 0.4931929917 0.1435192281
0.6896448643 0.5043363182 0.1444242661
0.7256644681 0.5166003098 0.1399841004
0.7594176017 0.5274188677 0.1320264581
0.7913942277 0.5355403459 0.1239727278
0.8213714690 0.5411457902 0.1191140219
0.8495884791 0.5450692787 0.1185131805
0.8768771052 0.5482896111 0.1216823698
0.9034110037 0.5516116800 0.1272765927
0.9277258233 0.5554773777 0.1342125095
0.9481403666 0.5600725972 0.1434434654
0.9637451895 0.5659021715 0.1565286180
0.9749218022 0.5737688629 0.1752757175
0.0004171637 0.4663632965 0.2597841883
0.0005384103 0.4674592167 0.2581175391
0.0006884815 0.4687275358 0.2561208778
0.0009312179 0.4706073296 0.2530330125
0.0013209243 0.4732727354 0.2484092055
0.0019699747 0.4769969489 0.2415258297
0.0031945527 0.4823910729 0.2308867450
0.0065871344 0.4916416595 0.2117895502
0.0360459617 0.5108438030 0.1717892023
0.0910266098 0.5152291772 0.1553611561
0.1475529731 0.5144758330 0.1479647087
0.2013130161 0.5136944503 0.1409935737
0.2559884420 0.5130213686 0.1350534049
0.3113670003 0.5125926836 0.1306628576
0.3658555216 0.5125140073 0.1281435476
0.4182145606 0.5128371153 0.1275598168
0.4673931685 0.5136377261 0.1289588299
0.5154874327 0.5150168565 0.1324073277
0.5621611844 0.5170663436 0.1378249834
0.6063201321 0.5198860760 0.1449548970
0.6473378825 0.5238692278 0.1530183457
0.6855087875 0.5308881867 0.1586089656
0.7209267165 0.5411914796 0.1584761195
0.7548441343 0.5529165498 0.1525175710
0.7878032591 0.5638450394 0.1434484577
0.8192828021 0.5727023989 0.1351716980
0.8488188142 0.5793102642 0.1306172926
0.8772685242 0.5840009524 0.1296268104
0.9049626337 0.5873895525 0.1306867249
0.9302481973 0.5903512266 0.1329069041
0.9512676034 0.5938091127 0.1368942366
0.9669348869 0.5985277755 0.1448927073
0.9779078271 0.6053119328 0.1599822753
0.0006156385 0.5058393547 0.2778399422
0.0007441410 0.5069048700 0.2761446471
0.0009021945 0.5081374412 0.2741251947
0.0011559127 0.5099625466 0.2710208867
0.0015588631 0.5125449291 0.2664031864
0.0022189641 0.5161354021 0.2595791584
0.0034233932 0.5212707065 0.2491490173
0.0064153680 0.5296726754 0.2311053792
0.0305658027 0.5489700311 0.1894957251
0.0849744234 0.5560447916 0.1680348798
0.1430963070 0.5554029455 0.1603514395
0.1984319159 0.5544748386 0.1530642138
0.2544125231 0.5534868818 0.1463850919
0.3109541871 0.5525637694 0.1409219710
0.3661908515 0.5518720884 0.1372291708
0.4187413958 0.5515521617 0.1356304690
0.4678584362 0.5516911721 0.1361831950
0.5158736831 0.5524008174 0.1389834901
