latent/luts/08Arcade.cube
TITLE "Arcade"
#LUMIXPHOTOSTYLE STD
# look 08Arcade (骑楼)  order=PGN  source=08Arcade.json
LUT_3D_SIZE 5
0.0000000000 0.0000000000 0.0000000000
0.1615832703 0.0080936769 0.0041271709
0.4818622925 0.0753463776 0.0406894938
0.7680515576 0.1211478324 0.0470315554
0.9525375747 0.1999301724 0.0713587350
0.0007084898 0.1519165240 0.0553827414
0.1617996687 0.1817122304 0.0157775367
0.4830178604 0.2371626365 0.0951788982
0.7558439153 0.2938162064 0.1375377025
0.9592744521 0.3265907400 0.1126127886
0.0003676004 0.4277907799 0.2344144382
0.0529150895 0.4727795197 0.1461605132
0.4689944740 0.4769668497 0.1210749404
0.7913942277 0.5355403459 0.1239727278
0.9749218022 0.5737688629 0.1752757175
0.0049298258 0.7293449028 0.3290458422
0.0861758309 0.7614220211 0.2206772564
0.4545164046 0.7651800242 0.2223059562
0.7747133798 0.7688603309 0.2511831344
0.9872136274 0.7904897956 0.2809045743
0.0097309975 0.9580055463 0.5314409737
0.0535475210 0.9736860680 0.4641175865
0.4759864379 0.9843045492 0.4207199563
0.7772661165 0.9884094124 0.4415848458
0.9941727510 0.9924061469 0.4707565783
0.0017428984 0.0037771917 0.1448147386
0.2045942849 0.0050931107 0.1506161271
0.5321161150 0.0364309132 0.1663759424
0.7952099441 0.0900012426 0.1704967630
0.9628716370 0.1889821903 0.2146684394
0.0035283915 0.1829910558 0.1925801900
0.1756655543 0.1910879906 0.1971456982
0.5199944781 0.2095294010 0.2037120614
0.7832144518 0.2594313519 0.2180180172
0.9650675538 0.3235143430 0.2402590937
0.0014099782 0.4347833199 0.2929748802
0.1081116668 0.4758295651 0.2417666439
0.5014441474 0.4924729251 0.2280969396
0.7962743680 0.5433551933 0.2563627912
0.9781093542 0.5743364291 0.3033359288
0.0047277755 0.7307300720 0.4176362439
0.0826687358 0.7620550743 0.3295069117
0.4679431783 0.7637701998 0.3158361438
0.7806946429 0.7677201773 0.3488325365
0.9895782240 0.7956669142 0.3436284291
0.0095799436 0.9587397426 0.5936969220
0.0489864766 0.9735635144 0.5383043230
0.4774430609 0.9846269558 0.4940429034
0.7788140479 0.9886018617 0.5105584631
0.9948099609 0.9924874070 0.5406720955
0.0187329246 0.0204623002 0.4273363855
0.2441370194 0.0158265850 0.4201994880
0.5719521183 0.0140721137 0.3760567270
0.8222148097 0.0644919872 0.4091470896
0.9703005078 0.1819247275 0.4609814442
0.0386539519 0.1842814973 0.4562978054
0.2119443192 0.1947673582 0.4813317407
0.5705913163 0.2054500206 0.4682775928
0.8184610400 0.2363508565 0.4513587658
0.9719972326 0.3245334175 0.4855827700
0.0072981003 0.4756515795 0.5255014554
0.1660198639 0.5038062531 0.5347898317
0.5245615986 0.5104367333 0.5300370120
0.7955226856 0.5250921656 0.5334517511
0.9761394146 0.5848312959 0.5502524595
0.0044557666 0.7371742777 0.5966407020
0.0965233390 0.7666835493 0.5453471323
0.5120906011 0.7690651243 0.5215925613
0.7935159580 0.7830132938 0.5592630252
0.9897804729 0.8104016460 0.5920016096
0.0084813205 0.9609050292 0.7293281408
0.0291655937 0.9720501817 0.7089958594
0.4762946579 0.9858983610 0.6708959041
0.7886095183 0.9888300140 0.6660506009
0.9979617305 0.9908287470 0.7261696350
0.0567341545 0.0601043036 0.7053194006
0.2597432460 0.0559017380 0.7064377353
0.6125884667 0.0320562569 0.6695199453
0.8422383257 0.0289201681 0.6334077219
0.9808229307 0.1559492448 0.6559933317
0.0939274982 0.2017969538 0.7198671106
0.2699347734 0.2045219174 0.7234961619
0.6153222526 0.1990716182 0.7099083787
0.8663959773 0.1999716929 0.6746858837
0.9827238618 0.3203818323 0.6801273765
0.1052204237 0.4895216021 0.7496427683
0.2452778911 0.4984572115 0.7517533035
0.5564006689 0.5142613926 0.7719999822
0.8319401389 0.5284555027 0.7589420270
0.9847007489 0.5930377772 0.7428729797
0.0146432256 0.7578076248 0.7968720836
0.1560663332 0.7775589555 0.8158271241
0.5149753950 0.7921077139 0.7994578221
0.7959103526 0.7956668993 0.7959883377
0.9878329886 0.8084629260 0.8044391687
0.0068595244 0.9649459429 0.8860120994
0.0169431472 0.9729870465 0.8786410160
0.4872760009 0.9885921036 0.8387314425
0.8111016350 0.9912987142 0.8153785849
0.9993795531 0.9950679923 0.8650658261
0.1068955851 0.1124116357 0.8909624479
0.2847317012 0.1102866742 0.8941621298
0.6246860238 0.0867769945 0.8881781556
0.8722471828 0.0504127671 0.8465612202
0.9880142758 0.1181976784 0.8009673234
0.1459915603 0.2372357681 0.9028724749
0.3062025183 0.2382035441 0.9062131523
0.6266848881 0.2276212687 0.9069575753
0.8870822954 0.2025704981 0.8813405133
0.9909754735 0.3291284315 0.8186517506
0.1956110653 0.5098576780 0.9286433599
0.3310878031 0.5144063708 0.9314386866
0.6157273008 0.5216580524 0.9376935375
0.8727354986 0.5164048579 0.9288600324
0.9936879186 0.6037841832 0.8651585188
0.2199649889 0.7694188112 0.9665794436
0.3354786281 0.7735401935 0.9653056333
0.5868770073 0.7849923489 0.9665588674
0.8166320912 0.7971755532 0.9781202729
0.9953291928 0.8203692480 0.9554436940
0.2462776287 0.9623262176 0.9986991033
0.4534469465 0.9674552155 0.9984260707
0.6629688523 0.9787365873 0.9978021365
0.8284180540 0.9935871089 0.9966742370
1.0000000000 1.0000000000 1.0000000000
