latent/luts/09Tinsel.cube
TITLE "Tinsel"
#LUMIXPHOTOSTYLE STD
# look 09Tinsel (千禧金)  order=PGN  source=09Tinsel.json
LUT_3D_SIZE 5
0.0079877983 0.0078431373 0.0086599744
0.2101766541 0.0383651660 0.0255890984
0.4766974316 0.1313331223 0.0308480497
0.7176108822 0.2298574822 0.0446787548
0.8944542798 0.3465510652 0.0883732131
0.0908263710 0.2102065427 0.0301682548
0.2460622523 0.2350803586 0.0335071242
0.5400809696 0.2877702496 0.0490744956
0.7479516195 0.3641899724 0.0471677546
0.9109959754 0.4627522418 0.0919180601
0.2775767487 0.4797371299 0.0385562556
0.3555677309 0.4983351931 0.0468155509
0.5619418272 0.5441196704 0.0596186428
0.8067769346 0.5964127031 0.1009738040
0.9556225190 0.6460706025 0.1544776245
0.4820781229 0.7462896586 0.0549856082
0.5354289556 0.7535321834 0.0570773931
0.6735784434 0.7743097991 0.0675309385
0.8378802478 0.8093325290 0.0760159269
0.9825651868 0.8461017624 0.2594394908
0.6874028956 0.9576519415 0.1035963619
0.7196163020 0.9608478717 0.1059604626
0.8048748640 0.9695639251 0.1148767158
0.9232576586 0.9811828331 0.1298055694
0.9992057710 0.9906735491 0.4805827088
0.0145422213 0.0187002550 0.1517282871
0.2394130391 0.0233680636 0.2146902523
0.5535593761 0.0524554792 0.2239296803
0.8057938923 0.1274548517 0.1970301948
0.9402590423 0.2762206977 0.2031544537
0.0322918239 0.2254423213 0.2179035218
0.2419613907 0.2342074323 0.2282247834
0.5823955118 0.2432312057 0.2185375745
0.8401030827 0.2872142335 0.1785057489
0.9557653306 0.4140465140 0.2123061408
0.1865032923 0.5032363927 0.2067736047
0.3024426140 0.5142098003 0.2231638523
0.5635091683 0.5433082949 0.2299543524
0.8439708091 0.5745728203 0.2381444809
0.9759296627 0.6316596375 0.3190257411
0.4022272439 0.7711335962 0.1780468741
0.4727620642 0.7758285338 0.1867464441
0.6437102652 0.7896658179 0.2169664302
0.8412622911 0.8172129178 0.2278069312
0.9881267297 0.8446219311 0.4108940412
0.6317938678 0.9711065019 0.2297175579
0.6715319636 0.9733676747 0.2386073226
0.7753587403 0.9788704558 0.2622249368
0.9143556394 0.9864300630 0.2881798235
0.9994856800 0.9915861169 0.6533644299
0.0262998788 0.0442899031 0.3684746547
0.2421495948 0.0260984855 0.4565996252
0.5453946349 0.0427235823 0.4765438047
0.8038971282 0.0848434844 0.4914440030
0.9590686039 0.2074567819 0.5119401772
0.0383756675 0.2146346747 0.4266367591
0.2363392097 0.2266527047 0.5066126833
0.5843250467 0.2365879102 0.5392025606
0.8576478633 0.2467606232 0.5107268545
0.9761318577 0.3673228843 0.5164188096
0.1236441528 0.5124996700 0.4723752982
0.2541865018 0.5288060779 0.4996594078
0.5541600920 0.5376554338 0.5150810161
0.8409874466 0.5438810921 0.5081137597
0.9846298222 0.6226803587 0.5562087034
0.3383147696 0.7771825467 0.4763336528
0.4117907316 0.7811387025 0.4949159610
0.6021155759 0.7956516998 0.5196324140
0.8285299767 0.8167739050 0.5177179347
0.9925590971 0.8394837132 0.6438528068
0.5749635497 0.9793898774 0.4956071945
0.6223266325 0.9808021160 0.5016424644
0.7441409551 0.9845212289 0.5199527738
0.8958288241 0.9904073026 0.5495149134
0.9993026861 0.9945193633 0.7732944126
0.0388119745 0.0919240121 0.6032581480
0.2469216056 0.0403201689 0.6820051231
0.5432734175 0.0501437342 0.7109073148
0.7955267294 0.0748130198 0.7179715648
0.9541410907 0.1711309136 0.7269956692
0.0505707276 0.2358082151 0.6672354422
0.2398204183 0.2237902761 0.7654231300
0.5855545891 0.2236001032 0.8042747222
0.8563282948 0.2367557238 0.7766545682
0.9781427426 0.3564675722 0.7469472908
0.1171910701 0.4973935709 0.7061222271
0.2499233688 0.5070558445 0.7330853723
0.5493089291 0.5305279246 0.7958864961
0.8506453302 0.5373165255 0.8158509923
0.9871037341 0.6103508456 0.7847760876
0.2707948456 0.7814971440 0.7414259153
0.3620708371 0.7875819526 0.7508594517
0.5649983366 0.8081782269 0.7908330990
0.8211194286 0.8142714398 0.8035909780
0.9915054672 0.8315084846 0.8145704396
0.5367673089 0.9831570063 0.7499074173
0.5838090808 0.9844865325 0.7589370475
0.7034362319 0.9882380547 0.7896909880
0.8669225132 0.9939448718 0.8155051457
0.9990276705 0.9978572407 0.8824729133
0.0621294401 0.1564003871 0.7903109064
0.2578973197 0.1050994391 0.8731785883
0.5376302744 0.0724023116 0.8586015929
0.7849252733 0.1057027285 0.8818725665
0.9477239551 0.1815308993 0.8784708463
0.0836139422 0.2758849720 0.8405908767
0.2587652677 0.2561827612 0.9174663107
0.5637763095 0.2488088863 0.9464722225
0.8237974852 0.2885066607 0.9420570173
0.9716380103 0.3846117759 0.9071115687
0.1408331466 0.5203501578 0.8842999158
0.2745608418 0.5225632550 0.9248419880
0.5592890014 0.5331316010 0.9614857063
0.8343187513 0.5592984451 0.9714608352
0.9825998632 0.6263368186 0.9399953848
0.2574087965 0.7802017942 0.9254612971
0.3526233505 0.7829874171 0.9385707377
0.5736491806 0.7948127653 0.9646190911
0.8248343372 0.8146675752 0.9864183087
0.9893729023 0.8455295280 0.9796542424
0.4886093071 0.9865934608 0.9537821873
0.5434136363 0.9876473554 0.9614939820
0.6908262371 0.9909400339 0.9769765612
0.8665286004 0.9953888230 0.9938168924
1.0000000000 1.0000000000 1.0000000000
