latent/luts/09Tinsel.cube
TITLE "Tinsel"
#LUMIXPHOTOSTYLE STD
# look 09Tinsel (千禧金)  order=PGN  source=09Tinsel.json
LUT_3D_SIZE 33
0.0079877983 0.0078431373 0.0086599744
0.0231289428 0.0090874697 0.0100163686
0.0410864672 0.0105396352 0.0115833695
0.0629930146 0.0128572992 0.0138262230
0.0886689659 0.0162409385 0.0167106209
0.1163475708 0.0203285887 0.0195091973
0.1459575599 0.0252135533 0.0219598164
0.1773564019 0.0311055307 0.0240106142
0.2101766541 0.0383651660 0.0255890984
0.2437468773 0.0472981550 0.0266938945
0.2779762794 0.0578876640 0.0273958739
0.3123540369 0.0699098855 0.0277736440
0.3460514321 0.0824908375 0.0280481929
0.3794583146 0.0949079373 0.0285127775
0.4126253960 0.1069958044 0.0291922369
0.4451653963 0.1190842942 0.0299880299
0.4766974316 0.1313331223 0.0308480497
0.5076213694 0.1437179898 0.0318002717
0.5387055132 0.1562022070 0.0328856224
0.5698472972 0.1686691477 0.0341613673
0.6008489569 0.1810480233 0.0356685897
0.6314539229 0.1933057083 0.0374461770
0.6613588723 0.2054505812 0.0395309425
0.6902033420 0.2175782612 0.0419408441
0.7176108822 0.2298574822 0.0446787548
0.7437533511 0.2423901304 0.0477883968
0.7688128246 0.2553859090 0.0513334842
0.7927212116 0.2689340978 0.0553963779
0.8154354779 0.2830891272 0.0600855424
0.8369236392 0.2978904685 0.0655449189
0.8571823787 0.3133640277 0.0719576876
0.8761993569 0.3295645365 0.0795062623
0.8944542798 0.3465510652 0.0883732131
0.0113525617 0.0249368798 0.0122271607
0.0272619222 0.0267373061 0.0114346568
0.0478566083 0.0276988417 0.0123346189
0.0719044328 0.0291536625 0.0137657264
0.0981297896 0.0313153329 0.0156980479
0.1255886365 0.0348905880 0.0180099512
0.1551667635 0.0397300517 0.0201666246
0.1865644084 0.0465159936 0.0219495132
0.2191793193 0.0554374640 0.0232419752
0.2520585658 0.0659500028 0.0241588998
0.2852862207 0.0771877396 0.0248942198
0.3184689109 0.0885397006 0.0255601046
0.3513602126 0.0997558711 0.0262199431
0.3843186499 0.1106917014 0.0270374848
0.4171965872 0.1216151914 0.0279952155
0.4494191281 0.1327867565 0.0289877690
0.4805965884 0.1442453507 0.0299941983
0.5112868013 0.1559258055 0.0310532752
0.5420738519 0.1677989754 0.0322055772
0.5728808676 0.1797681280 0.0335139374
0.6035551840 0.1917373294 0.0350330828
0.6338573891 0.2036548854 0.0368078681
0.6634979981 0.2154981624 0.0388858813
0.6921339606 0.2273114594 0.0413022559
0.7193809538 0.2392546193 0.0440653660
0.7454188497 0.2515555998 0.0472096412
0.7703823201 0.2643286495 0.0507990524
0.7941955106 0.2776384104 0.0549149713
0.8168088961 0.2915454805 0.0596633664
0.8381854688 0.3060979332 0.0651840658
0.8583271752 0.3213266603 0.0716591282
0.8772344188 0.3372774259 0.0792801497
0.8954448299 0.3540067984 0.0882318041
0.0155228770 0.0454064661 0.0161448777
0.0298864158 0.0483973068 0.0139454462
0.0505403407 0.0494951563 0.0143849194
0.0746935990 0.0507516503 0.0153292762
0.1011801049 0.0524070271 0.0165138451
0.1293691943 0.0548525807 0.0180650520
0.1595796038 0.0589847206 0.0200291138
0.1918666383 0.0651393026 0.0217561500
0.2250924128 0.0736237361 0.0230908747
0.2582679772 0.0838269212 0.0239903544
0.2913908792 0.0946893099 0.0246099326
0.3240922605 0.1053209007 0.0251526688
0.3564254118 0.1156428348 0.0257404325
0.3889770089 0.1256976311 0.0265495274
0.4215638307 0.1358077172 0.0275267855
0.4535000725 0.1462809056 0.0285413674
0.4844093708 0.1571069817 0.0295773365
0.5149556424 0.1682125873 0.0306605749
0.5455271685 0.1795547553 0.0318249643
0.5760322200 0.1910829741 0.0331215747
0.6063837628 0.2026915817 0.0346156352
0.6363736259 0.2143170204 0.0363566116
0.6657302152 0.2259147356 0.0383976890
0.6941323464 0.2374828745 0.0407880339
0.7212145264 0.2492251532 0.0435515252
0.7471502248 0.2613473354 0.0467117125
0.7720231583 0.2739139062 0.0503312127
0.7957478678 0.2869926047 0.0544904178
0.8182663864 0.3006507313 0.0592926348
0.8395352885 0.3149459792 0.0648730865
0.8595582511 0.3299187767 0.0714093223
0.8783514783 0.3456076908 0.0791026661
0.8965203493 0.3620658066 0.0881412539
0.0212958467 0.0695905171 0.0201610373
0.0344211529 0.0729579371 0.0174115988
0.0538933246 0.0746369348 0.0167946265
0.0777656260 0.0759718370 0.0174614687
0.1039475403 0.0774826276 0.0183715757
0.1319567023 0.0794489056 0.0194677696
0.1632972684 0.0833029807 0.0212837294
0.1967178851 0.0888215512 0.0230776239
0.2310793605 0.0961901900 0.0245380844
0.2652956237 0.1050330638 0.0255130925
0.2991709822 0.1146365971 0.0260731049
0.3321831907 0.1243720535 0.0264273375
0.3643720514 0.1339844557 0.0267581003
0.3961162957 0.1435221623 0.0272012168
0.4278687771 0.1531070831 0.0278931633
0.4591205020 0.1630151876 0.0287185454
0.4895437073 0.1732557897 0.0296393274
0.5198439923 0.1837926216 0.0306473200
0.5501532979 0.1945836724 0.0317548199
0.5803015772 0.2056085819 0.0329890330
0.6102255963 0.2168040335 0.0344087895
0.6397862939 0.2281007829 0.0360709033
0.6687388939 0.2394492311 0.0380302090
0.6967906853 0.2509087674 0.0403471696
0.7236288486 0.2625396337 0.0430708440
0.7494256261 0.2744817152 0.0462227578
0.7741840133 0.2868219392 0.0498576915
0.7978030347 0.2996296962 0.0540554881
0.8202102625 0.3129801629 0.0589163405
0.8413511578 0.3269441010 0.0645693448
0.8612263950 0.3415782659 0.0711830698
0.8798739542 0.3569201875 0.0789670811
0.8979926929 0.3730169993 0.0881180114
0.0291604120 0.0955527649 0.0232188956
0.0421790352 0.0988514502 0.0206768603
0.0595345607 0.1010388101 0.0196561517
0.0819575647 0.1028480493 0.0198634800
0.1074025594 0.1045311229 0.0206109082
0.1350003579 0.1063569919 0.0214846578
0.1646861889 0.1086751721 0.0226408407
0.2011051398 0.1147079297 0.0252455000
0.2385654276 0.1224637434 0.0275094412
0.2735977489 0.1298180312 0.0286909625
0.3082692649 0.1378362282 0.0292446944
0.3418553308 0.1461288573 0.0293940444
0.3743941270 0.1545689370 0.0294253985
0.4061654054 0.1632895208 0.0295156744
0.4370568322 0.1725172037 0.0296703160
0.4672238219 0.1820936433 0.0300315671
0.4967323164 0.1919398020 0.0305975426
0.5264311679 0.2020238200 0.0313485747
0.5562386471 0.2123331923 0.0322689106
0.5859138645 0.2228588695 0.0333576076
0.6152779175 0.2336014833 0.0346365144
0.6442546136 0.2445664205 0.0361616289
0.6726469548 0.2558155312 0.0379858843
0.7001885649 0.2672804148 0.0401711764
0.7266439969 0.2788939563 0.0427882841
0.7522299238 0.2907087769 0.0458855232
0.7768325981 0.3028517251 0.0495022648
0.8003235929 0.3153922154 0.0537176920
0.8226071297 0.3284103251 0.0586299127
0.8436099697 0.3419911433 0.0643614489
0.8633230852 0.3562123387 0.0710692585
0.8818111880 0.3711255944 0.0789595471
0.8998655469 0.3867745887 0.0882453957
0.0404643308 0.1224175578 0.0251692960
0.0538372320 0.1254563161 0.0232116896
0.0688301622 0.1278648168 0.0224292807
0.0887607828 0.1302672934 0.0224317347
0.1124454330 0.1325253552 0.0230327979
0.1390926395 0.1347144429 0.0238188076
0.1681964966 0.1370419758 0.0247240507
0.1991889864 0.1399270553 0.0262400587
0.2348453530 0.1450549192 0.0284349274
0.2824734979 0.1570266976 0.0330714649
0.3180302678 0.1639148986 0.0340007865
0.3519082115 0.1706501722 0.0339623889
0.3848746271 0.1778644379 0.0336291284
0.4169743057 0.1857040446 0.0332884111
0.4479990658 0.1941189204 0.0330315707
0.4775704443 0.2031336735 0.0328206612
0.5063392964 0.2125878492 0.0328223927
0.5352944719 0.2222941628 0.0331191974
0.5642891272 0.2322090539 0.0336688711
0.5931976164 0.2423219959 0.0344666609
0.6218313273 0.2527322693 0.0355127345
0.6500271149 0.2634779684 0.0368280517
0.6776622763 0.2745783257 0.0384596329
0.7044963139 0.2860055646 0.0404573373
0.7303815161 0.2976604214 0.0428964902
0.7555958515 0.3094632525 0.0458619077
0.7799552751 0.3214866279 0.0494063659
0.8032667695 0.3338206754 0.0535978035
0.8254015927 0.3465363975 0.0585362047
0.8462578875 0.3597265825 0.0643398701
0.8658069495 0.3734886970 0.0711545799
0.8841466280 0.3878997259 0.0791708890
0.9021199708 0.4030212208 0.0886118322
0.0562932103 0.1505721461 0.0264201392
0.0685466877 0.1531820940 0.0252895205
0.0815734101 0.1555685804 0.0248342811
0.0989362531 0.1583063259 0.0248808799
0.1202373616 0.1611521254 0.0254315696
0.1451716035 0.1639527950 0.0262603065
0.1730467861 0.1667327092 0.0270537501
0.2032374571 0.1696856000 0.0281971658
0.2351824017 0.1732175519 0.0302592375
0.2691798817 0.1775617548 0.0316983237
0.3190446695 0.1884750425 0.0365868262
0.3613902032 0.1976083073 0.0396152242
0.3948408463 0.2038625954 0.0391832763
0.4275032973 0.2107616034 0.0385204423
0.4589423639 0.2182640232 0.0378452973
0.4888442242 0.2263289612 0.0372424546
0.5177228773 0.2350334934 0.0366658736
0.5459643229 0.2443928261 0.0362062940
0.5742110753 0.2540699831 0.0361918718
0.6023023215 0.2640214924 0.0365442446
0.6300702841 0.2742234334 0.0372294930
0.6573474416 0.2846834315 0.0382438134
0.6840261763 0.2954738139 0.0396127596
0.7099482418 0.3066771328 0.0413727092
0.7350785469 0.3182664215 0.0435795668
0.7596893062 0.3301085651 0.0463288737
0.7836297090 0.3421092212 0.0497220687
0.8066514425 0.3543321252 0.0538267144
0.8285710370 0.3668317859 0.0587425265
0.8492510909 0.3796846227 0.0645907869
0.8686319257 0.3929920284 0.0715124654
0.8868617068 0.4068551571 0.0796808541
0.9047371833 0.4213760961 0.0892997316
0.0737134305 0.1798210062 0.0280259135
0.0847316518 0.1820444063 0.0273421112
0.0963275008 0.1842577309 0.0270675809
0.1117073723 0.1870265028 0.0271637759
0.1309892145 0.1901799667 0.0277021590
0.1539377057 0.1935062462 0.0285722826
0.1800804648 0.1968770604 0.0295288412
0.2088682129 0.2002912684 0.0302881729
0.2397566052 0.2039565833 0.0320144505
0.2727473022 0.2081503766 0.0344182336
0.3080596601 0.2130214644 0.0358623766
0.3513236754 0.2207252124 0.0386863468
0.4018507004 0.2313800896 0.0445601153
0.4372209997 0.2382271386 0.0450028668
0.4691039409 0.2448769478 0.0440777133
0.4996020008 0.2520879304 0.0431060525
0.5294053341 0.2599070455 0.0421736573
0.5581956798 0.2684906924 0.0412194440
0.5856790957 0.2779540951 0.0402484410
0.6128391917 0.2877572126 0.0398408076
0.6397006104 0.2977678321 0.0399683394
0.6660687424 0.3079814143 0.0405522682
0.6917667513 0.3184240525 0.0415704772
0.7166633914 0.3292130835 0.0430347679
0.7409417396 0.3404688501 0.0449740741
0.7647635430 0.3521668589 0.0474591807
0.7880372332 0.3641501594 0.0506115821
0.8105874907 0.3763150269 0.0545521910
0.8321616091 0.3886928621 0.0593750097
0.8525865233 0.4013085435 0.0652126781
0.8717675878 0.4142273342 0.0722163101
0.8899287680 0.4275563292 0.0805490624
0.9077025089 0.4414315224 0.0903821541
0.0908263710 0.2102065427 0.0301682548
0.1008049445 0.2121172544 0.0296859163
0.1113944039 0.2140925878 0.0294647230
0.1257083358 0.2166775051 0.0295199859
0.1436665223 0.2198076177 0.0299730467
0.1650191037 0.2233417475 0.0308011216
0.1894840947 0.2271174767 0.0318433960
0.2166427387 0.2310368269 0.0328358921
0.2460622523 0.2350803586 0.0335071242
0.2779589066 0.2395021323 0.0362025197
0.3122639621 0.2443894245 0.0388732876
0.3483493830 0.2499082157 0.0405135935
0.3867861881 0.2565169057 0.0419815653
0.4371115127 0.2662072164 0.0476386113
0.4780704635 0.2741257242 0.0512615511
0.5094028337 0.2807516162 0.0503033616
0.5400809696 0.2877702496 0.0490744956
0.5699193085 0.2953578444 0.0478355743
0.5983258749 0.3037446704 0.0465018822
0.6249289245 0.3130992325 0.0450492152
0.6506209551 0.3229538381 0.0441276859
0.6759373321 0.3329348123 0.0439964911
0.7006195996 0.3430738722 0.0444888389
0.7245205289 0.3534296981 0.0455503055
0.7479516195 0.3641899724 0.0471677546
0.7709328849 0.3754839559 0.0493639725
0.7933900781 0.3872440211 0.0522322516
0.8152424413 0.3992975135 0.0559244697
0.8362950598 0.4115535774 0.0605816190
0.8563302049 0.4240021233 0.0663364469
0.8752289239 0.4366268872 0.0733671862
0.8933345643 0.4494980699 0.0818438109
0.9109959754 0.4627522418 0.0919180601
0.1076981479 0.2415812029 0.0325433574
0.1166113663 0.2432945726 0.0322626451
0.1263620967 0.2450963924 0.0321291236
0.1397689197 0.2474930327 0.0321746815
0.1568098420 0.2504621718 0.0325143218
0.1771592489 0.2539497942 0.0331961437
0.2004270613 0.2578832214 0.0341715531
0.2262655594 0.2621567203 0.0352644412
0.2543483306 0.2667052131 0.0361903193
0.2849756921 0.2714966397 0.0367118954
0.3180296654 0.2768398885 0.0406819494
0.3529895870 0.2825502643 0.0437079445
0.3891788499 0.2888182577 0.0456948270
0.4259934986 0.2957396271 0.0469096989
0.4698995440 0.3040291202 0.0503239647
0.5152198879 0.3116858233 0.0564397545
0.5496675449 0.3181429622 0.0572101740
0.5802974562 0.3249002838 0.0557583521
0.6097882020 0.3321792316 0.0542284264
0.6374829601 0.3402708977 0.0525213142
0.6630752535 0.3493266823 0.0506693917
0.6870134071 0.3591306095 0.0491326227
0.7104872841 0.3690033293 0.0487038025
0.7334066110 0.3789876357 0.0491284978
0.7559776602 0.3891936710 0.0502926945
0.7781199795 0.3998797743 0.0521431752
0.7997347879 0.4111666872 0.0547019369
0.8207597944 0.4229459892 0.0580931761
0.8411055133 0.4350108445 0.0625073022
0.8606048134 0.4472476177 0.0681209543
0.8790955931 0.4596166816 0.0751135582
0.8971147229 0.4721166776 0.0836809074
0.9146043118 0.4848505415 0.0939805152
0.1259810132 0.2742216211 0.0345433979
0.1336910401 0.2758762789 0.0345551292
0.1422714681 0.2776387667 0.0346505605
0.1543409876 0.2799912734 0.0348833449
0.1701028456 0.2828928957 0.0353014990
0.1893543224 0.2862967750 0.0359446971
0.2116946315 0.2901726625 0.0368126246
0.2366363495 0.2944884538 0.0378404532
0.2639710011 0.2992081337 0.0388699361
0.2936893470 0.3043123256 0.0396137557
0.3254152083 0.3097624289 0.0399242609
0.3591043358 0.3159365121 0.0453364900
0.3941225928 0.3223656528 0.0489109904
0.4298135586 0.3292588966 0.0514123700
0.4656013880 0.3366041111 0.0528136266
0.5032430371 0.3443883446 0.0542964254
0.5493280368 0.3511777936 0.0601615574
0.5887934520 0.3565807289 0.0641997317
0.6197656173 0.3628436291 0.0631695703
0.6484707507 0.3697905958 0.0613477486
0.6750997675 0.3775241784 0.0592853092
0.6993984083 0.3861883359 0.0570688358
0.7215205859 0.3957605347 0.0549694079
0.7433012060 0.4054605470 0.0541939042
0.7649335664 0.4152176894 0.0545943163
0.7862252920 0.4252224488 0.0559470488
0.8070140539 0.4357883239 0.0581423737
0.8271882120 0.4470047908 0.0612099375
0.8467087610 0.4587017388 0.0653264992
0.8655306780 0.4706341708 0.0707399186
0.8835396763 0.4827072952 0.0776452523
0.9013660770 0.4950304782 0.0862421756
0.9185636577 0.5077100575 0.0967130118
0.1467817703 0.3079260213 0.0358028285
0.1533593409 0.3095175016 0.0360587203
0.1607281145 0.3112431268 0.0363966694
0.1711817163 0.3135890808 0.0369350658
0.1850360345 0.3165255853 0.0376956728
0.2024007804 0.3199653258 0.0386412274
0.2232014534 0.3238185600 0.0396864978
0.2470496515 0.3280596982 0.0407712374
0.2738435223 0.3327019005 0.0418262171
0.3031026798 0.3377636338 0.0427021891
0.3341369289 0.3432798590 0.0431363535
0.3664754680 0.3492362191 0.0431769810
0.4003168272 0.3560803807 0.0500819707
0.4348716935 0.3630653488 0.0544352405
0.4695369372 0.3704048522 0.0576210611
0.5039394683 0.3780014212 0.0593645175
0.5391523021 0.3857816219 0.0600569689
0.5820276493 0.3921853473 0.0638149425
0.6248078584 0.3962120666 0.0699267650
0.6579155705 0.4010391190 0.0712126492
0.6854777414 0.4076042540 0.0691878446
0.7106722405 0.4149456109 0.0668070296
0.7335553530 0.4231598557 0.0642870604
0.7545120381 0.4323182051 0.0618023897
0.7748419066 0.4417992870 0.0606087132
0.7951543188 0.4512673511 0.0610540765
0.8151094026 0.4610306644 0.0627133010
0.8344833847 0.4714044082 0.0654232741
0.8531985658 0.4824042831 0.0692554391
0.8712374921 0.4939741881 0.0744267194
0.8887485440 0.5059877055 0.0812027620
0.9062243634 0.5183830298 0.0897793208
0.9229626400 0.5311267375 0.1003502358
0.1702312989 0.3422252568 0.0364250251
0.1758407493 0.3437275373 0.0368111714
0.1821426600 0.3453798629 0.0372882749
0.1911162256 0.3476641226 0.0380278855
0.2030817032 0.3505791778 0.0390762585
0.2182303918 0.3540581578 0.0404185625
0.2366706695 0.3580052418 0.0419606869
0.2585949210 0.3623209381 0.0435342539
0.2840739734 0.3669353557 0.0449433969
0.3125167563 0.3718648962 0.0460538853
0.3430665465 0.3771860197 0.0467353251
0.3748613254 0.3829748599 0.0467620772
0.4073256924 0.3892582878 0.0464903791
0.4408641952 0.3965640246 0.0549166309
0.4744887455 0.4038942436 0.0602089956
0.5079566392 0.4114618089 0.0642247457
0.5421516811 0.4191214292 0.0664780634
0.5768111250 0.4267846906 0.0671868336
0.6149787660 0.4334266827 0.0686601272
0.6576360235 0.4367446146 0.0744829195
0.6931736681 0.4396060397 0.0786873516
0.7203711811 0.4450377033 0.0777452357
0.7442188305 0.4519739302 0.0751110036
0.7661436542 0.4597082587 0.0723836129
0.7861390275 0.4683307832 0.0697539628
0.8049905110 0.4775173921 0.0681434138
0.8239587084 0.4866497101 0.0687643097
0.8425920256 0.4962001128 0.0709870666
0.8605927655 0.5065314910 0.0745516463
0.8778614613 0.5177004504 0.0795136325
0.8949000448 0.5295521399 0.0861162807
0.9118449132 0.5419112815 0.0946318273
0.9279213783 0.5547083936 0.1052361755
0.1959740236 0.3767555240 0.0366764873
0.2008228731 0.3781465840 0.0371121770
0.2062664987 0.3796905070 0.0376365166
0.2140136710 0.3818491254 0.0384359158
0.2243454838 0.3846467469 0.0395750019
0.2374545494 0.3880504457 0.0410929718
0.2536727903 0.3919918923 0.0429788472
0.2733312456 0.3963708649 0.0451075760
0.2965033150 0.4010817111 0.0472405675
0.3229870315 0.4060473862 0.0490819155
0.3522346463 0.4112491212 0.0503553402
0.3833303535 0.4167611660 0.0508638134
0.4152433438 0.4226968378 0.0504418074
0.4472889149 0.4291372824 0.0498586016
0.4800510336 0.4366839193 0.0598511416
0.5127998450 0.4441277688 0.0661415391
0.5462521230 0.4516967663 0.0710068083
0.5801612930 0.4592379824 0.0738222455
0.6142269179 0.4666118198 0.0748901609
0.6487784369 0.4734784948 0.0750962996
0.6882128051 0.4770721513 0.0789162636
0.7245654328 0.4785178520 0.0846641630
0.7531596130 0.4818557264 0.0865420304
0.7763105443 0.4881047258 0.0842400452
0.7971908011 0.4954762975 0.0814538039
0.8162389971 0.5037208389 0.0789606539
0.8339307440 0.5126916872 0.0774141178
0.8516664900 0.5217258756 0.0785787687
0.8689753172 0.5313009949 0.0817303147
0.8856172299 0.5417917874 0.0864873585
0.9022068913 0.5532204476 0.0929139073
0.9183848591 0.5654055063 0.1012769949
0.9335628176 0.5781680145 0.1118985787
0.2230376388 0.4113051320 0.0369242767
0.2274390151 0.4125260226 0.0372879635
0.2323339135 0.4139018682 0.0377450396
0.2392211174 0.4158654622 0.0384841336
0.2483648015 0.4184714987 0.0396032617
0.2600442874 0.4216870072 0.0411142623
0.2744997906 0.4254725374 0.0430465747
0.2919695950 0.4297594767 0.0453793200
0.3126313062 0.4344556978 0.0480038779
0.3365138645 0.4394561142 0.0506562278
0.3633852157 0.4446756487 0.0529437033
0.3926760059 0.4500862648 0.0544674941
0.4234902032 0.4557376178 0.0549075971
0.4548060456 0.4617165023 0.0540778327
0.4858419780 0.4681612580 0.0532327689
0.5181245725 0.4757399209 0.0648325013
0.5510242441 0.4830887382 0.0721128440
0.5842141719 0.4905339958 0.0776128363
0.6174560328 0.4979559038 0.0809837741
0.6505051347 0.5051765891 0.0824975146
0.6827840343 0.5121563204 0.0826088762
0.7173786471 0.5168533253 0.0840939489
0.7530007265 0.5179891041 0.0895377644
0.7832320717 0.5194273369 0.0942161263
0.8070111800 0.5240964022 0.0944234776
0.8271934658 0.5310272518 0.0924207151
0.8457005577 0.5386955456 0.0910766685
0.8626601015 0.5471551164 0.0906302976
0.8788187663 0.5562137416 0.0922678473
0.8949795977 0.5659927117 0.0964182957
0.9108996127 0.5768302512 0.1024870540
0.9260302867 0.5886818170 0.1105797377
0.9399861317 0.6013262366 0.1211102033
0.2502663800 0.4457423292 0.0375497464
0.2544777563 0.4467869033 0.0378314990
0.2591760559 0.4479667753 0.0381824674
0.2658017950 0.4496546549 0.0387431546
0.2745214954 0.4519137109 0.0395993804
0.2854022333 0.4547821962 0.0408619157
0.2985263746 0.4582812657 0.0426658881
0.3141779992 0.4623211091 0.0449508458
0.3325703228 0.4668212108 0.0476581180
0.3538309508 0.4716940520 0.0506641670
0.3779383921 0.4768449488 0.0537173526
0.4046313271 0.4821936080 0.0563978520
0.4333375490 0.4877351453 0.0581863303
0.4631723726 0.4935177142 0.0586394089
0.4932345494 0.4996051638 0.0575211336
0.5237788182 0.5061669392 0.0565247095
0.5562197593 0.5139641613 0.0697645287
0.5888889972 0.5214575069 0.0779012064
0.6214390014 0.5289750788 0.0839717904
0.6536282568 0.5364168433 0.0878855976
0.6852167592 0.5435973765 0.0898673624
0.7155863534 0.5505047199 0.0902978727
0.7460450491 0.5562642077 0.0903575979
0.7797383337 0.5579534012 0.0943710255
0.8111800108 0.5578455750 0.1014246323
0.8368276347 0.5598866295 0.1066334794
0.8573473238 0.5653015311 0.1080744457
0.8752832142 0.5722820961 0.1089409540
0.8918241059 0.5801985691 0.1107534367
0.9071592918 0.5894637695 0.1130674213
0.9215002084 0.5999885887 0.1172528129
0.9350101743 0.6115343646 0.1243668885
0.9472864151 0.6240332463 0.1342557623
0.2775767487 0.4797371299 0.0385562556
0.2817116994 0.4806150230 0.0387698802
0.2863160512 0.4816094114 0.0390359312
0.2927908050 0.4830377859 0.0394604838
0.3012732173 0.4849604208 0.0401067720
0.3117880793 0.4874196531 0.0410523620
0.3243343061 0.4904528698 0.0423975092
0.3389087404 0.4940913536 0.0442760066
0.3555677309 0.4983351931 0.0468155509
0.3745931912 0.5030505048 0.0498191737
0.3960846302 0.5081523757 0.0531249729
0.4199800389 0.5135586866 0.0564624793
0.4459908108 0.5191979467 0.0594111834
0.4735471959 0.5250322562 0.0614214362
0.5021169059 0.5310821867 0.0619323103
0.5317475794 0.5373811680 0.0606378699
0.5619418272 0.5441196704 0.0596186428
0.5940638795 0.5521170441 0.0745252768
0.6260374064 0.5596517063 0.0834348196
0.6575288603 0.5671303055 0.0900546251
0.6882798493 0.5744830439 0.0944924067
0.7181081293 0.5814949364 0.0969577767
0.7470970816 0.5880571819 0.0978735332
0.7755739390 0.5939568764 0.0979202372
0.8067769346 0.5964127031 0.1009738040
0.8383560781 0.5954942387 0.1100555802
0.8654506871 0.5951782373 0.1212550454
0.8871604076 0.5982269640 0.1300632189
0.9057310316 0.6043463848 0.1360190557
0.9218783966 0.6121427599 0.1410076870
0.9353833811 0.6217214261 0.1454202591
0.9461353063 0.6333268484 0.1484936029
0.9556225190 0.6460706025 0.1544776245
0.3044240973 0.5137720775 0.0399390434
0.3085005265 0.5145389211 0.0400968330
0.3130378274 0.5154080378 0.0402944011
0.3194116432 0.5166572395 0.0406113279
0.3277432685 0.5183408369 0.0410959658
0.3380297241 0.5204990923 0.0418068986
0.3502258506 0.5231700570 0.0428164986
0.3642685159 0.5263880930 0.0442141538
0.3800991120 0.5301810200 0.0461130401
0.3976781416 0.5345671411 0.0486647836
0.4170820526 0.5394876259 0.0518800197
0.4384771959 0.5447824877 0.0553977004
0.4617669547 0.5503742488 0.0589335550
0.4866754235 0.5561942852 0.0620486003
0.5133773066 0.5622046333 0.0641802070
0.5415643672 0.5684153318 0.0647438540
0.5705921433 0.5748287540 0.0633670812
0.5999818469 0.5816481615 0.0624324945
0.6313302919 0.5897338130 0.0789913694
0.6621805999 0.5971948829 0.0886380377
0.6923074444 0.6044771192 0.0957678800
0.7215151297 0.6114909855 0.1006828127
0.7502558612 0.6180036672 0.1037086324
0.7786446701 0.6238753484 0.1054392133
0.8062555926 0.6291395035 0.1066409705
0.8347631558 0.6322904025 0.1099890347
0.8649515545 0.6315194632 0.1210266906
0.8925514469 0.6299328268 0.1383089175
0.9159044122 0.6311700971 0.1556884910
0.9340443287 0.6363094072 0.1698197100
0.9480439372 0.6442181562 0.1814947498
0.9584008501 0.6543517353 0.1896157718
0.9656095810 0.6667730646 0.1925647388
0.3304753003 0.5484186419 0.0416676839
0.3344678226 0.5490887768 0.0417838675
0.3389176383 0.5498469732 0.0419298018
0.3451758318 0.5509348035 0.0421648909
0.3533620506 0.5523984268 0.0425263321
0.3634642750 0.5542727353 0.0430594244
0.3754131442 0.5565928141 0.0438197171
0.3891021336 0.5593935574 0.0448735411
0.4044108906 0.5627072570 0.0462997422
0.4212268313 0.5665595892 0.0481930559
0.4394588869 0.5709649365 0.0506704824
0.4590411470 0.5759200358 0.0538733790
0.4800432879 0.5812835843 0.0575140027
0.5027665363 0.5869349266 0.0611563843
0.5274573768 0.5928111802 0.0643553264
0.5538081221 0.5988747248 0.0665367337
0.5812861249 0.6051247317 0.0671039846
0.6093205570 0.6115389481 0.0656796577
