latent/luts/10Splice.cube
TITLE "Splice"
#LUMIXPHOTOSTYLE STD
# look 10Splice (放映)  order=PGN  source=10Splice.json
LUT_3D_SIZE 5
0.0000000000 0.0000000000 0.0000000000
0.1155471512 0.0095385755 0.0034748394
0.4327386459 0.0611261663 0.0066505206
0.7186745830 0.1275441845 0.0097022657
0.9249262235 0.2395778440 0.0164880934
0.0300688128 0.0965331851 0.0125982722
0.1260755561 0.1184081295 0.0237271476
0.4861055086 0.1739981361 0.0470029690
0.7728244353 0.2345322043 0.0389226299
0.9526173551 0.3438687934 0.0405499145
0.1379724712 0.3607860512 0.0522341133
0.2174687415 0.3667362875 0.0672423252
0.4506639799 0.4080806384 0.1010103503
0.7784476133 0.4987981437 0.1269103727
0.9768006668 0.5732470696 0.1591980526
0.3664927158 0.6865404387 0.1314762053
0.4329849606 0.6892589845 0.1446087679
0.6011990139 0.7003954791 0.1893673401
0.7944745495 0.7317657370 0.2559761827
0.9820021195 0.7835712842 0.3408886918
0.6156511989 0.9446292041 0.2950230930
0.6592387743 0.9465800046 0.3104772143
0.7646715202 0.9531473983 0.3565891379
0.9085010771 0.9660253185 0.4249492061
0.9998950010 0.9809596794 0.7612051736
0.0002629797 0.0049740687 0.0559263799
0.1380346122 0.0063959713 0.1114655966
0.4795070895 0.0381319929 0.1223799194
0.7806461535 0.0862713657 0.1158745857
0.9656767206 0.1879287882 0.1372513025
0.0119289446 0.1247668618 0.1284190296
0.1325968884 0.1324495019 0.1365138334
0.4830273605 0.1599610802 0.1432314330
0.7842941166 0.2217311911 0.1308563811
0.9683969957 0.3246145414 0.1552464927
0.1146235453 0.3788919467 0.1383223262
0.2035178768 0.3912983624 0.1553551802
0.4762786343 0.4413328128 0.1834158942
0.7961266186 0.5196554165 0.2416606253
0.9770817379 0.5824520035 0.2783493569
0.3492606751 0.6925261279 0.2202865443
0.4197969788 0.6947399155 0.2357720860
0.5884635129 0.7052454908 0.2869610703
0.7834713471 0.7384663746 0.3523700485
0.9833539962 0.7908392775 0.4132554517
0.6048950592 0.9475375266 0.3765828152
0.6502238410 0.9493428696 0.3894969456
0.7589466510 0.9554628001 0.4275643381
0.9042382904 0.9676650909 0.4906416917
0.9998685008 0.9822730787 0.7833829847
0.0004756733 0.0343798136 0.1516620600
0.1072917808 0.0255080976 0.3522965672
0.5136967102 0.0299047019 0.3772637532
0.7964221723 0.0744757509 0.3983343498
0.9696747483 0.1692798469 0.4354321894
0.0038592981 0.1156971855 0.2765305357
0.1106615482 0.1313005972 0.3626122852
0.4998849352 0.1567008204 0.4285400789
0.7944943243 0.2000996151 0.4322718915
0.9723485468 0.3062358887 0.4547557283
0.0675282865 0.4332463713 0.3937837876
0.1731569620 0.4561167189 0.4207522995
0.4937114487 0.4768438110 0.4460385925
0.7797679088 0.5058618903 0.4628969544
0.9788191075 0.5807539620 0.5084754047
0.2835288779 0.7137134334 0.4575896529
0.3667928824 0.7158349403 0.4708814067
0.5661844322 0.7319926730 0.4984362798
0.7851843870 0.7690977116 0.5198393331
0.9902109258 0.8128985849 0.6188153709
0.5695775359 0.9566141548 0.5608520275
0.6206999595 0.9579780921 0.5704806062
0.7413837581 0.9626533016 0.6007535820
0.8890739896 0.9729827574 0.6544097328
0.9995558816 0.9874606527 0.8233036027
0.0007575410 0.0811032361 0.3583027407
0.0730017032 0.0683916250 0.6101474189
0.4630418587 0.0600745004 0.6722810112
0.8201627434 0.0641948678 0.6713128116
0.9767592714 0.1719854487 0.6712002648
0.0019477736 0.1570818618 0.4450648762
0.0782878720 0.1606906118 0.6210192867
0.4529440821 0.1662933102 0.6867970674
0.8198910613 0.1818774404 0.6925563380
0.9787472850 0.3087866301 0.6909882578
0.0265417550 0.4206513962 0.6288914728
0.1267932605 0.4360490003 0.6570560679
0.4605009347 0.4721860961 0.7171339575
0.8003825673 0.5053592683 0.7545272091
0.9830186048 0.5743728186 0.7459890912
0.1750478121 0.7416350124 0.7130950511
0.2824274961 0.7496787323 0.7254713917
0.5391984448 0.7758105287 0.7710230730
0.7897672522 0.7897602755 0.7897472038
0.9878095693 0.8100326202 0.8024101214
0.4925337276 0.9716289657 0.7706081723
0.5526093346 0.9726132644 0.7767752272
0.6965163824 0.9759906717 0.7978741452
0.8599323859 0.9852270014 0.8278583543
0.9995084616 0.9956330282 0.8920119143
0.0010970619 0.1486421281 0.5733539166
0.0314731938 0.1286277523 0.8111626268
0.3999239121 0.1179252380 0.8721457548
0.7920523328 0.1051884102 0.8980591913
0.9829522077 0.1792145553 0.8508173240
0.0020111214 0.2354154331 0.6393246778
0.0425517383 0.2270254047 0.8251194906
0.3993412780 0.2254513318 0.8802990883
0.7896903402 0.2194083993 0.9118690562
0.9847882062 0.3166172125 0.8651702673
0.0063486281 0.4681340696 0.7578243424
0.0787505165 0.4829855536 0.8547083336
0.4043552725 0.4976997243 0.8965766459
0.7784773704 0.5107181049 0.9396356640
0.9890505187 0.5778483098 0.9066344271
0.0897459793 0.7526959315 0.8966237995
0.1907038853 0.7546761986 0.9092847694
0.4894854174 0.7691740712 0.9367289553
0.7793301939 0.7917346082 0.9722319147
0.9929338348 0.8170286479 0.9738106594
0.3857139374 0.9841008992 0.9586385437
0.4556035574 0.9851127251 0.9642953739
0.6413794185 0.9891416692 0.9771310449
0.8349390095 0.9954909282 0.9939969072
1.0000000000 1.0000000000 1.0000000000
