latent/luts/10Splice.cube
TITLE "Splice"
#LUMIXPHOTOSTYLE STD
# look 10Splice (放映)  order=PGN  source=10Splice.json
LUT_3D_SIZE 33
0.0000000000 0.0000000000 0.0000000000
0.0031476538 0.0001836937 0.0001929970
0.0088071745 0.0004232090 0.0004344035
0.0189570713 0.0008358492 0.0008070310
0.0329900319 0.0015325938 0.0013260460
0.0491378297 0.0025883034 0.0018896916
0.0679357024 0.0041655646 0.0024543282
0.0899310785 0.0063855889 0.0029951292
0.1155471512 0.0095385755 0.0034748394
0.1451037129 0.0142343147 0.0039175075
0.1812701474 0.0201194436 0.0043338632
0.2223186351 0.0267561123 0.0047243275
0.2657446697 0.0337166843 0.0050974595
0.3098471960 0.0405929573 0.0054796616
0.3532454833 0.0472302646 0.0058869194
0.3943753887 0.0540086016 0.0062889389
0.4327386459 0.0611261663 0.0066505206
0.4712459819 0.0686175874 0.0069762794
0.5098459799 0.0764648107 0.0072836001
0.5481373272 0.0845659010 0.0076010411
0.5856393740 0.0928443076 0.0079368804
0.6218328399 0.1012526361 0.0083055538
0.6562844171 0.1097756040 0.0087291464
0.6885031834 0.1184782388 0.0092048448
0.7186745830 0.1275441845 0.0097022657
0.7473380693 0.1371508869 0.0102097446
0.7747549878 0.1478583900 0.0107228215
0.8011171087 0.1598754895 0.0112442393
0.8265849390 0.1732608744 0.0117937127
0.8513711252 0.1879767552 0.0124337156
0.8761648636 0.2038501508 0.0133009749
0.9013023681 0.2209625107 0.0145630856
0.9249262235 0.2395778440 0.0164880934
0.0003878018 0.0044418367 0.0005812365
0.0040509139 0.0049394383 0.0007019349
0.0102544315 0.0053849224 0.0009567132
0.0208548828 0.0060514929 0.0013376970
0.0348504501 0.0069993411 0.0018359251
0.0508234890 0.0083315410 0.0024159799
0.0696331275 0.0102820399 0.0030125172
0.0918073308 0.0132897501 0.0036176268
0.1178723512 0.0177149775 0.0041828312
0.1482752534 0.0232690598 0.0046334697
0.1853949864 0.0294043155 0.0050200083
0.2271751687 0.0356956907 0.0053867088
0.2711575973 0.0418539438 0.0057562295
0.3155551862 0.0478536018 0.0061558324
0.3589919674 0.0539342223 0.0065961077
0.3998961847 0.0603000184 0.0070147170
0.4383058312 0.0670654921 0.0073797017
0.4769262198 0.0742542588 0.0076979365
0.5154566374 0.0818762349 0.0079848815
0.5535300749 0.0898505506 0.0082850763
0.5906976251 0.0980785111 0.0086199927
0.6263777641 0.1064881592 0.0089722703
0.6601503178 0.1150406341 0.0093488614
0.6917424261 0.1237596392 0.0097841569
0.7214862394 0.1328028319 0.0102531781
0.7498150504 0.1425586868 0.0107377759
0.7769860288 0.1534443849 0.0112363599
0.8031809972 0.1655495940 0.0117533275
0.8285455236 0.1789545872 0.0123083981
0.8532251555 0.1936951032 0.0129513753
0.8779233065 0.2096636375 0.0138077886
0.9028898822 0.2268348754 0.0150800398
0.9262517766 0.2454804088 0.0170416942
0.0009877188 0.0119237713 0.0013489063
0.0048909538 0.0129911443 0.0014003360
0.0114573397 0.0136850652 0.0016601239
0.0222939980 0.0145246738 0.0020246494
0.0361214084 0.0156282887 0.0025223880
0.0518043581 0.0171458034 0.0031677844
0.0704782213 0.0192643866 0.0038992788
0.0931703870 0.0223130137 0.0045777928
0.1203763391 0.0266953143 0.0051357599
0.1523781093 0.0322921224 0.0055947529
0.1909684241 0.0382665935 0.0059617182
0.2335316546 0.0440210237 0.0062983562
0.2778185445 0.0495925039 0.0066559694
0.3222378253 0.0551354489 0.0070705707
0.3654581001 0.0608250957 0.0075232025
0.4059643959 0.0668678761 0.0079368148
0.4444876840 0.0733362559 0.0083025822
0.4832370469 0.0802578883 0.0086235443
0.5217278371 0.0876526949 0.0089040787
0.5595820146 0.0954899778 0.0091785724
0.5964026162 0.1036649038 0.0095012373
0.6316401329 0.1120941502 0.0098632323
0.6647589600 0.1207093046 0.0102063831
0.6956019976 0.1294963875 0.0105662948
0.7248170316 0.1386353571 0.0109794091
0.7527248587 0.1486759747 0.0114183091
0.7795759018 0.1597460910 0.0118836499
0.8055465710 0.1719383749 0.0123826243
0.8307702555 0.1853514197 0.0129357165
0.8553654990 0.2000570469 0.0135918600
0.8800160546 0.2160651792 0.0144504571
0.9047512896 0.2333152079 0.0157261563
0.9277870989 0.2520042479 0.0177252223
0.0020940400 0.0236318918 0.0023401738
0.0062174079 0.0252166006 0.0023792020
0.0129742769 0.0263257453 0.0026521878
0.0239299260 0.0274628099 0.0030170513
0.0377027785 0.0286426354 0.0035044566
0.0532458765 0.0300266324 0.0041691670
0.0718790107 0.0319245772 0.0050642718
0.0948006503 0.0347132265 0.0061153303
0.1230158513 0.0387062583 0.0070721612
0.1572815461 0.0436909028 0.0077099636
0.1983256392 0.0490652094 0.0080883323
0.2422374124 0.0543201347 0.0083659992
0.2870940115 0.0594522908 0.0086536673
0.3315649882 0.0645837898 0.0089949014
0.3744483915 0.0699190951 0.0093821786
0.4143617840 0.0756389445 0.0097547669
0.4531564152 0.0817873377 0.0100823152
0.4920725788 0.0884034995 0.0103579276
0.5305463618 0.0955168484 0.0105835513
0.5681457518 0.1031429305 0.0107761127
0.6044736152 0.1112161337 0.0110085225
0.6390832795 0.1196495535 0.0113353472
0.6715207428 0.1283631281 0.0117035193
0.7014815041 0.1373356322 0.0119825109
0.7298699158 0.1469397538 0.0122551605
0.7571143360 0.1573604378 0.0125822300
0.7834364163 0.1686830372 0.0129605133
0.8090187057 0.1809968514 0.0134024518
0.8339882602 0.1944152575 0.0139311098
0.8584322839 0.2090505424 0.0145950655
0.8831298501 0.2249819906 0.0154914151
0.9075719225 0.2422720144 0.0167952687
0.9300680278 0.2610571215 0.0188336315
0.0041353929 0.0372117724 0.0034558547
0.0086412218 0.0389189144 0.0036393198
0.0153989776 0.0403421104 0.0039781519
0.0259620974 0.0418649661 0.0044040983
0.0393888550 0.0433278078 0.0049156175
0.0548548880 0.0447178788 0.0055705582
0.0731523237 0.0462358263 0.0064761640
0.0966879222 0.0486602831 0.0079054509
0.1259654516 0.0523207944 0.0097383951
0.1617664598 0.0570016866 0.0113550921
0.2050679754 0.0622625072 0.0124122455
0.2508148434 0.0672727618 0.0128674776
0.2963395812 0.0718433330 0.0129811227
0.3411661924 0.0764667731 0.0130711400
0.3842159517 0.0814365966 0.0132684988
0.4241730944 0.0868170584 0.0135003203
0.4636945745 0.0926213226 0.0136873474
0.5031219045 0.0988773690 0.0138023145
0.5418143902 0.1056414676 0.0138381959
0.5792521373 0.1129654121 0.0138040833
0.6150813391 0.1208361057 0.0137728580
0.6488582908 0.1291913960 0.0138444132
0.6803214279 0.1380281278 0.0140890726
0.7095864236 0.1475977834 0.0144061252
0.7371114486 0.1578296198 0.0145287353
0.7634105641 0.1687247982 0.0145919395
0.7889279896 0.1803857109 0.0147571647
0.8138762201 0.1928847831 0.0150448289
0.8384002169 0.2063330694 0.0154834851
0.8625903132 0.2208752557 0.0161232851
0.8872976490 0.2366662451 0.0170596523
0.9114615079 0.2538424034 0.0184662981
0.9333135227 0.2726209737 0.0206312976
0.0077891235 0.0507503184 0.0048352770
0.0128947881 0.0523881820 0.0052057068
0.0194448867 0.0539799391 0.0056508848
0.0291820766 0.0558863875 0.0062178692
0.0416286913 0.0578884776 0.0068614096
0.0566592991 0.0597991986 0.0075807101
0.0747055659 0.0615694663 0.0084678043
0.0960785528 0.0633792497 0.0096838644
0.1254142426 0.0666322245 0.0119400512
0.1651759028 0.0720926929 0.0155660227
0.2095677229 0.0775578154 0.0182086084
0.2561969435 0.0827183098 0.0195278197
0.3026436209 0.0873060773 0.0198485480
0.3480487458 0.0916671045 0.0196704135
0.3915434089 0.0962813645 0.0194415136
0.4320943793 0.1012580282 0.0193214109
0.4726416941 0.1066618799 0.0192744370
0.5130349873 0.1125166198 0.0192241799
0.5526169195 0.1188389073 0.0191210862
0.5907616592 0.1256585514 0.0189500163
0.6268896523 0.1330290128 0.0187162677
0.6604854375 0.1411603375 0.0184389053
0.6911027680 0.1502963721 0.0182022619
0.7194901286 0.1603917805 0.0181770221
0.7464782472 0.1711977840 0.0183469765
0.7719776153 0.1825995412 0.0181537696
0.7964367544 0.1946731795 0.0178336595
0.8204548205 0.2074550460 0.0177457817
0.8442527645 0.2210151871 0.0179317619
0.8680527164 0.2354987078 0.0184462093
0.8925840801 0.2511172767 0.0193851915
0.9162975230 0.2681181325 0.0209182647
0.9374037944 0.2867534919 0.0233262649
0.0137077218 0.0647792581 0.0067031157
0.0190669177 0.0663356776 0.0072022328
0.0252783352 0.0679798674 0.0077615031
0.0340607344 0.0701213191 0.0085035060
0.0452229120 0.0725980435 0.0093746436
0.0592837534 0.0751691412 0.0103122958
0.0766926227 0.0776372535 0.0113112832
0.0976714162 0.0799242802 0.0125351508
0.1224291834 0.0821934076 0.0142200756
0.1565274594 0.0858872132 0.0171949151
0.2085509299 0.0930574020 0.0225298153
0.2601282024 0.0999893526 0.0264710180
0.3072053988 0.1052604028 0.0280031948
0.3528767391 0.1099938982 0.0283297881
0.3963219193 0.1145823140 0.0280225222
0.4374425534 0.1193688966 0.0275163520
0.4790138008 0.1244423398 0.0270002970
0.5203964042 0.1299139020 0.0265474124
0.5608338089 0.1358508630 0.0261449716
0.5996849749 0.1424509346 0.0257458047
0.6363365246 0.1497992634 0.0253277999
0.6703374702 0.1579391810 0.0248882169
0.7013350574 0.1668978068 0.0243856483
0.7298504090 0.1767698365 0.0238783624
0.7565443026 0.1876197130 0.0237142561
0.7820239109 0.1991901298 0.0238103185
0.8061197197 0.2113237502 0.0232353262
0.8290936479 0.2243776119 0.0223658294
0.8518667252 0.2381639091 0.0219387503
0.8750889618 0.2527041089 0.0220734484
0.8990694105 0.2682085692 0.0228694572
0.9220097339 0.2850029168 0.0244950200
0.9421288489 0.3034516604 0.0272033261
0.0213780679 0.0798845579 0.0092366397
0.0266632409 0.0812843329 0.0098292681
0.0324668597 0.0828395573 0.0104932505
0.0403326393 0.0849914539 0.0114126485
0.0504496035 0.0876859228 0.0125576729
0.0634108373 0.0907464198 0.0138529278
0.0797083266 0.0939459191 0.0152174039
0.0997877681 0.0970787673 0.0166498514
0.1239143208 0.1000374675 0.0183241790
0.1530935463 0.1029631812 0.0204987750
0.1922188630 0.1068381836 0.0236842398
0.2507520212 0.1150205356 0.0295353888
0.3098900223 0.1243008487 0.0349172357
0.3578175070 0.1308088161 0.0371971781
0.4002755814 0.1359219639 0.0376900470
0.4410404618 0.1410577543 0.0373848787
0.4829499895 0.1464573229 0.0367327670
0.5251078245 0.1521800541 0.0359209426
0.5664623981 0.1583434888 0.0350647902
0.6061115097 0.1650541397 0.0342535210
0.6433428812 0.1723671875 0.0334905208
0.6776751624 0.1803241224 0.0327653866
0.7091603236 0.1889666160 0.0320697391
0.7384163301 0.1983235871 0.0312964220
0.7655397131 0.2085935460 0.0305685123
0.7909910877 0.2199304520 0.0303214578
0.8153214315 0.2319654350 0.0302366864
0.8386001997 0.2444083077 0.0293892267
0.8611002889 0.2577305894 0.0284562013
0.8839618649 0.2721394262 0.0279748994
0.9068519253 0.2876661466 0.0282571153
0.9285024151 0.3043288081 0.0297652637
0.9472847522 0.3225583461 0.0327327623
0.0300688128 0.0965331851 0.0125982722
0.0350551647 0.0977221386 0.0133388424
0.0403730989 0.0990882779 0.0141560851
0.0475837858 0.1010646162 0.0152833285
0.0570541790 0.1036990159 0.0167085591
0.0691219975 0.1069311165 0.0183603137
0.0842780589 0.1106019360 0.0201323165
0.1030926465 0.1145004174 0.0219190293
0.1260755561 0.1184081295 0.0237271476
0.1544754598 0.1221883996 0.0257565168
0.1903184744 0.1259530213 0.0282711341
0.2327299342 0.1302667942 0.0315360211
0.2919248684 0.1389641277 0.0369212822
0.3555148140 0.1511501817 0.0428240526
0.4050570481 0.1609213203 0.0460821609
0.4451745642 0.1676504095 0.0470446376
0.4861055086 0.1739981361 0.0470029690
0.5280457246 0.1803780566 0.0463668187
0.5697685963 0.1868782262 0.0454105473
0.6100790059 0.1936269094 0.0443034278
0.6480021021 0.2007371205 0.0431578339
0.6828738911 0.2083126504 0.0420472620
0.7148809998 0.2164162024 0.0409792889
0.7448457575 0.2251186612 0.0399629407
0.7728244353 0.2345322043 0.0389226299
0.7988320891 0.2449882260 0.0381145792
0.8232971101 0.2565743354 0.0378178765
0.8467860270 0.2687732512 0.0374513835
0.8696776562 0.2813973740 0.0364974551
0.8928046632 0.2949803704 0.0358226755
0.9151772734 0.3097597030 0.0360377533
0.9355092576 0.3259519561 0.0375084977
0.9526173551 0.3438687934 0.0405499145
0.0393241853 0.1152620968 0.0167551610
0.0437895225 0.1162271304 0.0176763687
0.0486819273 0.1173628273 0.0186767040
0.0555299147 0.1190584411 0.0200343663
0.0645594928 0.1214209994 0.0217232631
0.0760197944 0.1244972227 0.0236745677
0.0902922024 0.1282519106 0.0258031176
0.1079075070 0.1325513606 0.0279895095
0.1294859423 0.1372495271 0.0301129811
0.1567243219 0.1422019248 0.0321935536
0.1914083121 0.1472262894 0.0344413546
0.2321003619 0.1523867497 0.0371088794
0.2767843809 0.1580702017 0.0403671548
0.3323339913 0.1676825411 0.0448039514
0.3954979973 0.1826049596 0.0502510469
0.4473590169 0.1960778590 0.0544387763
0.4908600901 0.2053537826 0.0563741997
0.5314967817 0.2127209997 0.0567407885
0.5723024902 0.2198841971 0.0563462025
0.6124251519 0.2269442833 0.0554002530
0.6506660223 0.2340119011 0.0541116462
0.6860617114 0.2412301247 0.0526551897
0.7187719724 0.2486733423 0.0510726149
0.7494302287 0.2565080244 0.0495104310
0.7782835928 0.2649638815 0.0481567430
0.8052206846 0.2742893008 0.0470299037
0.8302947099 0.2847976247 0.0463068588
0.8539846650 0.2963705416 0.0459039110
0.8772996285 0.3085519159 0.0453708735
0.9005232462 0.3213826343 0.0447237713
0.9222567901 0.3353474579 0.0447931802
0.9414399974 0.3507332743 0.0463259166
0.9572183439 0.3677642132 0.0498717197
0.0490716951 0.1367225123 0.0210883906
0.0531795591 0.1374874173 0.0221889846
0.0577443182 0.1384147650 0.0233830856
0.0641939148 0.1398453485 0.0249932079
0.0727734945 0.1419236973 0.0269708419
0.0837043502 0.1447826252 0.0292327966
0.0973027393 0.1485149558 0.0316818945
0.1140007133 0.1531332786 0.0342130866
0.1343315758 0.1585541633 0.0367185726
0.1604139981 0.1646099553 0.0390872875
0.1935465150 0.1710339329 0.0413473905
0.2327594431 0.1776101662 0.0436836503
0.2763503383 0.1843686979 0.0463063028
0.3221313380 0.1916406742 0.0493515949
0.3723004290 0.2015554550 0.0529656656
0.4306832843 0.2176935226 0.0577747979
0.4870642413 0.2341936784 0.0625461921
0.5351958495 0.2464593398 0.0656341458
0.5763635918 0.2552071675 0.0667480077
0.6151956191 0.2628729826 0.0666701040
0.6526814628 0.2702784051 0.0658778636
0.6880214171 0.2774248613 0.0644488117
0.7212176909 0.2843984156 0.0625325644
0.7525779932 0.2914136229 0.0603827251
0.7821974325 0.2987981012 0.0583718935
0.8100796278 0.3069680123 0.0569089451
0.8360831843 0.3161883878 0.0559468485
0.8604021263 0.3265604472 0.0553213994
0.8842512347 0.3379117923 0.0548377168
0.9073522621 0.3500861410 0.0545366671
0.9283997669 0.3632561039 0.0548095590
0.9464235784 0.3777202563 0.0563877409
0.9608603666 0.3937116835 0.0601751819
0.0598312480 0.1634151708 0.0252933349
0.0636560352 0.1640321686 0.0264442645
0.0679314154 0.1647916598 0.0277215923
0.0739950247 0.1659890473 0.0294921240
0.0820779273 0.1677798366 0.0317331679
0.0924063475 0.1703216137 0.0343392035
0.1053054083 0.1737511986 0.0371557363
0.1211606742 0.1781669403 0.0400487267
0.1405655537 0.1835910488 0.0429075510
0.1657208186 0.1899477503 0.0456262504
0.1972397995 0.1970811330 0.0481178875
0.2345942498 0.2047146308 0.0504338117
0.2765458325 0.2126120020 0.0527553851
0.3212338741 0.2207588542 0.0552810395
0.3663966431 0.2294120511 0.0581709062
0.4112204321 0.2396328145 0.0614966136
0.4650320844 0.2556755988 0.0657499604
0.5240548339 0.2739521618 0.0706752510
0.5763247520 0.2887982687 0.0747372694
0.6190874480 0.2992677898 0.0768466444
0.6559599234 0.3073245937 0.0771415340
0.6903729352 0.3146781411 0.0763461138
0.7231868658 0.3216223604 0.0747361543
0.7547891412 0.3281972914 0.0724220192
0.7850342051 0.3346892013 0.0698116528
0.8137081007 0.3416680228 0.0676741958
0.8406707325 0.3496054123 0.0664647806
0.8659579740 0.3585995469 0.0657982221
0.8906240574 0.3686368867 0.0653021540
0.9136680714 0.3797310095 0.0650869340
0.9339577081 0.3919585683 0.0656884502
0.9508133547 0.4054545726 0.0677523692
0.9639779258 0.4204767024 0.0720261963
0.0719976579 0.1961128211 0.0297006460
0.0755726673 0.1965704215 0.0307582019
0.0795916823 0.1971356279 0.0319551059
0.0853250160 0.1980327184 0.0336666369
0.0929979779 0.1993990797 0.0359217922
0.1027991838 0.2014025501 0.0386634842
0.1149831496 0.2042263504 0.0417606269
0.1299139036 0.2080292522 0.0450274221
0.1486526964 0.2129021131 0.0482886282
0.1728947214 0.2188661371 0.0514384073
0.2027948473 0.2258695816 0.0543812621
0.2381067393 0.2337682493 0.0570456675
0.2779952575 0.2422822090 0.0594996273
0.3209810113 0.2511725129 0.0619039494
0.3650655345 0.2603828698 0.0644440156
0.4079334706 0.2700826461 0.0672810897
0.4493580811 0.2807297275 0.0704918620
0.5000068783 0.2957998676 0.0743398518
0.5589089692 0.3143732762 0.0790849687
0.6136302629 0.3307587205 0.0836147932
0.6580582952 0.3426614665 0.0865009982
0.6939565077 0.3512119832 0.0873025445
0.7260674086 0.3582896239 0.0865322646
0.7570856084 0.3648306393 0.0848043157
0.7872750396 0.3709602111 0.0823194268
0.8165106304 0.3769677734 0.0795605727
0.8443204860 0.3836027664 0.0777012686
0.8706976481 0.3912149544 0.0769482856
0.8962989338 0.3998066811 0.0766718539
0.9195281743 0.4094572002 0.0766754392
0.9392240168 0.4205298291 0.0774390999
0.9549826786 0.4334578374 0.0797978182
0.9668930148 0.4485047985 0.0846309507
0.0859232983 0.2337653142 0.0346969269
0.0893336071 0.2340924731 0.0356343700
0.0931679290 0.2344965334 0.0366888601
0.0986357410 0.2351410679 0.0381896011
0.1059546338 0.2361300632 0.0401833063
0.1153111024 0.2375959230 0.0426861126
0.1269390899 0.2397028114 0.0456939754
0.1412907417 0.2426485760 0.0491366474
0.1597613651 0.2466167027 0.0528329217
0.1829352650 0.2517223213 0.0565684768
0.2110752323 0.2579836152 0.0601420383
0.2441200757 0.2653454040 0.0634120391
0.2815487203 0.2736800247 0.0663207753
0.3222632832 0.2827159177 0.0689515526
0.3645933345 0.2922130070 0.0714659703
0.4064195363 0.3020757349 0.0740504783
0.4470814224 0.3123865936 0.0768748889
0.4888567534 0.3233624225 0.0800522486
0.5360249211 0.3370403383 0.0836501678
0.5924703947 0.3545772824 0.0879823369
0.6472659846 0.3711969272 0.0924225743
0.6925725760 0.3838319199 0.0956720914
0.7290210907 0.3927617989 0.0969804329
0.7603816988 0.3996043612 0.0965243545
0.7899153104 0.4056347897 0.0949096265
0.8189126458 0.4112703020 0.0925318153
0.8472762666 0.4169228261 0.0900342295
0.8747266953 0.4233876786 0.0887432176
0.9012820711 0.4310185514 0.0886668827
0.9247955402 0.4400071153 0.0893072484
0.9440715538 0.4506399189 0.0907218779
0.9589126618 0.4631972141 0.0935499753
0.9697167368 0.4779242283 0.0988184454
0.1016449831 0.2749212025 0.0401847589
0.1050042705 0.2751858646 0.0410314339
0.1087761830 0.2754989275 0.0419743939
0.1141425512 0.2759795164 0.0433018128
0.1212975107 0.2766956639 0.0450603441
0.1303915663 0.2777447957 0.0472831258
0.1418073318 0.2792619101 0.0499960129
0.1564517468 0.2814129854 0.0532154198
0.1747622884 0.2843781043 0.0569295350
0.1970341601 0.2883438172 0.0609969529
0.2234411920 0.2934536668 0.0651656302
0.2540129636 0.2997554176 0.0691873523
0.2885359229 0.3072020563 0.0728580198
0.3263680652 0.3156416401 0.0760808628
0.3661960094 0.3248156515 0.0789446807
0.4061736706 0.3344905552 0.0816164120
0.4457799430 0.3445368853 0.0842892165
0.4870226300 0.3549584159 0.0871463495
0.5290056273 0.3658618018 0.0903332300
0.5731039876 0.3780973764 0.0938444529
0.6251701997 0.3936392424 0.0977467188
0.6778194229 0.4092569414 0.1017547534
0.7234463422 0.4220271029 0.1049505456
0.7612592598 0.4315440571 0.1066059941
0.7930613430 0.4387837526 0.1066763395
0.8218045382 0.4449870969 0.1055319966
0.8499133551 0.4508327860 0.1035655638
0.8780685533 0.4568653387 0.1017783694
0.9055345830 0.4638922913 0.1015310856
0.9293862285 0.4723702023 0.1029222945
0.9483264921 0.4825761468 0.1056649883
0.9623864155 0.4947163285 0.1098541142
0.9722569467 0.5089449277 0.1161953155
0.1190146688 0.3177839711 0.0459458381
0.1224173722 0.3180286513 0.0467339367
0.1262400686 0.3183159855 0.0476218292
0.1316762183 0.3187468604 0.0488859943
0.1389921357 0.3193592723 0.0505632299
0.1486278271 0.3201950800 0.0526623298
0.1608569318 0.3213274437 0.0551894157
0.1759314280 0.3228846951 0.0581622793
0.1940912391 0.3250312379 0.0615941461
0.2155493993 0.3279464636 0.0654779104
0.2404505549 0.3317977911 0.0697654409
0.2687951548 0.3367257532 0.0742778350
0.3004062432 0.3428084242 0.0787146855
0.3348836129 0.3500260733 0.0828100071
0.3714178797 0.3582296371 0.0864229495
0.4085987040 0.3671548772 0.0896020388
0.4464324527 0.3765614276 0.0925015480
0.4864776665 0.3862943693 0.0953231790
0.5277876914 0.3962950580 0.0982671762
0.5693447193 0.4065791114 0.1015045085
0.6107907844 0.4175044360 0.1050703227
0.6573544717 0.4312590526 0.1087176644
0.7062681170 0.4465257475 0.1122399997
0.7517698357 0.4601112399 0.1151519961
0.7908339786 0.4706402850 0.1169775081
0.8237739036 0.4786337070 0.1176022592
0.8528672238 0.4852410836 0.1171549069
0.8811950137 0.4913753347 0.1159686450
0.9091001479 0.4980531494 0.1157535400
0.9332950972 0.5060300509 0.1176876537
0.9520467498 0.5157238834 0.1218098199
0.9654760399 0.5273327771 0.1278823317
0.9745600552 0.5409935931 0.1362738343
0.1379724712 0.3607860512 0.0522341133
0.1415996624 0.3609968685 0.0529644755
0.1457530717 0.3612448849 0.0537922435
0.1517815361 0.3616177069 0.0549801854
0.1599759577 0.3621494712 0.0565738432
0.1705315495 0.3628779012 0.0585970945
0.1835886522 0.3638478285 0.0610591143
0.1992251122 0.3651111356 0.0639495956
0.2174687415 0.3667362875 0.0672423252
0.2383714244 0.3688620997 0.0709357419
0.2619931892 0.3716630367 0.0750253992
0.2883405578 0.3753029418 0.0794699279
0.3172949901 0.3799076492 0.0841735516
0.3485330177 0.3855503373 0.0889324078
0.3814731762 0.3922345877 0.0934241530
0.4151541895 0.3998258402 0.0974512381
0.4506639799 0.4080806384 0.1010103503
0.4887587135 0.4168707366 0.1042198604
0.5286174598 0.4262077888 0.1072697181
0.5692594627 0.4360380431 0.1103707990
0.6095194282 0.4463731627 0.1137167699
0.6482656505 0.4572861971 0.1174148196
0.6891375409 0.4701494435 0.1210572867
0.7340458191 0.4849056032 0.1242761248
0.7784476133 0.4987981437 0.1269103727
0.8182614105 0.5100749745 0.1287995558
0.8527075853 0.5187547472 0.1298390971
0.8839543299 0.5257448002 0.1299715361
0.9127008853 0.5324201620 0.1304333708
0.9369772545 0.5400067056 0.1328957402
0.9555957200 0.5490737445 0.1380138339
0.9684246578 0.5600847144 0.1465464937
0.9768006668 0.5732470696 0.1591980526
0.1598038940 0.4023422895 0.0592665196
0.1638534602 0.4025136056 0.0599345106
0.1684487664 0.4027150111 0.0606942999
0.1750494783 0.4030177203 0.0617901824
0.1839095536 0.4034498484 0.0632716176
0.1951622361 0.4040432802 0.0651728227
0.2088711021 0.4048366017 0.0675197151
0.2250257568 0.4058751556 0.0703248066
0.2435482292 0.4072099564 0.0735812420
0.2643067924 0.4088968565 0.0772576258
0.2871359233 0.4110057684 0.0812986800
0.3119168296 0.4136759198 0.0856692372
0.3385422225 0.4170818428 0.0903351024
0.3667851111 0.4213760653 0.0952106483
0.3962085803 0.4266708175 0.1001478264
0.4265567344 0.4330258547 0.1049313959
0.4595698992 0.4403933009 0.1093411278
0.4952166405 0.4486272195 0.1133017523
0.5329106530 0.4575594524 0.1168777459
0.5718324952 0.4670467900 0.1202298208
0.6108886730 0.4769990022 0.1235634830
0.6488292669 0.4873839478 0.1270835258
0.6847216484 0.4982083125 0.1309462928
0.7209501128 0.5101647750 0.1348073243
0.7618980644 0.5240134773 0.1380578493
0.8043597220 0.5377047741 0.1406328777
0.8444055005 0.5493343879 0.1425301456
0.8812296086 0.5584294985 0.1435489970
0.9148380540 0.5657135161 0.1439963352
0.9409141864 0.5731319708 0.1471413368
0.9593503224 0.5817178097 0.1538234720
0.9713199357 0.5923226908 0.1660039418
0.9789470611 0.6052365870 0.1850169023
0.1844234301 0.4427181178 0.0671671885
0.1887441695 0.4428710300 0.0677817203
0.1936247554 0.4430497645 0.0684805567
0.2005975774 0.4433169536 0.0694892383
0.2098943041 0.4436965611 0.0708558332
0.2216087775 0.4442163995 0.0726181545
0.2357519757 0.4449117848 0.0748116974
0.2522480560 0.4458261098 0.0774659814
0.2709404635 0.4470105568 0.0805983771
0.2916081588 0.4485230693 0.0842069636
0.3139862328 0.4504271786 0.0882641143
0.3377823008 0.4527914322 0.0927124364
0.3626819938 0.4556912257 0.0974658181
0.3883928064 0.4592504829 0.1024460677
0.4146377246 0.4636320299 0.1075764094
0.4426943223 0.4689609148 0.1127220866
0.4733302930 0.4753035774 0.1176982831
0.5064059017 0.4826159196 0.1223761640
