latent/luts/11Sodium.cube
TITLE "Sodium"
#LUMIXPHOTOSTYLE STD
# look 11Sodium (夜灯)  order=PGN  source=11Sodium.json
LUT_3D_SIZE 5
0.0000000000 0.0000000000 0.0000000000
0.1747184745 0.0070026038 0.0028004782
0.4970302259 0.0460105966 0.0064959659
0.7317067697 0.1273186160 0.0022187887
0.9334813500 0.2106774191 0.0048647394
0.0139858561 0.1609564095 0.0054981007
0.1794628696 0.1844234044 0.0096635978
0.5112853271 0.2325280474 0.0696712862
0.7801791155 0.2645928845 0.0998253574
0.9508007427 0.3514455683 0.0103423235
0.0865192238 0.4386115404 0.0129236250
0.2249689067 0.4434507030 0.0156877837
0.4913511212 0.4774198673 0.0242485672
0.7946756605 0.5418471281 0.0509425548
0.9833595231 0.5598902036 0.1519273848
0.1478702592 0.7306834687 0.0743775097
0.2716210270 0.7329603782 0.0757655615
0.5189612838 0.7405956675 0.0823865901
0.7706449092 0.7632038253 0.0365199109
0.9844006080 0.8025719875 0.1060695554
0.2777110959 0.9693111934 0.1811317713
0.3793790278 0.9706851677 0.1828546858
0.5892614983 0.9744825778 0.1910573246
0.8060157165 0.9824021551 0.1921297622
0.9978778114 0.9910189815 0.1946681855
0.0023887469 0.0005348470 0.1616798450
0.1846876034 0.0038877935 0.2027859580
0.5168434402 0.0119467716 0.1786394947
0.8008512710 0.0475832640 0.1340651924
0.9747552340 0.1343439557 0.1740280649
0.0027990716 0.1889870945 0.2186583357
0.1814625295 0.1950029751 0.2223799822
0.5229469636 0.2076855327 0.2124659279
0.8117716697 0.2308342091 0.1752304850
0.9785156109 0.3057662860 0.2046374562
0.0344050377 0.4533262557 0.1836294741
0.1981907338 0.4596881130 0.1915882204
0.4971041054 0.4886810026 0.2196397052
0.8063747458 0.5270686292 0.2301756221
0.9849076831 0.5535916527 0.3157993453
0.1199366432 0.7361237707 0.2130801819
0.2532887311 0.7371205310 0.2142747523
0.5111289495 0.7425104307 0.2228574911
0.7711921965 0.7658079006 0.2040636441
0.9884955755 0.8029163146 0.2997933525
0.2628553503 0.9712854535 0.3002514744
0.3678077839 0.9725858795 0.3008818555
0.5835407487 0.9759562945 0.3080643407
0.8040234040 0.9834407103 0.3121426803
0.9981798575 0.9918513776 0.3702318365
0.0268141999 0.0004948396 0.3902242280
0.1790889309 0.0062329381 0.4895099528
0.4943489779 0.0144100085 0.5102584432
0.7788203183 0.0215790918 0.4873498781
0.9725573636 0.0872640665 0.4917764604
0.0137415520 0.1771075838 0.4830260105
0.1826446681 0.1898543445 0.5066621413
0.5083159015 0.2059779981 0.5203606001
0.8047577813 0.2067374141 0.4963362246
0.9785156001 0.2787184864 0.5001832372
0.0069939285 0.4820594114 0.5009844673
0.1749775422 0.4997371346 0.5078730767
0.5026629396 0.5026241300 0.5060292089
0.7956695655 0.5111805852 0.5084647755
0.9842150139 0.5630701320 0.5390317979
0.0540601397 0.7430209974 0.4952012289
0.2142161105 0.7468634216 0.4872765622
0.5073383618 0.7501408895 0.4995469735
0.7792557970 0.7699570725 0.5111018993
0.9914136755 0.7964929183 0.5790363059
0.2272149856 0.9744836795 0.5428251533
0.3435320718 0.9757116205 0.5422893397
0.5746382382 0.9781696067 0.5472710674
0.8010852055 0.9845939006 0.5565365688
0.9977367382 0.9943765766 0.5988245045
0.0757607360 0.0004313334 0.6285253228
0.1914320462 0.0053559651 0.7142128568
0.4796393726 0.0327031696 0.7878439805
0.7680780636 0.0338024036 0.7811636104
0.9676862549 0.0595700122 0.7574325981
0.0579546228 0.1621522827 0.7652621492
0.1959573477 0.1766516421 0.7763366142
0.4876903005 0.2124121023 0.7954652093
0.7833666498 0.2112228999 0.7946470251
0.9772872420 0.2631150199 0.7645718572
0.0480080957 0.4780104588 0.7647874948
0.1841800715 0.4834396939 0.7787356167
0.4981749294 0.5000003678 0.7749172796
0.7845989879 0.5129216263 0.7850720544
0.9830528910 0.5484587007 0.7743430216
0.0123689492 0.7541159785 0.7648445538
0.1676963136 0.7696857362 0.7782862880
0.4952649649 0.7759530674 0.7714961532
0.7842693743 0.7771621584 0.7704051285
0.9885765763 0.7893710977 0.7813225926
0.0785552314 0.9786406918 0.7889097527
0.2615858914 0.9831493266 0.7848833673
0.5489967381 0.9845067345 0.7838158322
0.8014242419 0.9888915914 0.7888813649
0.9986720909 0.9967013767 0.8117785750
0.1312634986 0.0008388409 0.8302854088
0.2294449133 0.0042721599 0.8775592480
0.4719038903 0.0346742597 0.9496111311
0.7400884905 0.0971180335 0.9670193865
0.9562364122 0.1089325462 0.9634786707
0.1054801703 0.1678452658 0.9446294314
0.2276984602 0.1879347199 0.9477346833
0.4828411527 0.2270034176 0.9624722513
0.7474636764 0.2654072664 0.9713862546
0.9621223543 0.2919756570 0.9686640367
0.1225142371 0.4756864873 0.9565157791
0.2528196349 0.4826559036 0.9584732442
0.5054042379 0.5058868604 0.9650368802
0.7619349388 0.5363019141 0.9765984230
0.9709660727 0.5596799168 0.9761460940
0.1204459559 0.7562141942 0.9736797157
0.2690671054 0.7593584521 0.9758292936
0.5301712564 0.7663696656 0.9769219610
0.7839169602 0.7795378731 0.9835544041
0.9840344519 0.7966754393 0.9866853012
0.0764407475 0.9770531769 0.9902497106
0.3153037071 0.9813437037 0.9929751154
0.5810827180 0.9862065802 0.9937640684
0.8114209241 0.9938715876 0.9950381890
1.0000000000 1.0000000000 1.0000000000
