latent/luts/11Sodium.cube
TITLE "Sodium"
#LUMIXPHOTOSTYLE STD
# look 11Sodium (夜灯)  order=PGN  source=11Sodium.json
LUT_3D_SIZE 33
0.0000000000 0.0000000000 0.0000000000
0.0044442277 0.0001469264 0.0002390675
0.0128906526 0.0003309256 0.0005326317
0.0289189519 0.0006388395 0.0009693218
0.0506785059 0.0011870838 0.0015438421
0.0753150914 0.0020277187 0.0020791532
0.1047682087 0.0031855305 0.0024477161
0.1381068374 0.0048355380 0.0026499705
0.1747184745 0.0070026038 0.0028004782
0.2141649608 0.0094435148 0.0030764096
0.2569962299 0.0118276165 0.0035932468
0.3012641607 0.0133005239 0.0041682662
0.3452351975 0.0175226085 0.0052733526
0.3874447272 0.0244041572 0.0065237301
0.4264728001 0.0312027724 0.0070386398
0.4623462124 0.0382603281 0.0068482532
0.4970302259 0.0460105966 0.0064959659
0.5308301996 0.0542241749 0.0060945532
0.5636529704 0.0625173402 0.0056205967
0.5945892511 0.0706535819 0.0048465102
0.6234359071 0.0785113687 0.0038318810
0.6515947163 0.0851045297 0.0029622589
0.6795929134 0.0988182419 0.0027237328
0.7062163555 0.1140175797 0.0025288197
0.7317067697 0.1273186160 0.0022187887
0.7566632220 0.1406336556 0.0019805689
0.7814331313 0.1534792848 0.0018254581
0.8063083627 0.1654572234 0.0017645450
0.8315346977 0.1762984099 0.0018176346
0.8573595921 0.1859080818 0.0020249089
0.8837854133 0.1944238989 0.0024683724
0.9096639532 0.2023603646 0.0033116038
0.9334813500 0.2106774191 0.0048647394
0.0002800027 0.0069058867 0.0006628596
0.0051763311 0.0074070495 0.0006686010
0.0145437320 0.0077338113 0.0009067852
0.0316148563 0.0082045999 0.0012464745
0.0535879480 0.0088343953 0.0016425815
0.0782194490 0.0098098423 0.0020776823
0.1069698749 0.0115851398 0.0025670747
0.1404341004 0.0140933279 0.0028813766
0.1779862338 0.0175518929 0.0031641253
0.2188744916 0.0211130986 0.0035154183
0.2630186197 0.0242788252 0.0041354796
0.3075686033 0.0302844190 0.0060690186
0.3514042432 0.0364909347 0.0085255324
0.3933538147 0.0424724771 0.0104518506
0.4326747689 0.0481451080 0.0109656362
0.4693944139 0.0540838757 0.0106430404
0.5049355260 0.0604971018 0.0100878561
0.5392987596 0.0672286889 0.0094237253
0.5725690316 0.0743723047 0.0087333581
0.6041021567 0.0819681701 0.0077224323
0.6326996040 0.0901165549 0.0061291957
0.6582199517 0.0984216808 0.0042725038
0.6839181786 0.1054602347 0.0030597203
0.7101346912 0.1222547715 0.0029701462
0.7350011285 0.1358338476 0.0025758909
0.7594169484 0.1492080434 0.0022563468
0.7837431855 0.1621429328 0.0020410628
0.8082562922 0.1742303099 0.0019361963
0.8331869366 0.1851904713 0.0019576353
0.8587805115 0.1949150888 0.0021433323
0.8849845655 0.2036088738 0.0025747520
0.9106450682 0.2117662917 0.0034179888
0.9342619118 0.2202191297 0.0049909986
0.0006776158 0.0190101413 0.0015146845
0.0057191043 0.0203497638 0.0012815955
0.0155081477 0.0209779172 0.0015061507
0.0327773220 0.0216607833 0.0018025925
0.0544165588 0.0225408926 0.0021681386
0.0789350106 0.0237800549 0.0025700158
0.1082146344 0.0257735296 0.0030159251
0.1426563002 0.0288475648 0.0034479984
0.1814142204 0.0328174304 0.0039350182
0.2227505444 0.0380837790 0.0051584060
0.2664435238 0.0438324629 0.0074074990
0.3104386586 0.0496044170 0.0107932735
0.3534818230 0.0551055506 0.0145742565
0.3953104604 0.0600275087 0.0172058875
0.4356502202 0.0643645188 0.0177008981
0.4739452629 0.0689060830 0.0173039958
0.5110855423 0.0740148264 0.0164144631
0.5466744625 0.0797966829 0.0151393215
0.5807794659 0.0861795315 0.0138405901
0.6132415330 0.0930517255 0.0123958710
0.6428701469 0.1005426803 0.0102443832
0.6683907480 0.1090408543 0.0073010203
0.6903736923 0.1178922047 0.0044552825
0.7143219219 0.1273910385 0.0032356562
0.7389122048 0.1442933487 0.0030747389
0.7626689850 0.1578313465 0.0026311906
0.7864597645 0.1709448526 0.0023281098
0.8105385344 0.1832181133 0.0021612155
0.8351152920 0.1943630087 0.0021392226
0.8604309435 0.2043616716 0.0022957358
0.8863648409 0.2134049554 0.0027107116
0.9117608137 0.2218437704 0.0035519254
0.9351357146 0.2304819329 0.0051451500
0.0013003752 0.0385740431 0.0025308295
0.0064557460 0.0406631157 0.0020293292
0.0165559434 0.0418116937 0.0022323702
0.0340817246 0.0429106164 0.0025052882
0.0555709465 0.0439870094 0.0028401539
0.0798898272 0.0453037044 0.0032416120
0.1098949447 0.0475600940 0.0038822357
0.1455607288 0.0511420622 0.0049771661
0.1845201955 0.0556454341 0.0065652488
0.2259143976 0.0607861217 0.0091591208
0.2687442421 0.0662124444 0.0134650537
0.3101848478 0.0718440188 0.0194157245
0.3509640964 0.0771549321 0.0249645583
0.3926358614 0.0814898774 0.0279864154
0.4340302360 0.0852676623 0.0288816258
0.4738424248 0.0892206309 0.0289876139
0.5129855461 0.0934644254 0.0284222531
0.5509557222 0.0980406368 0.0272587838
0.5873482684 0.1030223550 0.0256900658
0.6219657375 0.1084402405 0.0238613010
0.6541314053 0.1143076783 0.0206160292
0.6817958981 0.1214271030 0.0149702906
0.7040771384 0.1303432974 0.0093722713
0.7221534948 0.1403735566 0.0049231656
0.7445837062 0.1530313716 0.0037461026
0.7676263705 0.1685531786 0.0033120911
0.7905701325 0.1820349240 0.0028332244
0.8139724499 0.1946607712 0.0025480182
0.8380023876 0.2062879545 0.0024461278
0.8628878262 0.2168995485 0.0025501703
0.8883984252 0.2264914823 0.0029349282
0.9133822645 0.2353834364 0.0037690421
0.9363823847 0.2443401038 0.0053871519
0.0022577904 0.0610289317 0.0034305901
0.0077166781 0.0632718839 0.0028360753
0.0181275051 0.0647662579 0.0030266159
0.0355702480 0.0663260480 0.0033211064
0.0568543254 0.0677861479 0.0036567470
0.0809946574 0.0691636861 0.0040381635
0.1095258201 0.0708419028 0.0045238962
0.1459154790 0.0743768337 0.0060974379
0.1873945169 0.0795574989 0.0095930513
0.2289940860 0.0850516960 0.0146355259
0.2695448719 0.0905651241 0.0207633667
0.3092497746 0.0961197159 0.0275195294
0.3489717893 0.1014074548 0.0337146417
0.3896331028 0.1060215948 0.0379929955
0.4302341824 0.1102825976 0.0409347795
0.4700423819 0.1143784110 0.0427329171
0.5099526274 0.1184195176 0.0434479432
0.5493278425 0.1224774233 0.0432107288
0.5875321412 0.1266129201 0.0422085343
0.6240861905 0.1309201890 0.0407379890
0.6587605098 0.1353678453 0.0386917379
0.6911650549 0.1396484919 0.0339926742
0.7195233881 0.1445871793 0.0247225976
0.7396298458 0.1534950407 0.0128011392
0.7536962497 0.1651032729 0.0056936141
0.7749005297 0.1802671121 0.0045563463
0.7965516156 0.1946111302 0.0037367597
0.8189181628 0.2080399627 0.0032128160
0.8421292812 0.2206266204 0.0029586499
0.8663726499 0.2321350083 0.0029660355
0.8912471917 0.2425371554 0.0032949072
0.9156175919 0.2521164152 0.0041099814
0.9380638732 0.2615870320 0.0057534959
0.0037891423 0.0835176797 0.0041242744
0.0099088782 0.0857935123 0.0035935788
0.0209284872 0.0875846358 0.0037844214
0.0380007592 0.0896959176 0.0041394531
0.0585642215 0.0919116068 0.0045417754
0.0824418024 0.0940033392 0.0049669420
0.1103081452 0.0959711171 0.0054115993
0.1417007663 0.0981869567 0.0058947687
0.1813716536 0.1027928284 0.0081774099
0.2276882848 0.1096241064 0.0147850954
0.2708611885 0.1166001760 0.0249252235
0.3103037425 0.1224762997 0.0334584571
0.3500690964 0.1272234836 0.0389301118
0.3901998811 0.1317884188 0.0435514475
0.4294087226 0.1365216469 0.0484013314
0.4675640458 0.1412888898 0.0529450319
0.5062699228 0.1458775846 0.0563207712
0.5452551989 0.1502230472 0.0583339603
0.5838583288 0.1543350936 0.0591058339
0.6213952488 0.1582786210 0.0588998192
0.6572758287 0.1621719739 0.0580767597
0.6913399256 0.1658430445 0.0560204816
0.7238091577 0.1687292157 0.0500372669
0.7535600011 0.1713478976 0.0379963706
0.7746018987 0.1779896820 0.0185540878
0.7847100566 0.1909868297 0.0065177734
0.8051645073 0.2076805668 0.0054635699
0.8258769201 0.2226209342 0.0043956011
0.8478646050 0.2365637301 0.0038272731
0.8711540926 0.2493195187 0.0036469157
0.8950996041 0.2608549253 0.0038685592
0.9185890893 0.2714187252 0.0046386735
0.9402486734 0.2816662371 0.0062996910
0.0061427252 0.1078061517 0.0046422560
0.0136067579 0.1099702125 0.0042468940
0.0252900254 0.1118546920 0.0044467438
0.0419941071 0.1142606613 0.0048500782
0.0615562655 0.1170590085 0.0053466964
0.0847222032 0.1199595443 0.0058807231
0.1120298110 0.1227355161 0.0064224989
0.1426954952 0.1253836987 0.0069460395
0.1759595513 0.1282177577 0.0073833696
0.2161500986 0.1330372782 0.0092468123
0.2658770683 0.1402754993 0.0162620732
0.3124254300 0.1476899022 0.0288771846
0.3530497575 0.1542102472 0.0403052735
0.3919803666 0.1595794904 0.0481834018
0.4306751345 0.1642630562 0.0535392699
0.4685653435 0.1688301512 0.0582654687
0.5063403297 0.1735286970 0.0630833395
0.5437752269 0.1783354448 0.0676428333
0.5809752132 0.1830021560 0.0712772888
0.6177489059 0.1873523209 0.0736501632
0.6536062156 0.1913494780 0.0748083608
0.6878999831 0.1951028844 0.0750832454
0.7210001877 0.1982351803 0.0731998619
0.7537290704 0.1998538275 0.0661304653
0.7850026617 0.2000187944 0.0511252482
0.8080367744 0.2035494349 0.0250622187
0.8155689508 0.2187359340 0.0075613092
0.8357663613 0.2371864488 0.0067032944
0.8557972082 0.2531068160 0.0053787564
0.8775985264 0.2675599581 0.0047956137
0.9001982019 0.2806157553 0.0047976213
0.9224516469 0.2925200137 0.0054654888
0.9430283392 0.3038713469 0.0071191927
0.0094292420 0.1336804853 0.0050756321
0.0187974292 0.1355767462 0.0048186036
0.0310470302 0.1373452926 0.0050215592
0.0474406463 0.1397299628 0.0054401352
0.0661459478 0.1427246668 0.0059993222
0.0885047623 0.1461303820 0.0066447002
0.1148723494 0.1496675405 0.0073259254
0.1447239427 0.1531222699 0.0079987868
0.1772281897 0.1564849018 0.0086014925
0.2124525849 0.1600428217 0.0090078992
0.2535394876 0.1649234416 0.0099115519
0.3039629942 0.1721504552 0.0152658754
0.3541943035 0.1796463429 0.0284245371
0.3964282485 0.1866692472 0.0434855828
0.4338911451 0.1926657768 0.0551553074
0.4703543215 0.1977257146 0.0628489378
0.5078024641 0.2022820088 0.0680751658
0.5452696601 0.2067782297 0.0727370646
0.5818792017 0.2114342720 0.0775785501
0.6173371720 0.2162296083 0.0824706740
0.6517731959 0.2209283322 0.0866702648
0.6850779821 0.2253601922 0.0897496311
0.7172414587 0.2293976751 0.0915512230
0.7497310885 0.2318499374 0.0891885315
0.7832748603 0.2315339715 0.0791212121
0.8158678590 0.2293167096 0.0603425405
0.8393518894 0.2314865402 0.0285611398
0.8498851612 0.2495138391 0.0113640774
0.8670136995 0.2689721795 0.0084815937
0.8862442298 0.2858659139 0.0068603223
0.9068487760 0.3009254696 0.0063609640
0.9273855904 0.3145756177 0.0067907826
0.9465110597 0.3274028500 0.0083730331
0.0139858561 0.1609564095 0.0054981007
0.0250839461 0.1625130262 0.0053543896
0.0376730626 0.1640326399 0.0055512171
0.0537578946 0.1661526872 0.0059587535
0.0719738081 0.1689640317 0.0065351523
0.0937684698 0.1724064659 0.0072432519
0.1191948156 0.1762886747 0.0080385264
0.1479605098 0.1803594858 0.0088671894
0.1794628696 0.1844234044 0.0096635978
0.2138156879 0.1884622934 0.0103198663
0.2519394554 0.1927239265 0.0106473275
0.2939193250 0.1979098221 0.0107299565
0.3432785695 0.2052489864 0.0140546706
0.3950416049 0.2129048461 0.0254371232
0.4388116375 0.2201825048 0.0428710734
0.4758485631 0.2267665865 0.0585077402
0.5112853271 0.2325280474 0.0696712862
0.5472742142 0.2375698923 0.0772889155
0.5835930823 0.2422175402 0.0828766432
0.6191415406 0.2468013532 0.0878520096
0.6531704373 0.2514760254 0.0929370496
0.6854673418 0.2562026189 0.0980660823
0.7165530352 0.2605788947 0.1023402163
0.7475686850 0.2638382527 0.1041875914
0.7801791155 0.2645928845 0.0998253574
0.8143102243 0.2623895464 0.0865341531
0.8471265379 0.2590321489 0.0642069036
0.8682978200 0.2628951369 0.0270788672
0.8839585978 0.2820877273 0.0169330864
0.8981598002 0.3029792976 0.0110842096
0.9154626479 0.3208820451 0.0091750051
0.9335832490 0.3367553465 0.0090005366
0.9508007427 0.3514455683 0.0103423235
0.0202527751 0.1894344581 0.0059207736
0.0320818446 0.1906463642 0.0058663977
0.0446933689 0.1918689866 0.0060587802
0.0603247998 0.1936068870 0.0064524288
0.0783932195 0.1959916594 0.0070244781
0.0999263826 0.1990843828 0.0077491384
0.1246999064 0.2028502136 0.0086014642
0.1524588830 0.2071397334 0.0095377513
0.1828003501 0.2117454494 0.0104963325
0.2161262543 0.2164941305 0.0113822107
0.2532226931 0.2213601689 0.0120339881
0.2934167745 0.2265587664 0.0122000775
0.3360117372 0.2326001408 0.0116365213
0.3832751755 0.2405800789 0.0130995611
0.4337548795 0.2489169283 0.0206306409
0.4797111943 0.2562305894 0.0386749231
0.5185887069 0.2629646176 0.0577955388
0.5534063614 0.2690657774 0.0730245169
0.5872575659 0.2745471865 0.0844814656
0.6213307574 0.2794704878 0.0925795746
0.6550193306 0.2840538184 0.0985285058
0.6875195576 0.2883281017 0.1033499517
0.7188074592 0.2920340666 0.1071452418
0.7495101764 0.2948330616 0.1095093586
0.7804924605 0.2962695026 0.1093792514
0.8131221545 0.2954294456 0.1028200263
0.8468535036 0.2925547900 0.0875834159
0.8784639797 0.2901059291 0.0633759888
0.8967623640 0.2983738552 0.0281176968
0.9145874382 0.3178127148 0.0241566116
0.9269021054 0.3393837260 0.0154284129
0.9412651375 0.3583290701 0.0129910530
0.9559675801 0.3752788571 0.0136827827
0.0279168602 0.2194394747 0.0063084069
0.0398667381 0.2203979698 0.0063158069
0.0521238415 0.2213917029 0.0065107930
0.0670739176 0.2228240490 0.0069004532
0.0850661548 0.2248374409 0.0074773806
0.1063769939 0.2275471332 0.0082220233
0.1306993065 0.2310079717 0.0091102425
0.1577172280 0.2351877946 0.0101078090
0.1870287438 0.2399691029 0.0111675094
0.2193018854 0.2451807334 0.0122182904
0.2552834127 0.2506645029 0.0131276250
0.2943637954 0.2563863699 0.0136795549
0.3357306734 0.2625219137 0.0135715447
0.3783410395 0.2694698468 0.0124617785
0.4233999651 0.2781479788 0.0142560551
0.4707244310 0.2872503531 0.0166639999
0.5192834593 0.2945391732 0.0313115690
0.5607351312 0.3009207302 0.0529417805
0.5956819450 0.3068624469 0.0722870948
0.6275399339 0.3124418290 0.0881200976
0.6588640002 0.3174389781 0.0997166756
0.6903764950 0.3215531577 0.1067906512
0.7218225707 0.3246146513 0.1101941480
0.7530392517 0.3265456880 0.1110556297
0.7840222589 0.3274023297 0.1103163223
0.8151611971 0.3272317359 0.1075908071
0.8472771745 0.3258204385 0.0996648036
0.8796457944 0.3239561806 0.0843270270
0.9074636151 0.3243850439 0.0596761059
0.9268989210 0.3377415970 0.0489338809
0.9406116315 0.3568603255 0.0351356730
0.9509724159 0.3785046161 0.0237471180
0.9620578755 0.3983887207 0.0208002678
0.0369193169 0.2521128305 0.0066872768
0.0485754994 0.2528319893 0.0067153681
0.0601977170 0.2535947977 0.0068922497
0.0745427611 0.2547156911 0.0072578898
0.0922785917 0.2563356204 0.0078328871
0.1131690335 0.2585851068 0.0086107608
0.1369291394 0.2615553780 0.0095601818
0.1632253207 0.2652949732 0.0106394867
0.1916462251 0.2697874727 0.0117958546
0.2229948269 0.2749419486 0.0129594292
0.2578849158 0.2806273884 0.0140415306
0.2958207754 0.2867136457 0.0148758412
0.3360829410 0.2931606836 0.0151997816
0.3777247771 0.3001011161 0.0146838589
0.4195315801 0.3078560034 0.0130309777
0.4627948031 0.3171177523 0.0166209872
0.5093446535 0.3269784630 0.0213506961
0.5559028783 0.3347611490 0.0222120099
0.6006780662 0.3402601345 0.0439143011
0.6367718902 0.3454285115 0.0668523227
0.6678462954 0.3502273162 0.0855155354
0.6972615497 0.3543159863 0.0993068597
0.7269305737 0.3573066058 0.1071539415
0.7573301744 0.3590032382 0.1097466114
0.7881332573 0.3595359904 0.1088136062
0.8188585151 0.3593229012 0.1064152154
0.8496150400 0.3587364681 0.1026213918
0.8807587659 0.3581279653 0.0946438869
0.9097529749 0.3586390352 0.0805278673
0.9321846977 0.3636009101 0.0590905897
0.9491203305 0.3801389629 0.0632463058
0.9608415421 0.3990362755 0.0508508077
0.9693479871 0.4203621384 0.0384309138
0.0469708458 0.2872108588 0.0072100029
0.0579437872 0.2877132158 0.0072186324
0.0687238761 0.2882540043 0.0073435863
0.0828344514 0.2890628726 0.0076336683
0.1003354085 0.2902681624 0.0081332288
0.1208018044 0.2920127918 0.0088681956
0.1438622681 0.2944264948 0.0098434712
0.1692204629 0.2975960194 0.0110254163
0.1966128772 0.3015468645 0.0123310649
0.2269899695 0.3062608244 0.0136596160
0.2607664719 0.3116786524 0.0149129392
0.2975437166 0.3177020588 0.0159848985
0.3366810962 0.3242251727 0.0166465535
0.3773121474 0.3312120906 0.0165789523
0.4183481241 0.3387583830 0.0154844170
0.4587040827 0.3471142262 0.0132474216
0.5019054335 0.3567456103 0.0186097129
0.5473550454 0.3669622345 0.0237771407
0.5933746390 0.3755561197 0.0296164525
0.6363183679 0.3806907436 0.0298151471
0.6752085804 0.3841335774 0.0537202980
0.7068899056 0.3872612370 0.0738775826
0.7356857718 0.3897758166 0.0888768453
0.7641506890 0.3914382195 0.0980845466
0.7932440160 0.3921833599 0.1019353334
0.8229040478 0.3922438708 0.1022122342
0.8527081756 0.3921306213 0.1011321487
0.8825568357 0.3924007320 0.0986261502
0.9108396550 0.3937317561 0.0926420431
0.9350649011 0.3971772434 0.0805383144
0.9528473939 0.4080136453 0.0768668974
0.9662448140 0.4244403522 0.0803742072
0.9757927037 0.4432724638 0.0710049921
0.0574929902 0.3242391926 0.0080388908
0.0674938171 0.3245800233 0.0080218625
0.0778599989 0.3249446959 0.0080904610
0.0917919518 0.3254899617 0.0082816491
0.1090616861 0.3263181277 0.0086430311
0.1291893183 0.3275641298 0.0092230305
0.1517089441 0.3293753710 0.0100740245
0.1762318343 0.3318790928 0.0112149096
0.2025410698 0.3351593433 0.0126065875
0.2317522934 0.3392430429 0.0141832300
0.2642050080 0.3440998006 0.0158052293
0.2996358118 0.3496713887 0.0172507252
0.3375043664 0.3558900377 0.0182936105
0.3770234011 0.3626713063 0.0186256184
0.4171801431 0.3699812714 0.0179172299
0.4569370192 0.3778861247 0.0159813502
0.4970077574 0.3865785813 0.0131747815
0.5402778300 0.3963253618 0.0199638838
0.5844726540 0.4065477716 0.0257822554
0.6288588913 0.4155144991 0.0322680624
0.6705613849 0.4214720709 0.0380354675
0.7077873637 0.4237470727 0.0366355123
0.7418746098 0.4244115434 0.0537499946
0.7716430158 0.4250689251 0.0706750368
0.7998011504 0.4254763337 0.0824780011
0.8278795288 0.4256812089 0.0899591688
0.8563205473 0.4259409435 0.0945393107
0.8848173537 0.4267351401 0.0980252893
0.9119518040 0.4286336989 0.0995578041
0.9359706221 0.4322441315 0.0971329006
0.9552531012 0.4383542011 0.0877448055
0.9687496242 0.4528863895 0.0999476929
0.9791792163 0.4696743947 0.1033711817
0.0676425660 0.3624138145 0.0092303752
0.0771323784 0.3626760012 0.0092019139
0.0873262124 0.3629463286 0.0092367231
0.1010582462 0.3633322902 0.0093610749
0.1181058838 0.3638998002 0.0096140225
0.1379614878 0.3647516407 0.0100348867
0.1600903289 0.3660204939 0.0106722338
0.1840095019 0.3678503439 0.0115832313
0.2095889286 0.3703715347 0.0128449458
0.2378600390 0.3736698061 0.0145115852
0.2689593515 0.3777737625 0.0164588874
0.3027913406 0.3826611773 0.0184173707
0.3390596488 0.3882743213 0.0200276523
0.3771786961 0.3945385424 0.0209123452
0.4162273527 0.4013835040 0.0206958777
0.4551912049 0.4087787372 0.0191024462
0.4947308911 0.4167682753 0.0161602673
0.5345415452 0.4255060803 0.0130121579
0.5775688468 0.4350880914 0.0211825685
0.6202842156 0.4449791265 0.0276854227
0.6626352138 0.4540092466 0.0347233293
0.7022278968 0.4604988089 0.0407711770
0.7383330276 0.4636568203 0.0461171814
0.7714547470 0.4639300291 0.0511123633
0.8023847226 0.4619669390 0.0489932557
0.8320497025 0.4607762733 0.0642795988
0.8602670569 0.4605012035 0.0776642770
0.8878015904 0.4611686518 0.0892487746
0.9136424334 0.4631499354 0.0997390420
0.9367074170 0.4668464459 0.1071316869
0.9560509874 0.4725445428 0.1086024001
0.9708505233 0.4814246012 0.1035138139
0.9809292870 0.4985089503 0.1256596846
0.0773661172 0.4007785260 0.0107944548
0.0866497432 0.4010141161 0.0107651630
0.0966519430 0.4012579970 0.0107887993
0.1101668901 0.4015962689 0.0108876629
0.1269923070 0.4020639083 0.0110929388
0.1466195384 0.4027133244 0.0114275500
0.1684744925 0.4036275929 0.0119258445
0.1919971700 0.4049286571 0.0126597293
0.2172779692 0.4067531670 0.0137129331
0.2450081560 0.4092288184 0.0151671072
0.2751249412 0.4124497860 0.0170608995
0.3075621378 0.4164551095 0.0192722347
0.3421600368 0.4212293661 0.0214356030
0.3785539175 0.4267239618 0.0230574045
0.4160918888 0.4328648671 0.0236114849
0.4539058657 0.4395721002 0.0226413477
0.4926466453 0.4468191552 0.0199769458
0.5319427698 0.4547170046 0.0159641063
0.5712320577 0.4634546305 0.0130966839
0.6135300817 0.4730059185 0.0224414701
0.6544798472 0.4828763068 0.0295340436
0.6944237386 0.4921448021 0.0369950936
0.7320238743 0.4991858477 0.0432677204
0.7670438022 0.5030047093 0.0486544576
0.7997669162 0.5037633638 0.0537759564
0.8307977629 0.5024337060 0.0591485775
0.8608694135 0.4998553783 0.0602113132
0.8901140956 0.4978645177 0.0673248803
0.9161784525 0.4987542040 0.0875392839
0.9383667119 0.5018445656 0.1056228818
0.9570092900 0.5069009251 0.1172974517
0.9720998076 0.5138931069 0.1174261960
0.9822235520 0.5285759917 0.1415436080
0.0865192238 0.4386115404 0.0129236250
0.0955834249 0.4388225873 0.0128844434
0.1053829695 0.4390413206 0.0128959668
0.1186713676 0.4393414807 0.0129802784
0.1352732192 0.4397489799 0.0131740487
0.1546915494 0.4403050173 0.0135085096
0.1763373519 0.4410644240 0.0140150241
0.1996304170 0.4420892517 0.0147282182
0.2249689067 0.4434507030 0.0156877837
0.2525276149 0.4452667210 0.0169593369
0.2821186457 0.4476681130 0.0186004431
0.3136091915 0.4507611573 0.0206026332
0.3468584312 0.4546118497 0.0228281426
0.3816291962 0.4592353326 0.0248904652
0.4174795538 0.4646145597 0.0262182123
0.4537985855 0.4706988019 0.0261966422
0.4913511212 0.4774198673 0.0242485672
0.5299027448 0.4847583847 0.0204018578
0.5684524553 0.4927588534 0.0153754603
0.6071040726 0.5016379535 0.0138467273
0.6479882368 0.5111597150 0.0238075617
0.6868411654 0.5208698337 0.0313943780
0.7244085111 0.5301277609 0.0391359451
0.7604020419 0.5374836275 0.0455471729
0.7946756605 0.5418471281 0.0509425548
0.8273366832 0.5431379536 0.0560108991
0.8587924657 0.5421359865 0.0615017147
0.8891395816 0.5400743606 0.0681122282
0.9169837373 0.5377362649 0.0699793210
0.9406867143 0.5376154352 0.0840055357
0.9591164050 0.5410052976 0.1049142386
0.9734880654 0.5470878880 0.1170333465
0.9833595231 0.5598902036 0.1519273848
0.0947551997 0.4761647953 0.0161897955
0.1035862609 0.4763669575 0.0161333615
0.1131692949 0.4765751402 0.0161299663
0.1262156862 0.4768559155 0.0162009201
0.1425838775 0.4772274814 0.0163881347
0.1618003313 0.4777222428 0.0167259995
0.1832747592 0.4783871661 0.0172457407
0.2065298386 0.4792786759 0.0179813208
0.2320602107 0.4804579275 0.0189681394
0.2597058687 0.4819872486 0.0202322693
0.2891671492 0.4839305991 0.0217720328
0.3201964945 0.4863903424 0.0235744283
0.3526046478 0.4894740957 0.0255057217
0.3861538339 0.4932701831 0.0273633556
0.4205025896 0.4978280478 0.0288417196
0.4552698358 0.5031502544 0.0294940266
0.4914227020 0.5091795917 0.0286173328
0.5288573965 0.5158330290 0.0254584403
0.5667651122 0.5230967209 0.0203539092
0.6040958615 0.5310131217 0.0144561874
0.6420394329 0.5398874395 0.0156901541
0.6807744242 0.5491751984 0.0253421066
0.7174439846 0.5585441460 0.0333242244
0.7530753481 0.5675616195 0.0412112376
0.7878226690 0.5749918544 0.0476631520
0.8216397078 0.5797416276 0.0530273849
0.8545349582 0.5815619262 0.0580896460
0.8864884932 0.5810664429 0.0639174058
0.9157973166 0.5794813380 0.0718939506
0.9405948548 0.5783645672 0.0841941455
0.9598747215 0.5793961548 0.1026309554
0.9741178530 0.5840021886 0.1274103723
0.9844427262 0.5928066898 0.1567212209
0.1019446368 0.5144313586 0.0211523927
0.1105241534 0.5146319847 0.0210785989
0.1198700170 0.5148364842 0.0210613738
0.1326472410 0.5151063701 0.0211219376
0.1487531197 0.5154519106 0.0213081108
0.1677478204 0.5158959082 0.0216566238
0.1890540159 0.5164758681 0.0221967431
0.2123799287 0.5172400328 0.0229575217
0.2381375109 0.5182431838 0.0239699310
0.2660020026 0.5195373091 0.0252324344
0.2956101228 0.5211763348 0.0267153128
0.3266129040 0.5232186476 0.0283580965
0.3586818403 0.5257243904 0.0300388949
0.3915060300 0.5287832360 0.0316092859
0.4247667473 0.5324998207 0.0328824549
0.4582585227 0.5369363571 0.0335549396
0.4930771757 0.5421033624 0.0331817285
0.5292340263 0.5479450209 0.0310655485
