latent/luts/12Argent.cube
TITLE "Argent"
#LUMIXPHOTOSTYLE STD
# look 12Argent (银盐)  order=PGN  source=12Argent.json
LUT_3D_SIZE 33
0.0000000000 0.0000000000 0.0000000000
0.0024986619 0.0024986619 0.0026531561
0.0073722880 0.0073722880 0.0078315607
0.0168108047 0.0168108047 0.0178227515
0.0330719497 0.0330719497 0.0348508436
0.0539354853 0.0539354853 0.0564752179
0.0758546223 0.0758546223 0.0790369944
0.0992238071 0.0992238071 0.1029460733
0.1245983349 0.1245983349 0.1287548332
0.1513151983 0.1513151983 0.1557833114
0.1787056073 0.1787056073 0.1833567081
0.2061641417 0.2061641417 0.2108736447
0.2340222356 0.2340222356 0.2386800329
0.2625588434 0.2625588434 0.2670708341
0.2916164967 0.2916164967 0.2959036865
0.3211443996 0.3211443996 0.3251428265
0.3509438143 0.3509438143 0.3546061411
0.3807712668 0.3807712668 0.3840674278
0.4103890187 0.4103890187 0.4133053952
0.4395648983 0.4395648983 0.4421025852
0.4682259257 0.4682259257 0.4703984277
0.4971986722 0.4971986722 0.4990294037
0.5264308393 0.5264308393 0.5279497869
0.5556711561 0.5556711561 0.5569122566
0.5846740958 0.5846740958 0.5856729661
0.6131997185 0.6131997185 0.6139917448
0.6410135526 0.6410135526 0.6416324046
0.6678864537 0.6678864537 0.6683630352
0.6935945518 0.6935945518 0.6939563559
0.7180097882 0.7180097882 0.7182806084
0.7415546060 0.7415546060 0.7417545275
0.7643538546 0.7643538546 0.7644994320
0.7864533074 0.7864533074 0.7865578903
0.0025933590 0.0025933590 0.0027538069
0.0068007803 0.0068007803 0.0072247056
0.0126839640 0.0126839640 0.0134642935
0.0232254707 0.0232254707 0.0245643529
0.0392178703 0.0392178703 0.0412414069
0.0589020349 0.0589020349 0.0615985174
0.0797418435 0.0797418435 0.0830244784
0.1027945480 0.1027945480 0.1065868593
0.1280501494 0.1280501494 0.1322548732
0.1547840071 0.1547840071 0.1592826165
0.1822503901 0.1822503901 0.1869158192
0.2097957103 0.2097957103 0.2145042788
0.2378274590 0.2378274590 0.2424707926
0.2664111987 0.2664111987 0.2708974032
0.2953415597 0.2953415597 0.2995953102
0.3245960670 0.3245960670 0.3285575572
0.3541210413 0.3541210413 0.3577455302
0.3836854361 0.3836854361 0.3869447444
0.4130513815 0.4130513815 0.4159332341
0.4419864537 0.4419864537 0.4444928145
0.4704730653 0.4704730653 0.4726179333
0.4993227863 0.4993227863 0.5011297271
0.5284264699 0.5284264699 0.5299253703
0.5575348373 0.5575348373 0.5587593811
0.5864039133 0.5864039133 0.5873893671
0.6147949877 0.6147949877 0.6155763368
0.6424745493 0.6424745493 0.6430850502
0.6692142348 0.6692142348 0.6696843922
0.6947907312 0.6947907312 0.6951476733
0.7190941465 0.7190941465 0.7193613448
0.7425514355 0.7425514355 0.7427487000
0.7652723329 0.7652723329 0.7654159898
0.7873015239 0.7873015239 0.7874047389
0.0072693300 0.0072693300 0.0077222456
0.0127180997 0.0127180997 0.0135004243
0.0199433500 0.0199433500 0.0211195188
0.0314231756 0.0314231756 0.0331328448
0.0468373466 0.0468373466 0.0491388613
0.0649519274 0.0649519274 0.0678299759
0.0845330996 0.0845330996 0.0879333200
0.1069683744 0.1069683744 0.1108387055
0.1318548674 0.1318548674 0.1361099207
0.1584432268 0.1584432268 0.1629716442
0.1859130738 0.1859130738 0.1905911466
0.2135727437 0.2135727437 0.2182783978
0.2418386332 0.2418386332 0.2464649673
0.2705615816 0.2705615816 0.2750185438
0.2994684498 0.2994684498 0.3036840681
0.3284909553 0.3284909553 0.3324100760
0.3577039262 0.3577039262 0.3612853643
0.3869698190 0.3869698190 0.3901874224
0.4160505313 0.4160505313 0.4188934590
0.4447131691 0.4447131691 0.4471843045
0.4730128291 0.4730128291 0.4751266874
0.5017219559 0.5017219559 0.5035022374
0.5306793165 0.5306793165 0.5321557770
0.5596377746 0.5596377746 0.5608438011
0.5883550289 0.5883550289 0.5893254868
0.6165936961 0.6165936961 0.6173631166
0.6441212889 0.6441212889 0.6447224638
0.6707102800 0.6707102800 0.6711732661
0.6961380051 0.6961380051 0.6964895207
0.7203171077 0.7203171077 0.7205802638
0.7436758846 0.7436758846 0.7438701841
0.7663085810 0.7663085810 0.7664500947
0.7882586642 0.7882586642 0.7883603525
0.0153016970 0.0153016970 0.0162311014
0.0223472432 0.0223472432 0.0236434682
0.0307671908 0.0307671908 0.0324488549
0.0426668307 0.0426668307 0.0448193556
0.0574036230 0.0574036230 0.0600535954
0.0736312042 0.0736312042 0.0767541974
0.0920233242 0.0920233242 0.0955947457
0.1134055287 0.1134055287 0.1173882967
0.1374724437 0.1374724437 0.1417965063
0.1635578548 0.1635578548 0.1681239379
0.1908116213 0.1908116213 0.1955032157
0.2185543279 0.2185543279 0.2232532004
0.2471247759 0.2471247759 0.2517260557
0.2761110229 0.2761110229 0.2805266079
0.3051256375 0.3051256375 0.3092872141
0.3340054159 0.3340054159 0.3378633634
0.3628156645 0.3628156645 0.3663350278
0.3916529472 0.3916529472 0.3948108024
0.4203247302 0.4203247302 0.4231121432
0.4485972536 0.4485972536 0.4510183138
0.4766481999 0.4766481999 0.4787180874
0.5051533806 0.5051533806 0.5068959250
0.5338993679 0.5338993679 0.5353441060
0.5626418810 0.5626418810 0.5638217576
0.5911408775 0.5911408775 0.5920901753
0.6191607522 0.6191607522 0.6199133518
0.6464704567 0.6464704567 0.6470584857
0.6728435343 0.6728435343 0.6732964154
0.6980582403 0.6980582403 0.6984021115
0.7220631890 0.7220631890 0.7223206520
0.7452817077 0.7452817077 0.7454718314
0.7677887672 0.7677887672 0.7679272629
0.7896261579 0.7896261579 0.7897256959
0.0277480049 0.0277480049 0.0292972248
0.0353683044 0.0353683044 0.0372409837
0.0438567247 0.0438567247 0.0460525050
0.0553343623 0.0553343623 0.0579190101
0.0690911094 0.0690911094 0.0720882234
0.0845566618 0.0845566618 0.0879574445
0.1024141779 0.1024141779 0.1061991744
0.1227145433 0.1227145433 0.1268436769
0.1455409914 0.1455409914 0.1499534206
0.1706051741 0.1706051741 0.1752156731
0.1971981872 0.1971981872 0.2019016796
0.2248192247 0.2248192247 0.2295050049
0.2536136554 0.2536136554 0.2581802298
0.2829155334 0.2829155334 0.2872770026
0.3121803387 0.3121803387 0.3162718225
0.3410957468 0.3410957468 0.3448731427
0.3696055926 0.3696055926 0.3730414203
0.3978875767 0.3978875767 0.4009654485
0.4260121340 0.4260121340 0.4287256499
0.4537629368 0.4537629368 0.4561176149
0.4815158719 0.4815158719 0.4835276571
0.5097434823 0.5097434823 0.5114362719
0.5382031672 0.5382031672 0.5396061533
0.5666541829 0.5666541829 0.5677996869
0.5948592849 0.5948592849 0.5957807974
0.6225850855 0.6225850855 0.6233156149
0.6496022926 0.6496022926 0.6501730843
0.6756858668 0.6756858668 0.6761255032
0.7006151463 0.7006151463 0.7009490008
0.7243940051 0.7243940051 0.7246440103
0.7474260215 0.7474260215 0.7476106754
0.7697659302 0.7697659302 0.7699004730
0.7914533078 0.7914533078 0.7915500299
0.0430451104 0.0430451104 0.0452114537
0.0501493784 0.0501493784 0.0525642930
0.0578773472 0.0578773472 0.0605420941
0.0681371112 0.0681371112 0.0711071226
0.0807080866 0.0807080866 0.0840149602
0.0962197678 0.0962197678 0.0998806872
0.1142974318 0.1142974318 0.1182950424
0.1344226391 0.1344226391 0.1387100125
0.1563277641 0.1563277641 0.1608392425
0.1801165107 0.1801165107 0.1847735633
0.2055193400 0.2055193400 0.2102288134
0.2326655504 0.2326655504 0.2373281046
0.2613709182 0.2613709182 0.2658905897
0.2908432515 0.2908432515 0.2951372623
0.3203808766 0.3203808766 0.3243873938
0.3494851894 0.3494851894 0.3531647756
0.3779218458 0.3779218458 0.3812538911
0.4057318374 0.4057318374 0.4087085132
0.4331718908 0.4331718908 0.4357924358
0.4602890115 0.4602890115 0.4625605785
0.4876967632 0.4876967632 0.4896360636
0.5155656120 0.5155656120 0.5171964915
0.5436570400 0.5436570400 0.5450081783
0.5717344371 0.5717344371 0.5728373246
0.5995638290 0.5995638290 0.6004509343
0.6269144286 0.6269144286 0.6276176529
0.6535590092 0.6535590092 0.6541084899
0.6792741641 0.6792741641 0.6796974340
0.7038405031 0.7038405031 0.7041619849
0.7273442453 0.7273442453 0.7275850405
0.7501413994 0.7501413994 0.7503192996
0.7722706946 0.7722706946 0.7724003565
0.7937689484 0.7937689484 0.7938621932
0.0594314131 0.0594314131 0.0621441736
0.0654263769 0.0654263769 0.0683182727
0.0718720484 0.0718720484 0.0749469877
0.0808952459 0.0808952459 0.0842067837
0.0928724365 0.0928724365 0.0964623317
0.1078965271 0.1078965271 0.1117836536
0.1259577464 0.1259577464 0.1301335307
0.1464550537 0.1464550537 0.1508767133
0.1686325349 0.1686325349 0.1732314639
0.1918264622 0.1918264622 0.1965203780
0.2162384393 0.2162384393 0.2209408730
0.2426071422 0.2426071422 0.2472300192
0.2707438853 0.2707438853 0.2751995282
0.3000079995 0.3000079995 0.3042185511
0.3296154346 0.3296154346 0.3335221913
0.3588981044 0.3588981044 0.3624651078
0.3874170247 0.3874170247 0.3906289362
0.4150149642 0.4150149642 0.4178713356
0.4418152578 0.4418152578 0.4443238320
0.4682682632 0.4682682632 0.4704402429
0.4952470304 0.4952470304 0.4970997759
0.5226705347 0.5226705347 0.5242276883
0.5503064625 0.5503064625 0.5515959901
0.5779230292 0.5779230292 0.5789753615
0.6052900461 0.6052900461 0.6061363878
0.6321797019 0.6321797019 0.6328506093
0.6583671144 0.6583671144 0.6588913915
0.6836307246 0.6836307246 0.6840346498
0.7077546673 0.7077546673 0.7080615302
0.7309389305 0.7309389305 0.7311688465
0.7534518297 0.7534518297 0.7536217527
0.7753259912 0.7753259912 0.7754498880
0.7965949355 0.7965949355 0.7966840730
0.0757043107 0.0757043107 0.0788827165
0.0807281649 0.0807281649 0.0840355389
0.0864614423 0.0864614423 0.0899071819
0.0947323175 0.0947323175 0.0983620277
0.1058571365 0.1058571365 0.1097070957
0.1199842081 0.1199842081 0.1240723505
0.1372433880 0.1372433880 0.1415647586
0.1575499751 0.1575499751 0.1620713390
0.1801083173 0.1801083173 0.1847653361
0.2039500773 0.2039500773 0.2086592291
0.2286234223 0.2286234223 0.2332988662
0.2546737311 0.2546737311 0.2592342374
0.2821492313 0.2821492313 0.2865169752
0.3107691221 0.3107691221 0.3148748571
0.3400304271 0.3400304271 0.3438200549
0.3692467917 0.3692467917 0.3726870625
0.3978075826 0.3978075826 0.4008864835
0.4253439228 0.4253439228 0.4280661205
0.4517714838 0.4517714838 0.4541517215
0.4777246789 0.4777246789 0.4797816402
0.5041907846 0.5041907846 0.5059438683
0.5310815833 0.5310815833 0.5325540579
0.5581728699 0.5581728699 0.5593917771
0.5852388997 0.5852388997 0.5862333769
0.6120540816 0.6120540816 0.6128538332
0.6383941366 0.6383941366 0.6390281442
0.6640369216 0.6640369216 0.6645324418
0.6887630294 0.6887630294 0.6891448936
0.7123813470 0.7123813470 0.7126715444
0.7351938888 0.7351938888 0.7354114048
0.7573731642 0.7573731642 0.7575339955
0.7789475197 0.7789475197 0.7790648459
0.7999467584 0.7999467584 0.8000312138
0.0930739460 0.0930739460 0.0966681981
0.0975357063 0.0975357063 0.1012237754
0.1026437675 0.1026437675 0.1064331835
0.1100557872 0.1100557872 0.1139812208
0.1201210813 0.1201210813 0.1242113160
0.1330580859 0.1330580859 0.1373284474
0.1490205133 0.1490205133 0.1534672403
0.1681640445 0.1681640445 0.1727601281
0.1902722278 0.1902722278 0.1949625215
0.2144753186 0.2144753186 0.2191799892
0.2405506683 0.2405506683 0.2451826539
0.2675214614 0.2675214614 0.2719999900
0.2950534621 0.2950534621 0.2993098328
0.3232552970 0.3232552970 0.3272312046
0.3519285726 0.3519285726 0.3555792069
0.3806818611 0.3806818611 0.3839791505
0.4090202639 0.4090202639 0.4119543759
0.4364341573 0.4364341573 0.4390123959
0.4626838010 0.4626838010 0.4649252396
0.4885542246 0.4885542246 0.4904835849
0.5145077994 0.5145077994 0.5161498273
0.5407861977 0.5407861977 0.5421644801
0.5672477963 0.5672477963 0.5683882688
0.5936754644 0.5936754644 0.5946057662
0.6198498661 0.6198498661 0.6205979905
0.6455513504 0.6455513504 0.6461445004
0.6705612063 0.6705612063 0.6710249039
0.6946626730 0.6946626730 0.6950201338
0.7177279058 0.7177279058 0.7179996733
0.7401158131 0.7401158131 0.7403196174
0.7619132844 0.7619132844 0.7620640618
0.7831440055 0.7831440055 0.7832540644
0.8038336705 0.8038336705 0.8039129462
0.1122850145 0.1122850145 0.1162488842
0.1162077240 0.1162077240 0.1202365319
0.1206998464 0.1206998464 0.1247988858
0.1272319052 0.1272319052 0.1314254191
0.1361476286 0.1361476286 0.1404559783
0.1477046501 0.1477046501 0.1521386727
0.1621111243 0.1621111243 0.1666670222
0.1795262104 0.1795262104 0.1841808125
0.2000963151 0.2000963151 0.2048031005
0.2238020024 0.2238020024 0.2284902459
0.2503961620 0.2503961620 0.2549804766
0.2788320893 0.2788320893 0.2832264697
0.3077591323 0.3077591323 0.3118948841
0.3364367250 0.3364367250 0.3402672828
0.3649889731 0.3649889731 0.3684817265
0.3933243096 0.3933243096 0.3964607690
0.4211738923 0.4211738923 0.4239502727
0.4482112750 0.4482112750 0.4506373055
0.4744376914 0.4744376914 0.4765342573
0.5004011304 0.5004011304 0.5021960609
0.5260873661 0.5260873661 0.5276097801
0.5517242485 0.5517242485 0.5530008665
0.5774846152 0.5774846152 0.5785404797
0.6031947988 0.6031947988 0.6040559144
0.6286449986 0.6286449986 0.6293374937
0.6536223579 0.6536223579 0.6541715014
0.6779130614 0.6779130614 0.6783424931
0.7013039018 0.7013039018 0.7016350899
0.7237884778 0.7237884778 0.7240404050
0.7457020815 0.7457020815 0.7458911232
0.7670720249 0.7670720249 0.7672119756
0.7879171424 0.7879171424 0.7880193732
0.8082587927 0.8082587927 0.8083324868
0.1333929793 0.1333929793 0.1376675505
0.1368385648 0.1368385648 0.1411551532
0.1407725640 0.1407725640 0.1451342806
0.1464816941 0.1464816941 0.1509036198
0.1542738166 0.1542738166 0.1587680782
0.1644061167 0.1644061167 0.1689780020
0.1771184906 0.1771184906 0.1817625030
0.1926090088 0.1926090088 0.1973046026
0.2110774593 0.2110774593 0.2157852587
0.2332733098 0.2332733098 0.2379337595
0.2591526607 0.2591526607 0.2636863273
0.2878239613 0.2878239613 0.2921442027
0.3180872953 0.3180872953 0.3221179363
0.3484845909 0.3484845909 0.3521759750
0.3779141896 0.3779141896 0.3812463312
0.4064365010 0.4064365010 0.4094040619
0.4340736514 0.4340736514 0.4366824975
0.4607231999 0.4607231999 0.4629892893
0.4869912692 0.4869912692 0.4889387696
0.5130077525 0.5130077525 0.5146656656
0.5385933466 0.5385933466 0.5399925840
0.5637685888 0.5637685888 0.5649387493
0.5887890199 0.5887890199 0.5897561617
0.6137206501 0.6137206501 0.6145091798
0.6383757300 0.6383757300 0.6390098448
0.6625520623 0.6625520623 0.6630550137
0.6860433860 0.6860433860 0.6864368431
0.7086462660 0.7086462660 0.7089498650
0.7305456770 0.7305456770 0.7307767649
0.7519403290 0.7519403290 0.7521138596
0.7728409109 0.7728409109 0.7729694811
0.7932614805 0.7932614805 0.7933554787
0.8132190457 0.8132190457 0.8132868665
0.1561956909 0.1561956909 0.1607060865
0.1592630111 0.1592630111 0.1637977774
0.1627416457 0.1627416457 0.1673020273
0.1677558670 0.1677558670 0.1723494407
0.1745566413 0.1745566413 0.1791883240
0.1833651840 0.1833651840 0.1880346931
0.1944144888 0.1944144888 0.1991135853
0.2079415261 0.2079415261 0.2126508035
0.2244774153 0.2244774153 0.2291640372
0.2445287440 0.2445287440 0.2491426983
0.2684974542 0.2684974542 0.2729691457
0.2960576017 0.2960576017 0.3003048164
0.3262177315 0.3262177315 0.3301616681
0.3576787471 0.3576787471 0.3612604891
0.3889384298 0.3889384298 0.3921309555
0.4186649684 0.4186649684 0.4214739431
0.4467655410 0.4467655410 0.4492102004
0.4736724650 0.4736724650 0.4757783082
0.5002071223 0.5002071223 0.5020042103
0.5262688975 0.5262688975 0.5277894786
0.5517472334 0.5517472334 0.5530236427
0.5766270935 0.5766270935 0.5776898894
0.6010111725 0.6010111725 0.6018878590
0.6251321495 0.6251321495 0.6258465339
0.6489420991 0.6489420991 0.6495164973
0.6722556451 0.6722556451 0.6727112968
0.6948783219 0.6948783219 0.6952349098
0.7166819164 0.7166819164 0.7169572204
0.7379698004 0.7379698004 0.7381795007
0.7588079916 0.7588079916 0.7589655913
0.7792028765 0.7792028765 0.7793197499
0.7991642717 0.7991642717 0.7992498020
0.8187050839 0.8187050839 0.8187668589
0.1801428718 0.1801428718 0.1848000330
0.1829544068 0.1829544068 0.1876224357
0.1861185056 0.1861185056 0.1907972237
0.1906287358 0.1906287358 0.1953198937
0.1966645550 0.1966645550 0.2013672987
0.2043835840 0.2043835840 0.2090928597
0.2140701843 0.2140701843 0.2187753092
0.2261017107 0.2261017107 0.2307842041
0.2408514174 0.2408514174 0.2454820995
0.2587197902 0.2587197902 0.2632561332
0.2801295971 0.2801295971 0.2845136598
0.3054044676 0.3054044676 0.3095633296
0.3340711005 0.3340711005 0.3379283115
0.3650679680 0.3650679680 0.3685597519
0.3970391273 0.3970391273 0.4001279099
0.4284810859 0.4284810859 0.4311625290
0.4579990984 0.4579990984 0.4602996641
0.4860931387 0.4860931387 0.4880511054
0.5133662479 0.5133662479 0.5150203566
0.5397891377 0.5397891377 0.5411769243
0.5653289217 0.5653289217 0.5664857093
0.5900000405 0.5900000405 0.5909579678
0.6139092552 0.6139092552 0.6146965214
0.6372613638 0.6372613638 0.6379019981
0.6602052111 0.6602052111 0.6607200522
0.6826161404 0.6826161404 0.6830245198
0.7043173428 0.7043173428 0.7046370202
0.7253673785 0.7253673785 0.7256143167
0.7460180444 0.7460180444 0.7462062762
0.7662716730 0.7662716730 0.7664132627
0.7861318724 0.7861318724 0.7862369777
0.8056052077 0.8056052077 0.8056822091
0.8247011169 0.8247011169 0.8247567961
0.2046628970 0.2046628970 0.2093722386
0.2072622838 0.2072622838 0.2119717007
0.2102013800 0.2102013800 0.2149097296
0.2144133984 0.2144133984 0.2191181397
0.2200700756 0.2200700756 0.2247662402
0.2272986745 0.2272986745 0.2319779173
0.2362460238 0.2362460238 0.2408955676
0.2471522514 0.2471522514 0.2517533933
0.2603433314 0.2603433314 0.2648695433
0.2761963608 0.2761963608 0.2806112895
0.2951123918 0.2951123918 0.2993682265
0.3174985587 0.3174985587 0.3215353475
0.3435684000 0.3435684000 0.3473172366
0.3727313233 0.3727313233 0.3761283200
0.4038861890 0.4038861890 0.4068867215
0.4356625989 0.4356625989 0.4382508392
0.4667163570 0.4667163570 0.4689075261
0.4968072243 0.4968072243 0.4986423593
0.5254811609 0.5254811609 0.5270097044
0.5527714143 0.5527714143 0.5540385490
0.5787507150 0.5787507150 0.5797963980
0.6035025488 0.6035025488 0.6043614842
0.6271522201 0.6271522201 0.6278539639
0.6498951660 0.6498951660 0.6504643625
0.6719896423 0.6719896423 0.6724465513
0.6934851719 0.6934851719 0.6938474226
0.7142757683 0.7142757683 0.7145593348
0.7346311253 0.7346311253 0.7348502519
0.7546340213 0.7546340213 0.7548011628
0.7742867834 0.7742867834 0.7744126181
0.7935925447 0.7935925447 0.7936860509
0.8125562009 0.8125562009 0.8126247838
0.8311848554 0.8311848554 0.8312345089
0.2300787577 0.2300787577 0.2347497838
0.2325759643 0.2325759643 0.2372388241
0.2353974703 0.2353974703 0.2400502301
0.2394366329 0.2394366329 0.2440733595
0.2448516197 0.2448516197 0.2494640365
0.2517518758 0.2517518758 0.2563288416
0.2602464191 0.2602464191 0.2647732421
0.2704577787 0.2704577787 0.2749154894
0.2825440789 0.2825440789 0.2869085950
0.2967781195 0.2967781195 0.3010187230
0.3135344990 0.3135344990 0.3176122022
0.3332054675 0.3332054675 0.3370723723
0.3561660213 0.3561660213 0.3597659864
0.3825041069 0.3825041069 0.3857783723
0.4115496410 0.4115496410 0.4144509713
0.4421931412 0.4421931412 0.4446968300
0.4733843015 0.4733843015 0.4754936442
0.5049498378 0.5049498378 0.5066946077
0.5355786957 0.5355786957 0.5370070543
0.5643398861 0.5643398861 0.5655051392
0.5912574444 0.5912574444 0.5922058630
0.6164912432 0.6164912432 0.6172613403
0.6402227690 0.6402227690 0.6408461718
0.6626663155 0.6626663155 0.6631686928
0.6840804484 0.6840804484 0.6844824091
0.7046891054 0.7046891054 0.7050073800
0.7247042137 0.7247042137 0.7249532384
0.7443861867 0.7443861867 0.7445786304
0.7637481438 0.7637481438 0.7638949986
0.7827976581 0.7827976581 0.7829083029
0.8015402914 0.8015402914 0.8016225912
0.8199814359 0.8199814359 0.8200418696
0.8381274678 0.8381274678 0.8381712780
0.2567315465 0.2567315465 0.2612799598
0.2591210192 0.2591210192 0.2636548820
0.2618193840 0.2618193840 0.2663361720
0.2656792699 0.2656792699 0.2701704758
0.2708474048 0.2708474048 0.2753022984
0.2774200748 0.2774200748 0.2818255321
0.2854866327 0.2854866327 0.2898267292
0.2951388040 0.2951388040 0.2993943986
0.3064823102 0.3064823102 0.3106306347
0.3196517669 0.3196517669 0.3236659825
0.3348291425 0.3348291425 0.3386778383
0.3523014978 0.3523014978 0.3559476958
0.3724388200 0.3724388200 0.3758394599
0.3955706188 0.3955706188 0.3986782676
0.4216626803 0.4216626803 0.4244327099
0.4500037325 0.4500037325 0.4524066925
0.4800487589 0.4800487589 0.4820779624
0.5115719438 0.5115719438 0.5132451458
0.5432682904 0.5432682904 0.5446230851
0.5737903920 0.5737903920 0.5748763194
0.6021514345 0.6021514345 0.6030199682
0.6283209290 0.6283209290 0.6290154252
0.6525259883 0.6525259883 0.6530809830
0.6750216892 0.6750216892 0.6754643980
0.6960840712 0.6960840712 0.6964358032
0.7160562682 0.7160562682 0.7163337035
0.7354803082 0.7354803082 0.7356970078
0.7545336022 0.7545336022 0.7547009788
0.7732796417 0.7732796417 0.7734073771
0.7917386634 0.7917386634 0.7918349515
0.8099218731 0.8099218731 0.8099935537
0.8278377460 0.8278377460 0.8278904391
0.8454938868 0.8454938868 0.8455321345
0.2844229556 0.2844229556 0.2887719537
0.2867005217 0.2867005217 0.2910303565
0.2892714913 0.2892714913 0.2935792382
0.2929469856 0.2929469856 0.2972223408
0.2978636686 0.2978636686 0.3020942479
0.3041075358 0.3041075358 0.3082789847
0.3117538141 0.3117538141 0.3158496169
0.3208732720 0.3208732720 0.3248745754
0.3315398117 0.3315398117 0.3354252773
0.3438398147 0.3438398147 0.3475855023
0.3578831039 0.3578831039 0.3614623790
0.3738141545 0.3738141545 0.3771976479
0.3918203645 0.3918203645 0.3949760781
0.4121498865 0.4121498865 0.4150434328
0.4350671819 0.4350671819 0.4376631423
0.4604614444 0.4604614444 0.4627308352
0.4884940409 0.4884940409 0.4904240980
0.5187193846 0.5187193846 0.5203172900
0.5500431915 0.5500431915 0.5513351250
0.5812159381 0.5812159381 0.5822419742
0.6110173984 0.6110173984 0.6118241814
0.6385050813 0.6385050813 0.6391384422
0.6635648316 0.6635648316 0.6640627068
0.6864668640 0.6864668640 0.6868585015
0.7075139679 0.7075139679 0.7078217163
0.7273081731 0.7273081731 0.7275490795
0.7463831214 0.7463831214 0.7465704204
0.7649491324 0.7649491324 0.7650934629
0.7831400830 0.7831400830 0.7832501486
0.8010368497 0.8010368497 0.8011198256
0.8186770836 0.8186770836 0.8187388883
0.8360756319 0.8360756319 0.8361211062
0.8532435183 0.8532435183 0.8532765651
0.3129462277 0.3129462277 0.3170299298
0.3151086944 0.3151086944 0.3191702512
0.3175489503 0.3175489503 0.3215852134
0.3210359908 0.3210359908 0.3250355681
0.3256972378 0.3256972378 0.3296468220
0.3316102530 0.3316102530 0.3354949364
0.3388395908 0.3388395908 0.3426428393
0.3474412130 0.3474412130 0.3511448626
0.3574675127 0.3574675127 0.3610518036
0.3689732943 0.3689732943 0.3724169495
0.3820226666 0.3820226666 0.3853030206
0.3966961949 0.3966961949 0.3997893854
0.4130966081 0.4130966081 0.4159778741
0.4313497841 0.4313497841 0.4339939768
0.4515955445 0.4515955445 0.4539780424
0.4742666963 0.4742666963 0.4763653332
0.4998612090 0.4998612090 0.5016621474
0.5279619347 0.5279619347 0.5294654873
0.5577900672 0.5577900672 0.5590123541
0.5883087915 0.5883087915 0.5892796031
0.6183730771 0.6183730771 0.6191308128
0.6469033189 0.6469033189 0.6474889461
0.6730631801 0.6730631801 0.6735150288
0.6966651015 0.6966651015 0.6970145083
0.7180825827 0.7180825827 0.7183531585
0.7380842004 0.7380842004 0.7382935832
0.7570966139 0.7570966139 0.7572580739
0.7753988576 0.7753988576 0.7755226196
0.7931908691 0.7931908691 0.7932849725
0.8106091286 0.8106091286 0.8106799903
0.8277417092 0.8277417092 0.8277944917
0.8446413433 0.8446413433 0.8446802029
0.8613316099 0.8613316099 0.8613598773
0.3420862066 0.3420862066 0.3458521905
0.3441310744 0.3441310744 0.3478733797
0.3464380128 0.3464380128 0.3501534197
0.3497333151 0.3497333151 0.3534099704
0.3541357118 0.3541357118 0.3577600252
0.3597155354 0.3597155354 0.3632726343
0.3665288760 0.3665288760 0.3700027004
0.3746207749 0.3746207749 0.3779941934
0.3840285950 0.3840285950 0.3872835541
0.3947858650 0.3947858650 0.3979035856
0.4069266131 0.4069266131 0.4098878323
0.4204898219 0.4204898219 0.4232750900
0.4355231156 0.4355231156 0.4381131643
0.4520838346 0.4520838346 0.4544600606
0.4704432251 0.4704432251 0.4725884589
0.4911421260 0.4911421260 0.4930416564
0.5144008351 0.5144008351 0.5160439930
0.5401033229 0.5401033229 0.5414881103
