latent/luts/12Argent.cube
TITLE "Argent"
#LUMIXPHOTOSTYLE STD
# look 12Argent (银盐)  order=PGN  source=12Argent.json
LUT_3D_SIZE 5
0.0000000000 0.0000000000 0.0000000000
0.1245983349 0.1245983349 0.1287548332
0.3509438143 0.3509438143 0.3546061411
0.5846740958 0.5846740958 0.5856729661
0.7864533074 0.7864533074 0.7865578903
0.0930739460 0.0930739460 0.0966681981
0.1902722278 0.1902722278 0.1949625215
0.4090202639 0.4090202639 0.4119543759
0.6198498661 0.6198498661 0.6205979905
0.8038336705 0.8038336705 0.8039129462
0.2844229556 0.2844229556 0.2887719537
0.3315398117 0.3315398117 0.3354252773
0.4884940409 0.4884940409 0.4904240980
0.7075139679 0.7075139679 0.7078217163
0.8532435183 0.8532435183 0.8532765651
0.5203157580 0.5203157580 0.5218971236
0.5506495128 0.5506495128 0.5519359095
0.6409477641 0.6409477641 0.6415669941
0.7822740769 0.7822740769 0.7823856122
0.9250879711 0.9250879711 0.9250956611
0.7525828083 0.7525828083 0.7527547983
0.7699222415 0.7699222415 0.7700564756
0.8210514234 0.8210514234 0.8211107509
0.9051223982 0.9051223982 0.9051341092
0.9908764632 0.9908764632 0.9908765391
0.0050296990 0.0050296990 0.0053432619
0.1230312882 0.1230312882 0.1271650761
0.3428680004 0.3428680004 0.3466249499
0.5809424998 0.5809424998 0.5819707035
0.7858271450 0.7858271450 0.7859327472
0.1217763412 0.1217763412 0.1258915688
0.2028200295 0.2028200295 0.2075287244
0.3936058002 0.3936058002 0.3967386525
0.6159830891 0.6159830891 0.6167565458
0.8032607587 0.8032607587 0.8033407813
0.2907733124 0.2907733124 0.2950679385
0.3381770059 0.3381770059 0.3419878083
0.4985788454 0.4985788454 0.5003940987
0.7071622764 0.7071622764 0.7074713218
0.8533907302 0.8533907302 0.8534236842
0.5241920955 0.5241920955 0.5257337215
0.5540481054 0.5540481054 0.5553037368
0.6426874000 0.6426874000 0.6432966904
0.7849106263 0.7849106263 0.7850177344
0.9274188525 0.9274188525 0.9274261585
0.7548169653 0.7548169653 0.7549836796
0.7720096514 0.7720096514 0.7721398154
0.8227335190 0.8227335190 0.8227911414
0.9064758795 0.9064758795 0.9064872701
0.9914547866 0.9914547866 0.9914548503
0.0393721585 0.0393721585 0.0414015849
0.1391916941 0.1391916941 0.1435356370
0.3467214185 0.3467214185 0.3504335074
0.5802849020 0.5802849020 0.5813183305
0.7865240686 0.7865240686 0.7866285369
0.1139763176 0.1139763176 0.1179686040
0.1965260410 0.1965260410 0.2012285844
0.3933676013 0.3933676013 0.3965035059
0.6119133746 0.6119133746 0.6127140780
0.8034837398 0.8034837398 0.8035634709
0.3201624910 0.3201624910 0.3241713167
0.3855800337 0.3855800337 0.3888153055
0.5177356690 0.5177356690 0.5193438169
0.6934445131 0.6934445131 0.6938069298
0.8532314516 0.8532314516 0.8532645060
0.5377984934 0.5377984934 0.5392053736
0.5667519103 0.5667519103 0.5678965851
0.6536798962 0.6536798962 0.6542287340
0.7948235953 0.7948235953 0.7949152900
0.9311874386 0.9311874386 0.9311941552
0.7622185000 0.7622185000 0.7623686194
0.7789827822 0.7789827822 0.7791000458
0.8284186287 0.8284186287 0.8284707835
0.9108178918 0.9108178918 0.9108283060
0.9932237655 0.9932237655 0.9932237995
0.1001956213 0.1001956213 0.1039372570
0.1763618434 0.1763618434 0.1810023291
0.3679790505 0.3679790505 0.3714349946
0.5921736528 0.5921736528 0.5931151808
0.7930646430 0.7930646430 0.7931589347
0.1633638186 0.1633638186 0.1679285576
0.2269881330 0.2269881330 0.2316682360
0.4070744292 0.4070744292 0.4100337355
0.6204528488 0.6204528488 0.6211970714
0.8090531776 0.8090531776 0.8091259044
0.3137175798 0.3137175798 0.3177934127
0.3586714121 0.3586714121 0.3622411589
0.5096657169 0.5096657169 0.5113593427
0.6985718715 0.6985718715 0.6989137157
0.8559697783 0.8559697783 0.8560011432
0.5553451148 0.5553451148 0.5565891260
0.5882053504 0.5882053504 0.5891769532
0.6939431806 0.6939431806 0.6943035633
0.8089580166 0.8089580166 0.8090308586
0.9309357064 0.9309357064 0.9309424612
0.7762041692 0.7762041692 0.7763264470
0.7923995979 0.7923995979 0.7924948868
0.8400990806 0.8400990806 0.8401413398
0.9214861426 0.9214861426 0.9214944572
0.9962576110 0.9962576110 0.9962576176
0.1744240288 0.1744240288 0.1790550443
0.2341942299 0.2341942299 0.2388514091
0.4028269608 0.4028269608 0.4058411729
0.6159954613 0.6159954613 0.6167688362
0.8068675964 0.8068675964 0.8069430099
0.2273207860 0.2273207860 0.2319999670
0.2819090416 0.2819090416 0.2862787422
0.4374976957 0.4374976957 0.4400621527
0.6414861051 0.6414861051 0.6421022483
0.8218887584 0.8218887584 0.8219472322
0.3665481830 0.3665481830 0.3700217697
0.4077203796 0.4077203796 0.4106713248
0.5308685879 0.5308685879 0.5323431724
0.7110648655 0.7110648655 0.7113597366
0.8661059414 0.8661059414 0.8661316728
0.5672607414 0.5672607414 0.5684011043
0.5933480636 0.5933480636 0.5942808055
0.6770669307 0.6770669307 0.6775002214
0.8123138997 0.8123138997 0.8123827629
0.9407883094 0.9407883094 0.9407936469
0.7922234743 0.7922234743 0.7923190286
0.8078401335 0.8078401335 0.8079143417
0.8557079626 0.8557079626 0.8557394858
0.9422934829 0.9422934829 0.9422986117
1.0000000000 1.0000000000 1.0000000000
